; generated by PrusaSlicer 2.5.0+win64 on 2022-10-10 at 08:03:28 UTC


;
;
; 

; external perimeters extrusion width = 0.45mm
; perimeters extrusion width = 0.45mm
; infill extrusion width = 0.45mm
; solid infill extrusion width = 0.45mm
; top infill extrusion width = 0.40mm
; first layer extrusion width = 0.42mm

M73 P0 R26
M73 Q0 S26
M201 X1000 Y1000 Z200 E5000 ; sets maximum accelerations, mm/sec^2
M203 X200 Y200 Z12 E120 ; sets maximum feedrates, mm / sec
M204 P1250 R1250 T1250 ; sets acceleration (P, T) and retract acceleration (R), mm/sec^2
M205 X8.00 Y8.00 Z0.40 E4.50 ; sets the jerk limits, mm/sec
M205 S0 T0 ; sets the minimum extruding and travel feed rate, mm/sec
M107
;TYPE:Custom
M862.3 P "MK3S" ; printer model check
M862.1 P0.4 ; nozzle diameter check
M115 U3.11.0 ; tell printer latest fw version
G90 ; use absolute coordinates
M83 ; extruder relative mode
M104 S200 ; set extruder temp
M140 S0 ; set bed temp
M190 S0 ; wait for bed temp
M109 S200 ; wait for extruder temp
G28 W ; home all without mesh bed level
G80 ; mesh bed leveling

G1 Z0.2 F720
G1 Y-3 F1000 ; go outside print area
G92 E0
G1 X60 E9 F1000 ; intro line
G1 X100 E12.5 F1000 ; intro line

G92 E0
M221 S95

; Don't change E values below. Excessive value can damage the printer.
M907 E430 ; set extruder motor current
G21 ; set units to millimeters
G90 ; use absolute coordinates
M83 ; use relative distances for extrusion
; Filament gcode
M107
;LAYER_CHANGE
;Z:0.2
;HEIGHT:0.2
;BEFORE_LAYER_CHANGE
G92 E0.0
;0.2


G1 E-.8 F2100
G1 Z.4 F720
;AFTER_LAYER_CHANGE
;0.2
G1 X121.173 Y92.652 F10800
G1 Z.2 F720
G1 E.8 F2100
M204 S800
;TYPE:Skirt/Brim
;WIDTH:0.42
G1 F1200
G1 X122.05 Y91.528 E.04472
G1 X123.101 Y90.404 E.04825
G1 X124.723 Y89.018 E.06691
G1 X126.327 Y87.986 E.05978
G1 X127.48 Y87.408 E.04044
G1 X128.993 Y86.843 E.05066
G1 X131.284 Y86.346 E.0735
G1 X133.306 Y86.25 E.06348
G1 X134.942 Y86.394 E.05147
G1 X136.71 Y86.788 E.05681
G1 X138.398 Y87.408 E.05638
G1 X140.096 Y88.305 E.06022
G1 X141.389 Y89.194 E.04918
G1 X142.777 Y90.404 E.05774
G1 X143.828 Y91.528 E.04825
G1 X144.629 Y92.551 E.04075
G1 X145.608 Y94.042 E.05593
G1 X146.47 Y95.682 E.05809
G1 X147.135 Y97.285 E.05441
G1 X147.637 Y98.832 E.05099
G1 X148.238 Y101.639 E.09001
G1 X148.442 Y103.531 E.05966
G1 X148.704 Y109.613 E.19088
G1 X148.388 Y111.016 E.0451
G1 X145.948 Y115.638 E.16387
G1 X144.94 Y116.708 E.04612
G1 X143.892 Y117.08 E.03485
G1 X140.023 Y117.592 E.12235
G1 X125.827 Y117.592 E.44511
G1 X121.947 Y117.079 E.12274
G1 X120.597 Y116.495 E.04612
G1 X119.885 Y115.626 E.0352
G1 X117.452 Y110.971 E.16469
G1 X117.142 Y109.562 E.04523
G1 X117.435 Y103.531 E.18935
G1 X117.599 Y101.912 E.05102
G1 X117.937 Y100.033 E.05985
G1 X118.323 Y98.547 E.04814
G1 X118.778 Y97.186 E.045
G1 X119.406 Y95.684 E.05103
G1 X120.103 Y94.334 E.04765
G1 X121.14 Y92.703 E.06061
M204 S1000
G1 X121.458 Y92.905 F10800
M204 S800
G1 F1200
G1 X122.335 Y91.774 E.04488
G1 X123.373 Y90.664 E.04765
G1 X124.716 Y89.495 E.05583
G1 X126.497 Y88.323 E.06686
G1 X127.628 Y87.754 E.03968
G1 X129.119 Y87.199 E.04989
G1 X131.336 Y86.719 E.07112
G1 X133.28 Y86.626 E.06103
G1 X134.89 Y86.768 E.05066
G1 X136.608 Y87.151 E.05521
G1 X138.25 Y87.754 E.05482
G1 X139.887 Y88.619 E.05805
G1 X141.162 Y89.495 E.0485
G1 X142.504 Y90.664 E.05583
G1 X143.543 Y91.774 E.04765
G1 X144.332 Y92.782 E.04015
G1 X145.282 Y94.231 E.05433
G1 X146.129 Y95.844 E.0571
G1 X146.777 Y97.405 E.053
G1 X147.271 Y98.924 E.0501
G1 X147.867 Y101.704 E.08915
G1 X148.066 Y103.557 E.05842
G1 X148.327 Y109.629 E.19056
G1 X148.054 Y110.84 E.03892
G1 X145.615 Y115.462 E.16387
G1 X144.659 Y116.435 E.04278
G1 X143.84 Y116.707 E.02704
G1 X140.023 Y117.215 E.12072
G1 X125.827 Y117.215 E.44511
G1 X121.998 Y116.705 E.12111
M73 Q1 S26
G1 X120.758 Y116.137 E.04278
M73 P1 R26
G1 X120.219 Y115.452 E.02734
G1 X117.786 Y110.797 E.16469
G1 X117.519 Y109.581 E.03904
G1 X117.811 Y103.557 E.1891
G1 X117.972 Y101.964 E.05019
G1 X118.303 Y100.126 E.05858
G1 X118.684 Y98.653 E.0477
G1 X119.131 Y97.319 E.0441
G1 X119.747 Y95.846 E.05008
G1 X120.436 Y94.509 E.04715
G1 X121.426 Y92.956 E.05774
M204 S1000
;WIPE_START
G1 F8640
G1 X122.335 Y91.774 E-.34429
G1 X123.373 Y90.664 E-.35094
G1 X123.585 Y90.48 E-.06476
;WIPE_END
G1 E-.04 F2100
G1 Z.6 F720
G1 X123.621 Y94.457 F10800
G1 Z.2 F720
G1 E.8 F2100
M204 S800
G1 F1200
G1 X124.428 Y93.426 E.04103
G1 X125.332 Y92.474 E.04117
G1 X126.417 Y91.549 E.04471
G1 X127.491 Y90.823 E.04064
G1 X128.652 Y90.215 E.04111
G1 X129.955 Y89.727 E.04362
G1 X131.55 Y89.379 E.05119
G1 X133.158 Y89.286 E.05051
G1 X134.567 Y89.415 E.04435
G1 X135.923 Y89.728 E.04362
G1 X137.189 Y90.199 E.04237
G1 X138.28 Y90.76 E.03847
G1 X139.316 Y91.44 E.03886
G1 X140.484 Y92.417 E.04774
G1 X141.533 Y93.523 E.04779
G1 X142.298 Y94.516 E.03931
G1 X142.975 Y95.563 E.03909
G1 X143.628 Y96.788 E.04352
G1 X144.221 Y98.173 E.04724
G1 X144.693 Y99.592 E.04689
G1 X145.03 Y100.955 E.04403
G1 X145.256 Y102.256 E.04141
G1 X145.397 Y103.565 E.04128
G1 X145.452 Y105.059 E.04687
G1 X145.398 Y106.553 E.04689
G1 X145.25 Y107.931 E.04344
G1 X145.021 Y109.169 E.03948
G1 X145.053 Y109.435 E.00838
G1 X145.029 Y110.202 E.02407
G1 X144.767 Y111.298 E.03533
G1 X143.881 Y112.829 E.05547
G1 X143.343 Y113.354 E.02356
G1 X142.708 Y113.813 E.02457
G1 X141.507 Y114.314 E.0408
G1 X140.209 Y114.518 E.04121
G1 X139.26 Y114.494 E.02976
G1 X138.487 Y114.339 E.02472
G1 X127.589 Y114.33 E.34171
G1 X127.309 Y114.345 E.00879
G1 X126.731 Y114.475 E.01859
G1 X125.913 Y114.53 E.0257
G1 X124.668 Y114.39 E.03929
G1 X123.8 Y114.141 E.02829
G1 X122.689 Y113.495 E.04031
G1 X121.808 Y112.622 E.03889
G1 X121.151 Y111.462 E.0418
G1 X120.827 Y110.248 E.03938
G1 X120.808 Y109.329 E.02883
G1 X120.84 Y109.078 E.00792
G1 X120.619 Y107.87 E.03851
G1 X120.471 Y106.438 E.04512
G1 X120.426 Y105.067 E.04301
G1 X120.471 Y103.706 E.04269
G1 X120.619 Y102.272 E.04522
G1 X120.869 Y100.853 E.04518
G1 X121.215 Y99.488 E.04415
G1 X121.66 Y98.162 E.04385
G1 X122.195 Y96.899 E.04301
G1 X122.831 Y95.686 E.04295
G1 X123.589 Y94.507 E.04392
M204 S1000
G1 X123.905 Y94.711 F10800
M204 S800
G1 F1200
G1 X124.719 Y93.666 E.04153
G1 X125.598 Y92.742 E.04001
G1 X126.653 Y91.843 E.04344
G1 X127.693 Y91.142 E.03931
G1 X128.816 Y90.555 E.03975
G1 X130.074 Y90.085 E.0421
G1 X131.587 Y89.755 E.04856
G1 X133.139 Y89.663 E.04874
G1 X134.495 Y89.785 E.04271
G1 X135.803 Y90.085 E.04207
G1 X137.027 Y90.539 E.04092
G1 X138.099 Y91.091 E.0378
G1 X139.1 Y91.749 E.03757
G1 X140.218 Y92.684 E.04571
G1 X141.24 Y93.761 E.04655
G1 X141.986 Y94.727 E.03827
G1 X142.654 Y95.761 E.03859
G1 X143.292 Y96.958 E.04253
G1 X143.866 Y98.299 E.04575
G1 X144.328 Y99.69 E.04595
G1 X144.66 Y101.026 E.04317
G1 X144.882 Y102.302 E.04061
G1 X145.021 Y103.599 E.04087
G1 X145.075 Y105.066 E.04604
G1 X145.022 Y106.52 E.04562
G1 X144.875 Y107.883 E.043
G1 X144.64 Y109.159 E.04068
G1 X144.676 Y109.44 E.00889
G1 X144.657 Y110.134 E.02175
G1 X144.406 Y111.183 E.03383
G1 X143.6 Y112.577 E.0505
G1 X143.09 Y113.074 E.0223
G1 X142.506 Y113.493 E.02255
G1 X141.385 Y113.957 E.03805
G1 X140.169 Y114.143 E.03855
G1 X139.288 Y114.118 E.02765
G1 X138.526 Y113.962 E.02438
G1 X127.579 Y113.953 E.34324
G1 X127.256 Y113.97 E.01014
G1 X126.69 Y114.1 E.0182
G1 X125.905 Y114.153 E.02467
G1 X124.727 Y114.017 E.03718
G1 X123.927 Y113.786 E.0261
G1 X122.936 Y113.209 E.03597
G1 X122.122 Y112.411 E.03574
G1 X121.508 Y111.339 E.03873
G1 X121.204 Y110.217 E.03646
G1 X121.185 Y109.337 E.0276
G1 X121.221 Y109.071 E.00842
G1 X120.994 Y107.824 E.03975
G1 X120.848 Y106.419 E.04428
G1 X120.803 Y105.073 E.04222
G1 X120.847 Y103.738 E.04188
G1 X120.992 Y102.33 E.04438
G1 X121.237 Y100.939 E.04431
G1 X121.575 Y99.601 E.04326
G1 X122.015 Y98.289 E.0434
G1 X122.539 Y97.053 E.04208
G1 X123.161 Y95.868 E.04196
G1 X123.873 Y94.761 E.04126
M204 S1000
G1 X124.189 Y94.965 F10800
M204 S800
G1 F1200
G1 X124.999 Y93.919 E.04146
G1 X125.865 Y93.009 E.03941
G1 X126.889 Y92.137 E.04217
G1 X127.894 Y91.461 E.03798
G1 X128.98 Y90.895 E.03839
G1 X130.193 Y90.444 E.04058
G1 X131.653 Y90.126 E.04684
G1 X133.119 Y90.04 E.04606
G1 X134.424 Y90.156 E.04107
G1 X135.684 Y90.443 E.04052
G1 X136.865 Y90.88 E.03947
G1 X137.9 Y91.412 E.03649
G1 X138.883 Y92.058 E.03691
G1 X139.968 Y92.966 E.04435
G1 X140.947 Y93.999 E.04463
G1 X141.683 Y94.951 E.03772
G1 X142.333 Y95.959 E.03759
G1 X142.955 Y97.128 E.04153
G1 X143.516 Y98.44 E.04475
G1 X143.964 Y99.788 E.04452
G1 X144.289 Y101.098 E.04232
G1 X144.51 Y102.361 E.04021
G1 X144.645 Y103.632 E.04008
G1 X144.698 Y105.059 E.04478
G1 X144.647 Y106.486 E.04477
G1 X144.501 Y107.836 E.04256
G1 X144.258 Y109.151 E.04194
G1 X144.298 Y109.447 E.00936
G1 X144.281 Y110.104 E.0206
G1 X144.047 Y111.067 E.0311
G1 X143.318 Y112.325 E.04557
G1 X142.838 Y112.793 E.02103
G1 X142.305 Y113.173 E.02051
G1 X141.264 Y113.599 E.03528
G1 X140.131 Y113.768 E.0359
G1 X139.317 Y113.742 E.02555
G1 X138.565 Y113.585 E.02407
G1 X127.569 Y113.576 E.3448
G1 X127.202 Y113.596 E.01152
G1 X126.648 Y113.725 E.01784
G1 X125.931 Y113.776 E.02255
G1 X124.786 Y113.644 E.03611
G1 X124.056 Y113.431 E.02385
G1 X123.147 Y112.896 E.03308
G1 X122.436 Y112.201 E.03117
G1 X121.847 Y111.173 E.03715
G1 X121.58 Y110.186 E.03205
G1 X121.562 Y109.346 E.02635
G1 X121.604 Y109.065 E.00889
G1 X121.368 Y107.777 E.04105
G1 X121.225 Y106.4 E.04343
G1 X121.18 Y105.079 E.04142
G1 X121.223 Y103.77 E.04106
G1 X121.366 Y102.376 E.04396
G1 X121.607 Y101.011 E.04346
G1 X121.939 Y99.701 E.04238
G1 X122.371 Y98.416 E.0425
G1 X122.883 Y97.208 E.04115
G1 X123.491 Y96.051 E.04098
G1 X124.157 Y95.015 E.0386
M204 S1000
G1 X124.473 Y95.219 F10800
M204 S800
G1 F1200
G1 X125.29 Y94.159 E.04195
G1 X126.131 Y93.276 E.03823
G1 X127.125 Y92.432 E.0409
G1 X128.096 Y91.78 E.03665
G1 X129.143 Y91.235 E.03703
G1 X130.311 Y90.802 E.03906
G1 X131.69 Y90.502 E.04424
G1 X133.101 Y90.417 E.04431
G1 X134.353 Y90.526 E.03942
G1 X135.565 Y90.802 E.03897
G1 X136.703 Y91.221 E.03801
G1 X137.718 Y91.742 E.0358
G1 X138.667 Y92.367 E.0356
G1 X139.717 Y93.248 E.04299
G1 X140.655 Y94.237 E.04273
G1 X141.37 Y95.162 E.03667
G1 X142.011 Y96.156 E.03709
G1 X142.618 Y97.298 E.04054
G1 X143.161 Y98.567 E.04327
G1 X143.6 Y99.886 E.04359
G1 X143.919 Y101.169 E.04146
G1 X144.135 Y102.407 E.03941
G1 X144.27 Y103.666 E.03968
G1 X144.321 Y105.066 E.04394
G1 X144.271 Y106.452 E.04349
M73 Q2 S26
G1 X144.127 Y107.788 E.04213
G1 X143.875 Y109.145 E.04327
G1 X143.921 Y109.454 E.0098
G1 X143.905 Y110.073 E.0194
G1 X143.687 Y110.95 E.02835
G1 X143.036 Y112.074 E.04072
M73 P2 R26
G1 X142.606 Y112.495 E.01886
G1 X142.105 Y112.853 E.01932
G1 X141.145 Y113.241 E.03246
G1 X140.095 Y113.392 E.03325
G1 X139.347 Y113.366 E.02346
G1 X138.606 Y113.208 E.02378
G1 X127.559 Y113.198 E.34637
G1 X127.147 Y113.221 E.01292
G1 X126.604 Y113.35 E.01751
G1 X125.955 Y113.399 E.02039
G1 X124.846 Y113.272 E.03501
G1 X124.187 Y113.076 E.02157
G1 X123.359 Y112.584 E.03021
G1 X122.75 Y111.99 E.02664
G1 X122.187 Y111.006 E.03556
G1 X121.957 Y110.155 E.02765
G1 X121.94 Y109.356 E.02507
G1 X121.987 Y109.062 E.00933
G1 X121.742 Y107.731 E.04242
G1 X121.601 Y106.38 E.04259
G1 X121.557 Y105.085 E.04062
G1 X121.599 Y103.789 E.04065
G1 X121.74 Y102.421 E.04312
G1 X121.974 Y101.097 E.04217
G1 X122.299 Y99.814 E.04149
G1 X122.721 Y98.556 E.04159
G1 X123.221 Y97.376 E.04018
G1 X123.821 Y96.234 E.04047
G1 X124.441 Y95.269 E.03594
M204 S1000
G1 X124.757 Y95.473 F10800
M204 S800
G1 F1200
G1 X125.569 Y94.412 E.04188
G1 X126.397 Y93.543 E.03762
G1 X127.361 Y92.726 E.03962
G1 X128.297 Y92.099 E.03532
G1 X129.306 Y91.575 E.03566
G1 X130.429 Y91.16 E.03754
G1 X131.756 Y90.874 E.04254
G1 X133.082 Y90.794 E.04167
G1 X134.283 Y90.897 E.03779
G1 X135.447 Y91.16 E.03741
G1 X136.541 Y91.562 E.03655
G1 X137.52 Y92.063 E.03447
G1 X138.45 Y92.676 E.03494
G1 X139.451 Y93.516 E.04097
G1 X140.363 Y94.475 E.0415
G1 X141.067 Y95.387 E.03611
G1 X141.69 Y96.354 E.03608
G1 X142.282 Y97.468 E.03954
G1 X142.811 Y98.708 E.04228
G1 X143.236 Y99.984 E.04218
G1 X143.549 Y101.241 E.0406
G1 X143.763 Y102.466 E.039
G1 X143.894 Y103.699 E.03888
G1 X143.944 Y105.06 E.04269
G1 X143.896 Y106.419 E.04264
G1 X143.753 Y107.74 E.04168
G1 X143.492 Y109.141 E.04465
G1 X143.543 Y109.463 E.01022
G1 X143.528 Y110.042 E.01816
G1 X143.328 Y110.832 E.02556
G1 X142.754 Y111.823 E.0359
G1 X142.353 Y112.215 E.01758
G1 X141.906 Y112.532 E.01719
G1 X141.027 Y112.882 E.02964
G1 X140.06 Y113.016 E.03061
G1 X139.379 Y112.99 E.02138
G1 X138.646 Y112.831 E.02351
G1 X127.548 Y112.821 E.34797
G1 X127.091 Y112.846 E.01435
G1 X126.56 Y112.976 E.01716
G1 X125.946 Y113.022 E.01931
G1 X124.907 Y112.899 E.03277
G1 X124.319 Y112.722 E.01927
G1 X123.572 Y112.272 E.02734
G1 X123.064 Y111.78 E.02217
G1 X122.526 Y110.84 E.03396
G1 X122.333 Y110.124 E.02324
M73 P2 R25
G1 X122.317 Y109.367 E.02376
G1 X122.37 Y109.06 E.00974
G1 X122.117 Y107.684 E.04388
G1 X121.978 Y106.36 E.04173
G1 X121.934 Y105.079 E.04021
G1 X121.976 Y103.809 E.03985
G1 X122.115 Y102.467 E.04229
G1 X122.344 Y101.169 E.04132
G1 X122.662 Y99.913 E.04063
G1 X123.071 Y98.697 E.04024
G1 X123.558 Y97.545 E.03922
G1 X124.151 Y96.416 E.03997
G1 X124.725 Y95.523 E.03329
M204 S1000
G1 X125.042 Y95.727 F10800
M204 S800
G1 F1200
G1 X125.134 Y95.583 E.00534
G1 X125.849 Y94.665 E.03649
G1 X126.663 Y93.811 E.037
G1 X127.596 Y93.021 E.03834
G1 X128.497 Y92.418 E.03399
G1 X129.469 Y91.915 E.0343
G1 X130.547 Y91.519 E.03602
G1 X131.793 Y91.249 E.03997
G1 X133.064 Y91.17 E.03993
G1 X134.213 Y91.268 E.03615
G1 X135.329 Y91.518 E.03586
G1 X136.38 Y91.903 E.03508
G1 X137.338 Y92.394 E.03377
G1 X138.233 Y92.985 E.03361
G1 X139.2 Y93.797 E.03962
G1 X140.07 Y94.714 E.03961
G1 X140.754 Y95.598 E.03505
G1 X141.369 Y96.551 E.03557
G1 X141.945 Y97.637 E.03854
G1 X142.456 Y98.834 E.04081
G1 X142.872 Y100.082 E.04125
G1 X143.178 Y101.312 E.03974
G1 X143.388 Y102.512 E.03819
G1 X143.518 Y103.732 E.03847
G1 X143.567 Y105.066 E.04186
G1 X143.52 Y106.385 E.04137
G1 X143.381 Y107.682 E.0409
G1 X143.177 Y108.835 E.03671
G1 X143.106 Y109.121 E.00925
G1 X143.166 Y109.472 E.01115
G1 X143.152 Y110.01 E.01686
G1 X142.97 Y110.712 E.02275
G1 X142.47 Y111.572 E.03119
G1 X142.122 Y111.917 E.01535
G1 X141.707 Y112.211 E.01596
G1 X140.912 Y112.522 E.02676
G1 X140.027 Y112.64 E.028
G1 X139.443 Y112.618 E.01833
G1 X138.687 Y112.454 E.02425
G1 X127.538 Y112.444 E.34956
G1 X127.035 Y112.472 E.0158
G1 X126.513 Y112.601 E.01686
G1 X125.971 Y112.645 E.01706
G1 X124.969 Y112.527 E.03163
G1 X124.453 Y112.369 E.01693
G1 X123.786 Y111.961 E.0245
G1 X123.378 Y111.569 E.01776
G1 X122.865 Y110.674 E.03234
G1 X122.71 Y110.094 E.01883
M73 Q2 S25
G1 X122.695 Y109.379 E.0224
G1 X122.754 Y109.062 E.01012
G1 X122.491 Y107.637 E.04542
G1 X122.355 Y106.341 E.04088
G1 X122.311 Y105.085 E.0394
G1 X122.353 Y103.828 E.03944
G1 X122.489 Y102.513 E.04145
G1 X122.714 Y101.242 E.04047
G1 X123.026 Y100.013 E.03976
G1 X123.421 Y98.837 E.0389
G1 X123.896 Y97.713 E.03825
G1 X124.481 Y96.599 E.03946
G1 X125.009 Y95.777 E.03063
M204 S1000
G1 X125.326 Y95.98 F10800
M204 S800
G1 F1200
G1 X125.436 Y95.808 E.00642
G1 X126.129 Y94.919 E.03534
G1 X126.929 Y94.078 E.03638
G1 X127.831 Y93.316 E.03704
G1 X128.698 Y92.738 E.03266
G1 X129.631 Y92.256 E.03294
G1 X130.665 Y91.877 E.03451
G1 X131.831 Y91.624 E.03743
G1 X133.047 Y91.547 E.0382
G1 X134.144 Y91.638 E.0345
G1 X135.212 Y91.877 E.0343
G1 X136.219 Y92.244 E.03361
G1 X137.139 Y92.714 E.03242
G1 X138.016 Y93.293 E.03294
G1 X138.934 Y94.065 E.03761
G1 X139.778 Y94.952 E.03838
G1 X140.451 Y95.822 E.03449
G1 X141.047 Y96.749 E.03455
G1 X141.608 Y97.807 E.03754
G1 X142.106 Y98.975 E.03982
G1 X142.508 Y100.181 E.03985
G1 X142.808 Y101.384 E.03888
G1 X143.016 Y102.571 E.03778
G1 X143.143 Y103.765 E.03767
G1 X143.19 Y105.06 E.04061
G1 X143.144 Y106.352 E.04053
G1 X143.008 Y107.623 E.04009
G1 X142.807 Y108.763 E.03629
G1 X142.72 Y109.11 E.01121
G1 X142.788 Y109.483 E.01189
G1 X142.775 Y109.977 E.0155
G1 X142.612 Y110.59 E.01989
G1 X142.187 Y111.322 E.02652
G1 X141.869 Y111.637 E.01406
G1 X141.509 Y111.889 E.01376
G1 X140.84 Y112.151 E.02255
G1 X139.994 Y112.264 E.02675
