; generated by PrusaSlicer 2.5.0+win64 on 2022-10-10 at 08:04:40 UTC


;
;
; 

; external perimeters extrusion width = 0.45mm
; perimeters extrusion width = 0.45mm
; infill extrusion width = 0.45mm
; solid infill extrusion width = 0.45mm
; top infill extrusion width = 0.40mm
; first layer extrusion width = 0.42mm

M73 P0 R93
M73 Q0 S94
M201 X1000 Y1000 Z200 E5000 ; sets maximum accelerations, mm/sec^2
M203 X200 Y200 Z12 E120 ; sets maximum feedrates, mm / sec
M204 P1250 R1250 T1250 ; sets acceleration (P, T) and retract acceleration (R), mm/sec^2
M205 X8.00 Y8.00 Z0.40 E4.50 ; sets the jerk limits, mm/sec
M205 S0 T0 ; sets the minimum extruding and travel feed rate, mm/sec
M107
;TYPE:Custom
M862.3 P "MK3S" ; printer model check
M862.1 P0.4 ; nozzle diameter check
M115 U3.11.0 ; tell printer latest fw version
G90 ; use absolute coordinates
M83 ; extruder relative mode
M104 S200 ; set extruder temp
M140 S0 ; set bed temp
M190 S0 ; wait for bed temp
M109 S200 ; wait for extruder temp
G28 W ; home all without mesh bed level
G80 ; mesh bed leveling

G1 Z0.2 F720
G1 Y-3 F1000 ; go outside print area
G92 E0
G1 X60 E9 F1000 ; intro line
G1 X100 E12.5 F1000 ; intro line

G92 E0
M221 S95

; Don't change E values below. Excessive value can damage the printer.
M907 E430 ; set extruder motor current
G21 ; set units to millimeters
G90 ; use absolute coordinates
M83 ; use relative distances for extrusion
; Filament gcode
M107
;LAYER_CHANGE
;Z:0.2
;HEIGHT:0.2
;BEFORE_LAYER_CHANGE
G92 E0.0
;0.2


G1 E-.8 F2100
G1 Z.4 F720
;AFTER_LAYER_CHANGE
;0.2
G1 X100.919 Y89.809 F10800
G1 Z.2 F720
G1 E.8 F2100
M204 S800
;TYPE:Skirt/Brim
;WIDTH:0.42
G1 F1200
G1 X103.976 Y86.755 E.13549
G1 X115.165 Y76.437 E.47722
G1 X116.776 Y75.807 E.05424
G1 X140.615 Y75.806 E.74744
G1 X142.295 Y76.502 E.05704
G1 X145.283 Y79.49 E.13247
G1 X145.907 Y80.591 E.03971
G1 X149.705 Y95.711 E.4888
G1 X149.777 Y96.29 E.0183
G1 X149.777 Y130.514 E1.07306
G1 X149.596 Y131.423 E.02908
G1 X148.82 Y133.298 E.06361
G1 X148.305 Y134.069 E.02908
G1 X143.168 Y139.206 E.22779
G1 X142.396 Y139.722 E.02908
G1 X140.522 Y140.498 E.06362
G1 X139.628 Y140.679 E.02859
G1 X105.579 Y140.679 E1.0676
G1 X103.907 Y139.983 E.05679
G1 X100.919 Y136.995 E.13247
G1 X100.223 Y135.314 E.05704
G1 X100.223 Y91.49 E1.3741
G1 X100.896 Y89.864 E.05516
M204 S1000
;WIPE_START
G1 F8640
G1 X103.212 Y87.526 E-.76
;WIPE_END
G1 E-.04 F2100
G1 Z.6 F720
G1 X103.511 Y91.183 F10800
G1 Z.2 F720
G1 E.8 F2100
M204 S800
G1 F1200
G1 X104.019 Y90.498 E.02674
G1 X105.049 Y89.562 E.04362
G1 X105.948 Y89.11 E.03156
G1 X106.976 Y88.829 E.03341
G1 X114.147 Y88.792 E.22483
G1 X114.143 Y82.479 E.19793
G1 X114.466 Y81.397 E.03541
G1 X115.264 Y80.109 E.04751
G1 X116.158 Y79.314 E.0375
G1 X117.259 Y78.746 E.03887
G1 X118.568 Y78.47 E.04194
G1 X124.441 Y78.549 E.18416
G1 X125.741 Y79.003 E.04316
G1 X126.533 Y79.538 E.02996
G1 X127.365 Y80.39 E.03734
G1 X127.881 Y81.258 E.03168
G1 X128.141 Y81.986 E.02422
G1 X129.278 Y81.986 E.03567
G1 X129.536 Y81.226 E.02515
G1 X130.104 Y80.304 E.03397
G1 X130.914 Y79.501 E.03574
G1 X131.906 Y78.89 E.03654
G1 X133.466 Y78.469 E.05064
G1 X138.901 Y78.473 E.17042
G1 X140.176 Y78.757 E.04097
G1 X141.27 Y79.33 E.0387
G1 X142.271 Y80.275 E.04318
G1 X142.973 Y81.466 E.04334
G1 X143.298 Y82.738 E.04117
G1 X143.313 Y91.524 E.27547
G1 X146.118 Y94.37 E.12529
G1 X146.802 Y95.596 E.04401
G1 X147.11 Y96.995 E.04491
G1 X147.102 Y98.733 E.05452
G1 X146.617 Y100.353 E.05303
G1 X145.949 Y101.347 E.03754
G1 X145.061 Y102.158 E.0377
G1 X144.092 Y102.676 E.03446
G1 X143.061 Y102.965 E.03358
G1 X132.982 Y103.01 E.31601
G1 X132.674 Y103.259 E.01241
M73 Q0 S93
G1 X131.884 Y103.663 E.02783
G1 X130.379 Y104.016 E.04847
G1 X123.932 Y103.994 E.20216
G1 X122.62 Y103.666 E.0424
G1 X121.819 Y103.254 E.02823
G1 X121.521 Y103.012 E.01203
G1 X117.111 Y103.012 E.13825
G1 X117.111 Y123.791 E.65148
G1 X121.75 Y123.791 E.14544
G1 X122.735 Y123.294 E.03458
G1 X124.152 Y122.988 E.04545
G1 X130.401 Y122.992 E.19595
G1 X131.791 Y123.304 E.04466
G1 X132.754 Y123.793 E.03384
G1 X143.182 Y123.857 E.32698
G1 X144.334 Y124.229 E.03797
G1 X145.374 Y124.887 E.03856
G1 X146.22 Y125.788 E.03875
G1 X146.808 Y126.879 E.03886
G1 X147.113 Y128.263 E.04446
G1 X147.113 Y129.88 E.05069
G1 X146.404 Y132.043 E.07136
G1 X145.854 Y132.753 E.02818
G1 X141.797 Y136.81 E.1799
G1 X140.516 Y137.618 E.04747
G1 X139.025 Y138.004 E.04829
G1 X135.68 Y138.042 E.10487
G1 X134.675 Y138.023 E.03151
G1 X120.896 Y138.016 E.43204
G1 X118.913 Y138.045 E.06219
G1 X117.895 Y138.025 E.03191
G1 X116.9 Y138.045 E.0312
G1 X114.457 Y138.027 E.07662
G1 X113.474 Y138.045 E.03082
G1 X112.385 Y138.017 E.03416
G1 X107.252 Y138.015 E.16095
G1 X105.28 Y137.39 E.06484
G1 X104.596 Y136.882 E.02673
G1 X103.659 Y135.852 E.04365
G1 X103.201 Y134.932 E.03222
G1 X102.887 Y133.62 E.04231
G1 X102.887 Y93.155 E1.26875
G1 X103.493 Y91.24 E.06298
M204 S1000
G1 X103.834 Y91.381 F10800
M204 S800
G1 F1200
G1 X104.288 Y90.763 E.02407
G1 X105.243 Y89.886 E.04063
G1 X106.066 Y89.469 E.02895
G1 X107.052 Y89.199 E.03202
G1 X114.524 Y89.168 E.23429
G1 X114.52 Y82.508 E.20881
G1 X114.819 Y81.531 E.03203
G1 X115.536 Y80.371 E.04277
G1 X116.354 Y79.637 E.03446
G1 X117.364 Y79.109 E.03574
G1 X118.585 Y78.847 E.03916
G1 X124.346 Y78.915 E.18063
G1 X125.593 Y79.351 E.04141
G1 X126.277 Y79.816 E.02594
G1 X127.053 Y80.603 E.03463
G1 X127.547 Y81.434 E.03034
G1 X127.872 Y82.363 E.03085
G1 X129.552 Y82.363 E.05266
G1 X129.869 Y81.403 E.0317
G1 X130.387 Y80.554 E.03119
G1 X131.132 Y79.809 E.03303
G1 X132.033 Y79.246 E.03331
G1 X133.491 Y78.846 E.04739
G1 X138.88 Y78.85 E.16897
G1 X140.026 Y79.103 E.03678
G1 X141.032 Y79.623 E.03552
G1 X141.961 Y80.492 E.03988
G1 X142.615 Y81.588 E.04
G1 X142.921 Y82.763 E.03808
G1 X142.936 Y91.679 E.27955
G1 X145.831 Y94.617 E.12933
G1 X146.44 Y95.705 E.0391
G1 X146.733 Y97.014 E.04206
G1 X146.725 Y98.704 E.05296
G1 X146.265 Y100.215 E.04954
G1 X145.651 Y101.116 E.03418
G1 X144.826 Y101.863 E.0349
G1 X143.968 Y102.319 E.03046
G1 X143.032 Y102.588 E.03053
G1 X132.844 Y102.634 E.31946
G1 X132.483 Y102.933 E.01471
G1 X131.733 Y103.317 E.02642
G1 X130.358 Y103.639 E.04426
G1 X123.956 Y103.617 E.20075
G1 X122.773 Y103.32 E.03823
G1 X122.011 Y102.928 E.02687
G1 X121.658 Y102.635 E.01438
G1 X116.734 Y102.635 E.15438
G1 X116.734 Y124.168 E.67513
G1 X121.891 Y124.168 E.16169
G1 X122.034 Y124.062 E.00557
G1 X122.839 Y123.657 E.02824
G1 X124.172 Y123.365 E.0428
G1 X130.38 Y123.369 E.19463
G1 X131.685 Y123.667 E.04196
G1 X132.471 Y124.065 E.02765
G1 X132.611 Y124.169 E.00548
G1 X143.094 Y124.225 E.32867
G1 X144.195 Y124.58 E.03628
G1 X145.15 Y125.191 E.03553
G1 X145.927 Y126.026 E.03576
G1 X146.463 Y127.033 E.03576
G1 X146.736 Y128.284 E.04015
G1 X146.736 Y129.85 E.04913
G1 X146.086 Y131.838 E.06557
G1 X145.578 Y132.495 E.02604
G1 X141.545 Y136.528 E.17884
G1 X140.341 Y137.282 E.04455
G1 X138.998 Y137.627 E.04346
G1 X135.679 Y137.664 E.10408
G1 X134.679 Y137.646 E.03135
G1 X120.893 Y137.639 E.43224
G1 X118.91 Y137.668 E.06218
G1 X117.895 Y137.648 E.03184
G1 X116.9 Y137.668 E.03119
G1 X114.455 Y137.65 E.07669
G1 X113.471 Y137.668 E.03084
G1 X112.39 Y137.64 E.03392
G1 X107.281 Y137.638 E.16019
G1 X105.479 Y137.068 E.05926
G1 X104.86 Y136.613 E.02406
G1 X103.984 Y135.658 E.04064
G1 X103.562 Y134.821 E.0294
G1 X103.264 Y133.597 E.03951
G1 X103.264 Y93.184 E1.26712
G1 X103.815 Y91.438 E.05741
M204 S1000
G1 X104.156 Y91.578 F10800
M204 S800
G1 F1200
G1 X104.559 Y91.026 E.02142
G1 X105.439 Y90.21 E.03763
G1 X106.185 Y89.827 E.02629
G1 X107.127 Y89.57 E.03062
G1 X114.902 Y89.544 E.24378
G1 X114.889 Y82.589 E.21806
G1 X115.154 Y81.706 E.02891
G1 X115.809 Y80.633 E.03942
G1 X116.587 Y79.934 E.03281
G1 X117.514 Y79.456 E.03269
G1 X118.602 Y79.224 E.03489
G1 X124.251 Y79.281 E.17711
G1 X125.444 Y79.699 E.03965
G1 X126.023 Y80.094 E.02197
G1 X126.741 Y80.816 E.03191
G1 X127.213 Y81.61 E.02898
G1 X127.472 Y82.361 E.02489
G1 X127.505 Y82.74 E.01195
G1 X129.874 Y82.74 E.07429
G1 X129.903 Y82.503 E.00748
G1 X130.204 Y81.579 E.03048
G1 X130.672 Y80.803 E.0284
G1 X131.353 Y80.116 E.03035
G1 X132.163 Y79.602 E.03006
G1 X133.517 Y79.224 E.04409
G1 X138.86 Y79.227 E.16752
G1 X139.877 Y79.45 E.03264
G1 X140.796 Y79.919 E.03235
G1 X141.653 Y80.711 E.03659
G1 X142.258 Y81.711 E.03666
G1 X142.544 Y82.788 E.03495
G1 X142.559 Y91.833 E.2836
G1 X145.545 Y94.863 E.13338
G1 X146.079 Y95.816 E.03423
G1 X146.356 Y97.034 E.03919
G1 X146.348 Y98.673 E.05139
G1 X145.914 Y100.075 E.04601
G1 X145.354 Y100.882 E.0308
G1 X144.592 Y101.567 E.03213
G1 X143.843 Y101.963 E.02657
G1 X143.003 Y102.211 E.02745
G1 X132.703 Y102.257 E.32296
G1 X132.291 Y102.608 E.01698
G1 X131.581 Y102.971 E.02498
G1 X130.338 Y103.262 E.04005
G1 X123.98 Y103.24 E.19934
G1 X122.927 Y102.975 E.03406
G1 X122.204 Y102.603 E.02548
G1 X121.798 Y102.258 E.0167
G1 X116.357 Y102.258 E.17059
G1 X116.357 Y124.545 E.69877
G1 X122.023 Y124.545 E.17766
G1 X122.224 Y124.388 E.00798
G1 X122.945 Y124.02 E.02537
G1 X124.193 Y123.743 E.04009
G1 X130.358 Y123.746 E.19329
G1 X131.576 Y124.028 E.0392
M73 P0 R92
G1 X132.28 Y124.391 E.02484
G1 X132.478 Y124.546 E.00789
G1 X143.008 Y124.593 E.33014
G1 X144.013 Y124.911 E.03307
G1 X144.925 Y125.495 E.03396
G1 X145.632 Y126.262 E.0327
G1 X146.117 Y127.185 E.03267
G1 X146.359 Y128.303 E.03589
G1 X146.359 Y129.821 E.04757
G1 X145.768 Y131.634 E.05979
G1 X145.303 Y132.237 E.02388
G1 X141.293 Y136.247 E.1778
G1 X140.217 Y136.925 E.03988
G1 X138.971 Y137.25 E.04039
G1 X135.677 Y137.287 E.10326
G1 X134.683 Y137.269 E.0312
G1 X120.891 Y137.262 E.43244
G1 X118.908 Y137.29 E.06217
G1 X117.895 Y137.271 E.03177
G1 X116.901 Y137.29 E.03118
G1 X114.452 Y137.272 E.07676
G1 X113.468 Y137.29 E.03086
G1 X112.395 Y137.263 E.03368
G1 X107.309 Y137.261 E.15944
G1 X105.676 Y136.745 E.05373
G1 X105.124 Y136.343 E.02141
G1 X104.307 Y135.463 E.03763
G1 X103.923 Y134.708 E.02656
G1 X103.641 Y133.573 E.03667
G1 X103.641 Y93.213 E1.26549
G1 X104.138 Y91.635 E.05187
M204 S1000
G1 X104.48 Y91.774 F10800
M204 S800
G1 F1200
G1 X104.831 Y91.288 E.01879
G1 X105.636 Y90.532 E.03463
G1 X106.304 Y90.186 E.0236
G1 X107.202 Y89.94 E.0292
G1 X115.28 Y89.92 E.25328
G1 X115.258 Y82.669 E.22737
G1 X115.49 Y81.879 E.02581
M73 P1 R92
M73 Q1 S93
G1 X116.083 Y80.893 E.03609
G1 X116.783 Y80.257 E.02962
G1 X117.664 Y79.803 E.0311
G1 X118.619 Y79.602 E.03061
G1 X124.157 Y79.648 E.17365
G1 X125.254 Y80.025 E.03637
G1 X125.768 Y80.374 E.01947
G1 X126.457 Y81.065 E.03058
G1 X126.863 Y81.751 E.025
G1 X127.106 Y82.456 E.02339
G1 X127.143 Y83.117 E.02077
G1 X130.247 Y83.117 E.09731
G1 X130.272 Y82.589 E.01657
G1 X130.555 Y81.717 E.02876
G1 X130.981 Y81.019 E.02561
G1 X131.605 Y80.397 E.02764
G1 X132.293 Y79.957 E.02561
G1 X133.543 Y79.601 E.04076
G1 X138.838 Y79.604 E.16602
G1 X139.771 Y79.813 E.02996
G1 X140.561 Y80.215 E.02779
G1 X141.346 Y80.931 E.03333
G1 X141.902 Y81.837 E.03331
G1 X142.167 Y82.814 E.03176
G1 X142.183 Y91.988 E.28764
G1 X145.258 Y95.109 E.13738
G1 X145.735 Y95.974 E.03097
G1 X145.979 Y97.054 E.03471
G1 X145.971 Y98.642 E.04981
G1 X145.563 Y99.932 E.04241
G1 X145.059 Y100.646 E.0274
G1 X144.359 Y101.269 E.0294
G1 X143.718 Y101.607 E.0227
G1 X142.922 Y101.842 E.02603
G1 X132.56 Y101.88 E.32489
G1 X132.097 Y102.283 E.01924
G1 X131.43 Y102.625 E.0235
G1 X130.317 Y102.885 E.03584
G1 X124.004 Y102.863 E.19793
G1 X123.08 Y102.63 E.02989
G1 X122.398 Y102.279 E.02406
G1 X121.94 Y101.881 E.019
G1 X115.98 Y101.881 E.18687
G1 X115.98 Y124.922 E.72242
G1 X122.159 Y124.922 E.19374
G1 X122.415 Y124.714 E.01034
G1 X123.095 Y124.367 E.02394
G1 X124.213 Y124.12 E.03591
G1 X130.336 Y124.123 E.19198
G1 X131.424 Y124.374 E.035
G1 X132.088 Y124.717 E.02343
G1 X132.342 Y124.923 E.01024
G1 X142.923 Y124.961 E.33178
G1 X143.834 Y125.244 E.02988
G1 X144.667 Y125.771 E.03092
G1 X145.31 Y126.461 E.02957
G1 X145.771 Y127.337 E.03105
G1 X145.982 Y128.323 E.03162
G1 X145.982 Y129.791 E.04602
G1 X145.449 Y131.43 E.05404
G1 X145.028 Y131.979 E.02171
G1 X141.042 Y135.965 E.17673
G1 X140.043 Y136.589 E.03694
G1 X138.902 Y136.879 E.03692
G1 X136.747 Y136.886 E.06757
G1 X135.679 Y136.91 E.03347
G1 X134.686 Y136.892 E.03114
G1 X120.888 Y136.885 E.43263
G1 X118.906 Y136.913 E.06216
G1 X117.895 Y136.894 E.0317
G1 X116.901 Y136.913 E.03117
G1 X114.45 Y136.895 E.07684
G1 X113.466 Y136.913 E.03089
G1 X112.4 Y136.886 E.03344
G1 X107.338 Y136.884 E.15869
G1 X105.871 Y136.422 E.04823
G1 X105.386 Y136.071 E.01878
G1 X104.63 Y135.266 E.03462
G1 X104.283 Y134.594 E.02372
G1 X104.018 Y133.55 E.03378
G1 X104.018 Y93.241 E1.26383
G1 X104.462 Y91.831 E.04637
M204 S1000
G1 X104.804 Y91.968 F10800
M204 S800
G1 F1200
G1 X105.104 Y91.548 E.01619
G1 X105.835 Y90.853 E.03162
G1 X106.424 Y90.544 E.02084
G1 X107.278 Y90.31 E.02775
G1 X115.659 Y90.297 E.2628
G1 X115.628 Y82.746 E.23676
G1 X115.827 Y82.049 E.02272
G1 X116.358 Y81.152 E.03267
G1 X117.017 Y80.554 E.0279
G1 X117.812 Y80.151 E.02794
G1 X118.637 Y79.979 E.02643
G1 X124.066 Y80.015 E.17023
G1 X125.066 Y80.353 E.0331
G1 X125.515 Y80.653 E.01693
G1 X126.172 Y81.314 E.02923
G1 X126.512 Y81.892 E.02101
G1 X126.74 Y82.552 E.0219
G1 X126.779 Y83.495 E.02959
G1 X130.618 Y83.494 E.12037
G1 X130.64 Y82.678 E.0256
G1 X130.907 Y81.855 E.02712
G1 X131.289 Y81.238 E.02276
G1 X131.856 Y80.679 E.02497
G1 X132.426 Y80.311 E.02127
G1 X133.57 Y79.978 E.03738
G1 X138.818 Y79.982 E.16452
G1 X139.624 Y80.161 E.0259
G1 X140.329 Y80.513 E.0247
G1 X141.041 Y81.154 E.03005
G1 X141.546 Y81.965 E.02997
G1 X141.79 Y82.841 E.02851
G1 X141.806 Y92.143 E.29166
G1 X144.97 Y95.355 E.14136
G1 X145.391 Y96.13 E.02766
G1 X145.602 Y97.073 E.0303
G1 X145.594 Y98.611 E.04822
G1 X145.214 Y99.787 E.03874
G1 X144.767 Y100.408 E.024
G1 X144.127 Y100.971 E.02673
G1 X143.594 Y101.25 E.01887
G1 X142.841 Y101.473 E.02462
G1 X132.415 Y101.504 E.32689
G1 X131.903 Y101.959 E.02148
G1 X131.279 Y102.279 E.02199
G1 X130.297 Y102.507 E.03162
G1 X124.029 Y102.486 E.19652
G1 X123.233 Y102.285 E.02572
G1 X122.592 Y101.955 E.02261
G1 X122.085 Y101.504 E.02128
G1 X115.603 Y101.504 E.20322
G1 X115.603 Y125.299 E.74606
G1 X122.298 Y125.299 E.20992
G1 X122.607 Y125.039 E.01265
G1 X123.245 Y124.713 E.02245
G1 X124.233 Y124.497 E.03173
G1 X130.315 Y124.501 E.19068
G1 X131.272 Y124.721 E.03081
G1 X131.896 Y125.041 E.02198
G1 X132.202 Y125.299 E.01256
G1 X142.841 Y125.33 E.33357
G1 X143.656 Y125.577 E.02671
G1 X144.409 Y126.047 E.0278
G1 X145.016 Y126.698 E.02795
G1 X145.424 Y127.487 E.02784
G1 X145.605 Y128.343 E.02742
G1 X145.605 Y129.761 E.04449
G1 X145.13 Y131.227 E.0483
G1 X144.752 Y131.722 E.01953
G1 X140.79 Y135.684 E.17568
G1 X139.92 Y136.232 E.03225
G1 X138.876 Y136.502 E.03379
G1 X136.742 Y136.509 E.06694
G1 X135.683 Y136.533 E.03322
G1 X134.69 Y136.515 E.03113
G1 X120.885 Y136.508 E.43283
G1 X118.904 Y136.536 E.06215
G1 X117.895 Y136.517 E.03163
G1 X116.901 Y136.536 E.03116
G1 X114.448 Y136.518 E.07691
G1 X113.463 Y136.536 E.03091
G1 X112.404 Y136.509 E.03319
G1 X107.367 Y136.507 E.15794
G1 X106.066 Y136.097 E.04278
G1 X105.646 Y135.797 E.01618
G1 X104.951 Y135.067 E.03162
G1 X104.642 Y134.477 E.02087
G1 X104.395 Y133.525 E.03084
G1 X104.395 Y93.27 E1.26217
G1 X104.786 Y92.025 E.04092
M204 S1000
G1 X105.13 Y92.161 F10800
M204 S800
G1 F1200
G1 X105.38 Y91.806 E.01361
G1 X106.037 Y91.173 E.02862
G1 X106.544 Y90.902 E.01803
G1 X107.353 Y90.681 E.02628
G1 X116.038 Y90.674 E.27233
G1 X115.999 Y82.82 E.24624
G1 X116.166 Y82.216 E.01966
G1 X116.634 Y81.411 E.02918
G1 X117.251 Y80.851 E.02613
G1 X117.957 Y80.499 E.02474
G1 X118.655 Y80.356 E.02233
G1 X123.976 Y80.382 E.16686
G1 X124.88 Y80.682 E.02986
G1 X125.262 Y80.933 E.01432
G1 X125.888 Y81.563 E.02784
G1 X126.162 Y82.032 E.01703
M73 Q1 S92
G1 X126.374 Y82.647 E.0204
G1 X126.411 Y83.872 E.03842
G1 X130.992 Y83.871 E.14363
G1 X131.008 Y82.764 E.03472
G1 X131.241 Y82.031 E.02412
G1 X131.571 Y81.49 E.01987
G1 X132.108 Y80.96 E.02365
G1 X132.56 Y80.664 E.01696
G1 X133.598 Y80.355 E.03395
G1 X138.797 Y80.359 E.16301
G1 X139.479 Y80.51 E.02191
G1 X140.099 Y80.812 E.02162
G1 X140.737 Y81.379 E.02677
G1 X141.192 Y82.097 E.02662
G1 X141.413 Y82.869 E.02519
