; generated by PrusaSlicer 2.5.0+win64 on 2022-10-10 at 08:30:19 UTC


;
;
; 

; external perimeters extrusion width = 0.45mm
; perimeters extrusion width = 0.45mm
; infill extrusion width = 0.45mm
; solid infill extrusion width = 0.45mm
; top infill extrusion width = 0.40mm
; first layer extrusion width = 0.42mm

M73 P0 R16
M73 Q0 S16
M201 X1000 Y1000 Z200 E5000 ; sets maximum accelerations, mm/sec^2
M203 X200 Y200 Z12 E120 ; sets maximum feedrates, mm / sec
M204 P1250 R1250 T1250 ; sets acceleration (P, T) and retract acceleration (R), mm/sec^2
M205 X8.00 Y8.00 Z0.40 E4.50 ; sets the jerk limits, mm/sec
M205 S0 T0 ; sets the minimum extruding and travel feed rate, mm/sec
M107
;TYPE:Custom
M862.3 P "MK3S" ; printer model check
M862.1 P0.4 ; nozzle diameter check
M115 U3.11.0 ; tell printer latest fw version
G90 ; use absolute coordinates
M83 ; extruder relative mode
M104 S215 ; set extruder temp
M140 S60 ; set bed temp
M190 S60 ; wait for bed temp
M109 S215 ; wait for extruder temp
G28 W ; home all without mesh bed level
G80 ; mesh bed leveling

G1 Z0.2 F720
G1 Y-3 F1000 ; go outside print area
G92 E0
G1 X60 E9 F1000 ; intro line
G1 X100 E12.5 F1000 ; intro line

G92 E0
M221 S95

; Don't change E values below. Excessive value can damage the printer.
M907 E430 ; set extruder motor current
G21 ; set units to millimeters
G90 ; use absolute coordinates
M83 ; use relative distances for extrusion
M900 K0.05 ; Filament gcode LA 1.5
M900 K30 ; Filament gcode LA 1.0
M107
;LAYER_CHANGE
;Z:0.2
;HEIGHT:0.2
;BEFORE_LAYER_CHANGE
G92 E0.0
;0.2


G1 E-.8 F2100
M73 P0 R15
G1 Z.4 F720
;AFTER_LAYER_CHANGE
;0.2
G1 X113.528 Y94.257 F10800
G1 Z.2 F720
M73 Q0 S15
G1 E.8 F2100
M204 S800
;TYPE:Skirt/Brim
;WIDTH:0.42
G1 F1200
G1 X116.515 Y91.269 E.13247
G1 X118.463 Y90.462 E.06609
G1 X131.537 Y90.462 E.40996
G1 X133.485 Y91.269 E.06609
G1 X136.472 Y94.257 E.13247
G1 X137.279 Y96.204 E.06609
G1 X137.279 Y107.101 E.34166
G1 X137.212 Y107.708 E.01914
G1 X135.86 Y113.682 E.19206
G1 X135.572 Y114.67 E.03226
M73 Q1 S15
G1 X134.986 Y116.085 E.048
G1 X134.295 Y117.284 E.04342
G1 X133.365 Y118.498 E.04794
G1 X132.387 Y119.479 E.04342
M73 P1 R15
G1 X131.174 Y120.412 E.04798
G1 X130.296 Y120.948 E.03225
G1 X128.216 Y121.813 E.07065
G1 X127.21 Y122.058 E.03245
G1 X125.692 Y122.257 E.048
G1 X124.308 Y122.257 E.04341
G1 X122.79 Y122.058 E.048
G1 X121.784 Y121.813 E.03245
G1 X120.026 Y121.108 E.05939
G1 X118.826 Y120.412 E.04351
G1 X117.613 Y119.479 E.04798
G1 X116.635 Y118.498 E.04342
G1 X115.705 Y117.284 E.04794
G1 X115.173 Y116.407 E.03218
G1 X114.428 Y114.67 E.05926
G1 X114.114 Y113.577 E.03564
G1 X112.788 Y107.708 E.18868
G1 X112.721 Y107.101 E.01914
G1 X112.721 Y96.204 E.34166
G1 X113.505 Y94.312 E.06421
M204 S1000
G1 X113.794 Y94.523 F10800
M204 S800
G1 F1200
G1 X116.782 Y91.536 E.13247
G1 X118.463 Y90.84 E.05704
G1 X131.537 Y90.84 E.40996
G1 X133.218 Y91.536 E.05704
G1 X136.206 Y94.523 E.13247
G1 X136.902 Y96.204 E.05704
G1 X136.902 Y107.101 E.34166
G1 X136.844 Y107.625 E.01652
G1 X135.496 Y113.585 E.1916
G1 X135.223 Y114.526 E.03072
G1 X134.638 Y115.94 E.048
G1 X133.995 Y117.055 E.04034
G1 X133.066 Y118.269 E.04794
G1 X132.157 Y119.18 E.04034
G1 X130.944 Y120.113 E.04798
G1 X130.107 Y120.621 E.0307
G1 X128.118 Y121.449 E.06756
G1 X127.161 Y121.684 E.0309
G1 X125.643 Y121.884 E.048
G1 X124.357 Y121.884 E.04033
G1 X122.839 Y121.684 E.048
G1 X121.882 Y121.449 E.0309
G1 X120.171 Y120.759 E.05783
G1 X119.056 Y120.113 E.04043
G1 X117.843 Y119.18 E.04798
G1 X116.934 Y118.269 E.04034
G1 X116.005 Y117.055 E.04794
G1 X115.499 Y116.219 E.03064
G1 X114.777 Y114.526 E.05772
G1 X114.482 Y113.494 E.03363
G1 X113.156 Y107.625 E.18868
G1 X113.098 Y107.101 E.01652
G1 X113.098 Y96.204 E.34166
G1 X113.771 Y94.579 E.05516
M204 S1000
;WIPE_START
G1 F8640
G1 X116.086 Y92.239 E-.76
;WIPE_END
G1 E-.04 F2100
G1 Z.6 F720
G1 X116.47 Y95.78 F10800
G1 Z.2 F720
G1 E.8 F2100
M204 S800
G1 F1200
G1 X117.33 Y94.75 E.0421
G1 X118.401 Y94.008 E.04085
G1 X119.673 Y93.574 E.04214
G1 X130.131 Y93.542 E.3279
G1 X130.997 Y93.753 E.02794
G1 X131.831 Y94.126 E.02867
G1 X132.939 Y95.014 E.0445
G1 X133.805 Y96.295 E.04851
G1 X134.232 Y97.847 E.05046
G1 X134.238 Y105.417 E.23734
G1 X133.788 Y107.051 E.05315
G1 X133.263 Y107.912 E.0316
G1 X133.113 Y108.079 E.00703
G1 X133.113 Y111.28 E.10039
G1 X132.724 Y113.609 E.07402
G1 X132.017 Y115.193 E.05442
G1 X131.003 Y116.587 E.05404
G1 X128.727 Y118.337 E.09001
M73 Q2 S15
G1 X127.084 Y118.968 E.05519
G1 X125.376 Y119.236 E.05419
G1 X122.489 Y118.846 E.09134
M73 P2 R15
G1 X120.7 Y118.004 E.06199
G1 X119.154 Y116.748 E.06247
G1 X117.984 Y115.194 E.06098
G1 X117.206 Y113.37 E.0622
G1 X116.887 Y111.263 E.0668
G1 X116.887 Y108.079 E.09986
G1 X116.737 Y107.912 E.00703
G1 X116.212 Y107.051 E.0316
G1 X115.762 Y105.417 E.05315
G1 X115.762 Y97.999 E.2326
G1 X115.933 Y96.984 E.03225
G1 X116.445 Y95.835 E.03945
M204 S1000
G1 X116.789 Y95.99 F10800
M204 S800
G1 F1200
G1 X117.6 Y95.013 E.03983
G1 X118.592 Y94.335 E.03766
G1 X119.764 Y93.941 E.03876
G1 X130.063 Y93.913 E.32294
G1 X130.89 Y94.115 E.02667
G1 X131.654 Y94.46 E.02627
G1 X132.679 Y95.288 E.04134
G1 X133.474 Y96.478 E.04487
G1 X133.861 Y97.921 E.04682
G1 X133.861 Y105.391 E.23422
G1 X133.432 Y106.923 E.04988
G1 X132.954 Y107.695 E.02848
G1 X132.736 Y107.927 E.00997
G1 X132.736 Y111.265 E.10466
G1 X132.369 Y113.478 E.07034
G1 X131.7 Y114.988 E.05179
G1 X130.714 Y116.344 E.05256
G1 X128.566 Y117.995 E.08496
G1 X127.005 Y118.598 E.05246
G1 X125.345 Y118.859 E.0527
G1 X122.623 Y118.492 E.08612
G1 X120.919 Y117.696 E.05896
G1 X119.441 Y116.503 E.05957
G1 X118.3 Y114.986 E.05951
G1 X117.563 Y113.245 E.05928
G1 X117.264 Y111.249 E.06327
G1 X117.264 Y107.927 E.10418
G1 X117.046 Y107.695 E.00997
G1 X116.568 Y106.923 E.02848
G1 X116.139 Y105.391 E.04988
G1 X116.139 Y98.015 E.23126
G1 X116.301 Y97.073 E.02998
G1 X116.764 Y96.045 E.03535
M204 S1000
G1 X117.102 Y96.195 F10800
M204 S800
G1 F1200
G1 X117.837 Y95.308 E.0361
G1 X118.738 Y94.684 E.03437
G1 X119.855 Y94.308 E.03695
G1 X129.998 Y94.285 E.31802
G1 X130.751 Y94.466 E.02431
G1 X131.476 Y94.793 E.02492
G1 X132.418 Y95.562 E.03813
G1 X133.142 Y96.66 E.04124
G1 X133.484 Y97.945 E.0417
G1 X133.484 Y105.364 E.23263
G1 X133.077 Y106.792 E.04657
G1 X132.647 Y107.476 E.02532
G1 X132.359 Y107.772 E.01296
G1 X132.359 Y111.25 E.10902
G1 X132.015 Y113.347 E.06665
G1 X131.363 Y114.816 E.0504
G1 X130.426 Y116.099 E.04983
G1 X128.405 Y117.653 E.07993
G1 X126.889 Y118.239 E.05096
G1 X125.314 Y118.482 E.04995
G1 X122.756 Y118.138 E.08093
G1 X121.1 Y117.365 E.05732
G1 X119.697 Y116.225 E.05666
G1 X118.616 Y114.779 E.05661
G1 X117.92 Y113.121 E.05638
G1 X117.641 Y111.236 E.05977
G1 X117.641 Y107.772 E.10859
G1 X117.353 Y107.476 E.01296
G1 X116.923 Y106.792 E.02532
G1 X116.516 Y105.364 E.04657
G1 X116.516 Y98.03 E.22995
G1 X116.655 Y97.203 E.0263
G1 X117.078 Y96.25 E.0327
M204 S1000
G1 X117.422 Y96.404 F10800
M204 S800
G1 F1200
G1 X117.445 Y96.352 E.0018
G1 X118.107 Y95.572 E.03208
G1 X118.928 Y95.01 E.03118
G1 X119.944 Y94.676 E.03354
G1 X129.931 Y94.657 E.31315
G1 X130.645 Y94.829 E.02302
M73 Q3 S15
G1 X131.296 Y95.126 E.02243
G1 X132.155 Y95.834 E.03491
G1 X132.81 Y96.839 E.03762
G1 X133.107 Y97.969 E.03663
G1 X133.107 Y105.338 E.23105
M73 P3 R15
G1 X132.744 Y106.614 E.04161
G1 X132.34 Y107.256 E.02378
G1 X131.982 Y107.616 E.0159
G1 X131.982 Y111.235 E.11347
G1 X131.66 Y113.217 E.06299
G1 X131.047 Y114.611 E.04773
G1 X130.137 Y115.855 E.04834
G1 X128.243 Y117.312 E.07492
G1 X126.81 Y117.87 E.0482
G1 X125.283 Y118.106 E.04844
G1 X122.889 Y117.784 E.07576
G1 X121.318 Y117.056 E.05427
G1 X119.984 Y115.979 E.05376
G1 X118.954 Y114.612 E.05368
G1 X118.277 Y112.998 E.05488
G1 X118.018 Y111.222 E.05626
G1 X118.018 Y107.616 E.11308
G1 X117.66 Y107.256 E.0159
G1 X117.256 Y106.614 E.02378
G1 X116.893 Y105.338 E.0416
G1 X116.893 Y98.047 E.22861
G1 X117.023 Y97.291 E.02404
G1 X117.397 Y96.459 E.02861
M204 S1000
G1 X117.739 Y96.615 F10800
M204 S800
G1 F1200
G1 X117.776 Y96.534 E.00281
G1 X118.376 Y95.838 E.02879
G1 X119.115 Y95.338 E.02799
G1 X120.031 Y95.044 E.03015
G1 X129.867 Y95.029 E.3084
G1 X130.506 Y95.18 E.02059
G1 X131.116 Y95.458 E.02102
G1 X131.892 Y96.105 E.03167
G1 X132.454 Y96.967 E.03225
G1 X132.73 Y97.994 E.03337
G1 X132.73 Y105.312 E.22944
G1 X132.411 Y106.436 E.03664
G1 X132.033 Y107.036 E.02222
G1 X131.605 Y107.456 E.01881
G1 X131.605 Y111.22 E.118
G1 X131.305 Y113.088 E.05932
G1 X130.71 Y114.44 E.04631
G1 X129.849 Y115.61 E.04557
G1 X128.081 Y116.97 E.06994
G1 X126.693 Y117.511 E.04669
G1 X125.254 Y117.729 E.04565
G1 X123.02 Y117.429 E.07065
G1 X121.536 Y116.748 E.05119
G1 X120.24 Y115.701 E.05227
G1 X119.27 Y114.405 E.05073
G1 X118.634 Y112.875 E.05195
G1 X118.395 Y111.209 E.05278
G1 X118.395 Y107.456 E.11766
G1 X117.967 Y107.036 E.01881
G1 X117.589 Y106.436 E.02222
G1 X117.27 Y105.312 E.03664
G1 X117.27 Y98.063 E.22727
G1 X117.39 Y97.381 E.02173
G1 X117.714 Y96.67 E.02451
M204 S1000
G1 X118.053 Y96.821 F10800
M204 S800
G1 F1200
G1 X118.081 Y96.758 E.00215
G1 X118.644 Y96.104 E.02708
G1 X119.301 Y95.668 E.02472
G1 X120.116 Y95.412 E.02678
G1 X129.802 Y95.401 E.3037
G1 X130.401 Y95.542 E.01929
G1 X130.934 Y95.789 E.01842
G1 X131.626 Y96.374 E.02841
G1 X132.12 Y97.144 E.02871
G1 X132.353 Y98.019 E.02837
G1 X132.353 Y105.286 E.22786
G1 X132.077 Y106.258 E.03168
G1 X131.726 Y106.814 E.02063
G1 X131.228 Y107.295 E.02171
G1 X131.228 Y111.205 E.12259
G1 X130.95 Y112.959 E.05569
G1 X130.394 Y114.233 E.04359
G1 X129.561 Y115.366 E.04407
G1 X127.918 Y116.629 E.06499
G1 X126.615 Y117.141 E.04388
G1 X125.223 Y117.352 E.04414
G1 X123.151 Y117.075 E.06557
G1 X121.753 Y116.439 E.04813
G1 X120.527 Y115.455 E.04929
G1 X119.587 Y114.199 E.04922
G1 X118.992 Y112.754 E.04897
G1 X118.772 Y111.196 E.04934
G1 X118.772 Y107.295 E.12231
G1 X118.274 Y106.814 E.02171
G1 X117.923 Y106.258 E.02063
G1 X117.647 Y105.286 E.03168
G1 X117.647 Y98.079 E.22596
G1 X117.744 Y97.512 E.01804
G1 X118.028 Y96.876 E.02185
M204 S1000
G1 X118.372 Y97.03 F10800
M204 S800
G1 F1200
G1 X118.413 Y96.939 E.00311
G1 X118.909 Y96.373 E.0236
G1 X119.483 Y95.999 E.02148
G1 X120.198 Y95.781 E.02344
G1 X129.739 Y95.774 E.29915
G1 X130.261 Y95.893 E.01678
M73 P4 R15
M73 Q4 S15
G1 X130.751 Y96.12 E.01694
G1 X131.359 Y96.641 E.02512
G1 X131.764 Y97.272 E.02351
G1 X131.976 Y98.045 E.0251
G1 X131.976 Y105.26 E.22623
G1 X131.744 Y106.08 E.02672
G1 X131.42 Y106.593 E.01901
G1 X130.851 Y107.132 E.02459
G1 X130.851 Y111.191 E.12726
G1 X130.594 Y112.831 E.05205
G1 X130.057 Y114.063 E.04214
G1 X129.274 Y115.12 E.04125
G1 X127.755 Y116.288 E.06006
G1 X126.498 Y116.782 E.04237
G1 X125.195 Y116.975 E.04131
G1 X123.282 Y116.72 E.06051
G1 X121.932 Y116.106 E.0465
G1 X120.783 Y115.178 E.0463
G1 X119.904 Y113.994 E.04624
G1 X119.35 Y112.634 E.04602
G1 X119.149 Y111.183 E.04593
G1 X119.149 Y107.132 E.12702
G1 X118.58 Y106.593 E.02459
G1 X118.256 Y106.08 E.01901
G1 X118.024 Y105.26 E.02672
G1 X118.024 Y98.094 E.22468
G1 X118.098 Y97.643 E.01432
G1 X118.348 Y97.084 E.01919
M204 S1000
G1 X118.69 Y97.24 F10800
M204 S800
G1 F1200
G1 X118.743 Y97.123 E.00404
G1 X119.171 Y96.645 E.02012
G1 X119.662 Y96.332 E.01825
G1 X120.278 Y96.15 E.02012
G1 X129.679 Y96.146 E.29476
G1 X130.122 Y96.244 E.01423
G1 X130.568 Y96.45 E.01541
G1 X131.091 Y96.907 E.02178
G1 X131.41 Y97.403 E.01847
G1 X131.599 Y98.071 E.02179
G1 X131.599 Y105.234 E.22457
G1 X131.409 Y105.905 E.02187
G1 X131.143 Y106.336 E.0159
G1 X130.663 Y106.791 E.02072
G1 X130.474 Y106.907 E.00695
G1 X130.474 Y111.176 E.13388
G1 X130.239 Y112.704 E.04845
G1 X129.74 Y113.856 E.03935
G1 X128.986 Y114.875 E.03974
G1 X127.592 Y115.947 E.05517
G1 X126.421 Y116.412 E.0395
G1 X125.165 Y116.598 E.03979
G1 X123.411 Y116.365 E.0555
G1 X122.149 Y115.797 E.04338
G1 X121.039 Y114.9 E.04475
G1 X120.222 Y113.79 E.04321
G1 X119.709 Y112.516 E.04307
G1 X119.526 Y111.171 E.04256
G1 X119.526 Y106.907 E.1337
G1 X119.337 Y106.791 E.00695
G1 X118.857 Y106.336 E.02072
G1 X118.591 Y105.905 E.0159
G1 X118.401 Y105.234 E.02187
G1 X118.401 Y98.11 E.22335
G1 X118.466 Y97.732 E.01204
G1 X118.665 Y97.295 E.01505
M204 S1000
G1 X119.005 Y97.454 F10800
M204 S800
G1 F1200
G1 X119.072 Y97.31 E.00495
G1 X119.432 Y96.919 E.01669
G1 X119.794 Y96.686 E.01351
G1 X120.358 Y96.52 E.01842
G1 X129.656 Y96.523 E.29153
G1 X130.016 Y96.606 E.01157
G1 X130.381 Y96.779 E.01266
G1 X130.821 Y97.171 E.01848
G1 X131.056 Y97.536 E.01362
G1 X131.222 Y98.099 E.01841
G1 X131.222 Y105.206 E.22281
G1 X131.055 Y105.771 E.01848
G1 X130.839 Y106.112 E.01268
G1 X130.426 Y106.496 E.01767
G1 X130.097 Y106.681 E.01183
G1 X130.097 Y111.163 E.14053
G1 X129.883 Y112.577 E.04485
G1 X129.403 Y113.686 E.03788
G1 X128.7 Y114.628 E.03687
G1 X127.428 Y115.606 E.05031
G1 X126.302 Y116.053 E.03797
G1 X125.138 Y116.221 E.0369
G1 X123.539 Y116.009 E.05056
G1 X122.366 Y115.487 E.04027
G1 X121.327 Y114.655 E.04173
G1 X120.563 Y113.626 E.04018
G1 X120.068 Y112.397 E.04155
G1 X119.903 Y111.158 E.03918
G1 X119.903 Y106.681 E.1404
G1 X119.574 Y106.496 E.01183
G1 X119.161 Y106.112 E.01767
G1 X118.945 Y105.771 E.01268
G1 X118.778 Y105.206 E.01848
G1 X118.778 Y98.127 E.22193
G1 X118.832 Y97.823 E.00968
G1 X118.979 Y97.508 E.01091
M204 S1000
G1 X119.317 Y97.67 F10800
M204 S800
G1 F1200
G1 X119.397 Y97.502 E.00583
G1 X119.689 Y97.195 E.01328
G1 X119.932 Y97.037 E.00908
G1 X120.387 Y96.897 E.01495
G1 X129.634 Y96.9 E.28993
G1 X129.872 Y96.956 E.00767
G1 X130.193 Y97.107 E.01111
G1 X130.548 Y97.432 E.01508
G1 X130.704 Y97.674 E.00902
G1 X130.845 Y98.129 E.01495
G1 X130.845 Y105.176 E.22096
G1 X130.704 Y105.632 E.01495
M73 Q5 S15
G1 X130.538 Y105.884 E.00946
G1 X130.187 Y106.204 E.01491
G1 X130.087 Y106.261 E.0036
G1 X129.72 Y106.393 E.01225
G1 X129.72 Y111.149 E.14912
G1 X129.526 Y112.451 E.04129
M73 P5 R15
G1 X129.087 Y113.478 E.03502
G1 X128.413 Y114.382 E.03534
G1 X127.263 Y115.267 E.0455
G1 X126.226 Y115.684 E.03505
G1 X125.11 Y115.845 E.03536
G1 X123.666 Y115.653 E.04566
G1 X122.58 Y115.176 E.03718
G1 X121.615 Y114.41 E.03865
G1 X120.88 Y113.421 E.03861
G1 X120.427 Y112.28 E.0385
G1 X120.28 Y111.147 E.03585
G1 X120.28 Y106.393 E.14905
G1 X119.913 Y106.261 E.01225
G1 X119.813 Y106.204 E.0036
G1 X119.462 Y105.884 E.01491
G1 X119.296 Y105.632 E.00946
G1 X119.155 Y105.176 E.01495
G1 X119.155 Y98.146 E.22043
G1 X119.198 Y97.919 E.00724
G1 X119.291 Y97.724 E.00677
M204 S1000
G1 X119.63 Y97.878 F10800
M204 S800
G1 F1200
G1 X119.694 Y97.738 E.00485
G1 X119.948 Y97.47 E.01156
G1 X120.075 Y97.387 E.00476
G1 X120.419 Y97.274 E.01136
G1 X129.612 Y97.278 E.28824
G1 X129.729 Y97.305 E.00377
G1 X130.003 Y97.435 E.0095
G1 X130.272 Y97.689 E.0116
G1 X130.355 Y97.816 E.00476
G1 X130.468 Y98.161 E.01136
G1 X130.468 Y105.144 E.21897
G1 X130.355 Y105.488 E.01134
G1 X130.265 Y105.622 E.00506
G1 X129.973 Y105.894 E.01251
G1 X129.635 Y106.023 E.01133
G1 X129.343 Y106.045 E.0092
G1 X129.343 Y111.136 E.15961
G1 X129.17 Y112.326 E.03772
G1 X128.75 Y113.309 E.03351
G1 X128.128 Y114.134 E.03241
G1 X127.098 Y114.926 E.04072
G1 X126.107 Y115.325 E.03351
G1 X125.083 Y115.468 E.03241
G1 X123.793 Y115.297 E.0408
G1 X122.755 Y114.841 E.03555
G1 X121.87 Y114.132 E.03555
G1 X121.199 Y113.219 E.03553
G1 X120.787 Y112.166 E.03546
G1 X120.657 Y111.135 E.03256
G1 X120.657 Y106.045 E.15959
G1 X120.365 Y106.023 E.0092
G1 X120.027 Y105.894 E.01133
G1 X119.735 Y105.622 E.01251
G1 X119.645 Y105.488 E.00506
G1 X119.532 Y105.144 E.01134
G1 X119.532 Y98.161 E.21896
G1 X119.552 Y98.05 E.00352
G1 X119.605 Y97.933 E.00404
M204 S1000
G1 X119.943 Y98.093 F10800
M204 S800
G1 F1200
G1 X120.019 Y97.931 E.00559
G1 X120.2 Y97.751 E.00802
G1 X120.454 Y97.651 E.00856
G1 X129.56 Y97.651 E.28551
G1 X129.81 Y97.761 E.00856
G1 X130.009 Y97.968 E.00902
G1 X130.091 Y98.196 E.00757
G1 X130.091 Y105.109 E.21677
G1 X129.993 Y105.361 E.00845
G1 X129.759 Y105.578 E.01002
G1 X129.546 Y105.654 E.00709
G1 X128.966 Y105.654 E.01819
G1 X128.966 Y111.123 E.17146
G1 X128.813 Y112.203 E.03421
G1 X128.434 Y113.101 E.03055
G1 X127.842 Y113.887 E.03087
G1 X126.932 Y114.587 E.03599
G1 X126.031 Y114.955 E.03051
G1 X125.056 Y115.091 E.03086
