;FLAVOR:Marlin
;TIME:1515
;Filament used: 1.03257m
;Layer height: 0.2
;MINX:126.453
;MINY:126.453
;MINZ:0.3
;MAXX:173.546
;MAXY:173.546
;MAXZ:6.5
;Generated with Cura_SteamEngine 4.13.1
M140 S60
M105
M190 S60
M104 S200
M105
M109 S200
M82 ;absolute extrusion mode
G28 ;Home
G1 Z15.0 F2000 ;Move the platform
G92 E0
G92 E0
G1 F1500 E-6.5
;LAYER_COUNT:32
;LAYER:0
M107
M204 S1000
G0 F7500 X129.739 Y129.351 Z0.3
;TYPE:SKIRT
G1 F1500 E0
G1 X130.086 Y129.037 E0.02335
G1 X130.465 Y128.731 E0.04765
G1 X130.849 Y128.44 E0.07169
G1 X131.502 Y127.996 E0.11108
G1 X132.196 Y127.62 E0.15046
G1 X132.59 Y127.445 E0.17197
G1 X132.967 Y127.295 E0.19221
G1 X133.866 Y126.964 E0.24001
G1 X134.62 Y126.729 E0.27941
G1 X135.394 Y126.572 E0.31881
G1 X135.787 Y126.522 E0.33858
G1 X136.108 Y126.49 E0.35467
G1 X137.012 Y126.453 E0.39981
G1 X141.267 Y126.458 E0.61209
G1 X162.892 Y126.457 E1.69097
G1 X162.959 Y126.455 E1.69431
G1 X163.748 Y126.472 E1.73368
G1 X164.766 Y126.612 E1.78495
G1 X165.3 Y126.722 E1.81215
G1 X165.555 Y126.772 E1.82511
G1 X166.315 Y126.988 E1.86453
G1 X166.955 Y127.239 E1.89883
G1 X167.54 Y127.498 E1.93075
G1 X167.923 Y127.68 E1.9519
G1 X167.976 Y127.707 E1.95487
G1 X168.66 Y128.101 E1.99425
G1 X169.311 Y128.569 E2.03425
G1 X169.813 Y128.971 E2.06634
G1 X170.537 Y129.629 E2.11515
G1 X170.601 Y129.695 E2.11974
G1 X171.039 Y130.188 E2.15264
G1 X171.344 Y130.561 E2.17667
G1 X171.813 Y131.196 E2.21606
G1 X172.096 Y131.659 E2.24313
G1 X172.269 Y131.965 E2.26067
G1 X172.622 Y132.671 E2.30005
G1 X172.833 Y133.204 E2.32865
G1 X173.014 Y133.716 E2.35574
G1 X173.239 Y134.473 E2.39514
G1 X173.357 Y135.056 E2.42482
G1 X173.385 Y135.227 E2.43346
G1 X173.442 Y135.641 E2.45431
G1 X173.495 Y136.127 E2.4787
G1 X173.487 Y136.128 E2.4791
G1 X173.527 Y136.461 E2.49584
G1 X173.546 Y137.002 E2.52284
G1 X173.546 Y163.143 E3.82702
G1 X173.543 Y163.307 E3.83521
G1 X173.48 Y164.164 E3.87808
G1 X173.438 Y164.489 E3.89443
G1 X173.432 Y164.488 E3.89473
G1 X173.402 Y164.768 E3.90878
G1 X173.145 Y165.867 E3.96509
G1 X173.002 Y166.325 E3.98903
G1 X172.725 Y167.073 E4.02882
G1 X172.695 Y167.143 E4.03262
G1 X172.321 Y167.899 E4.0747
G1 X172.006 Y168.458 E4.10671
G1 X171.35 Y169.441 E4.16567
G1 X171.013 Y169.847 E4.192
G1 X170.694 Y170.206 E4.21595
G1 X170.14 Y170.769 E4.25536
G1 X169.532 Y171.273 E4.29476
G1 X168.901 Y171.698 E4.33272
G1 X167.974 Y172.259 E4.38677
G1 X167.279 Y172.633 E4.42615
G1 X166.549 Y172.935 E4.46556
G1 X166.168 Y173.06 E4.48557
G1 X165.86 Y173.152 E4.50161
G1 X164.917 Y173.371 E4.5499
G1 X164.738 Y173.401 E4.55896
G1 X164.041 Y173.485 E4.59398
G1 X163.634 Y173.516 E4.61435
G1 X163.467 Y173.532 E4.62272
G1 X162.999 Y173.546 E4.64608
G1 X137 Y173.546 E5.94317
G1 X136.807 Y173.535 E5.95282
G1 X136.555 Y173.531 E5.96539
G1 X135.532 Y173.447 E6.0166
G1 X135.384 Y173.425 E6.02407
G1 X134.61 Y173.27 E6.06345
G1 X133.828 Y173.027 E6.1043
G1 X132.897 Y172.683 E6.15382
G1 X131.981 Y172.275 E6.20385
G1 X131.939 Y172.253 E6.20621
G1 X131.259 Y171.852 E6.2456
G1 X130.805 Y171.529 E6.27339
G1 X130.386 Y171.207 E6.29976
G1 X129.785 Y170.694 E6.33918
G1 X129.184 Y170.06 E6.38276
G1 X128.772 Y169.573 E6.41459
G1 X128.561 Y169.313 E6.43129
G1 X128.105 Y168.668 E6.4707
G1 X127.659 Y167.865 E6.51653
G1 X127.367 Y167.257 E6.55018
G1 X127.061 Y166.529 E6.58958
G1 X126.831 Y165.773 E6.629
G1 X126.799 Y165.613 E6.63714
G1 X126.666 Y165.048 E6.6661
G1 X126.524 Y164.271 E6.70551
G1 X126.459 Y163.381 E6.75003
G1 X126.454 Y163 E6.76904
G1 X126.453 Y137 E8.06618
G1 X126.461 Y136.561 E8.08809
G1 X126.52 Y135.774 E8.12746
G1 X126.594 Y135.299 E8.15144
G1 X126.683 Y134.827 E8.17541
G1 X126.953 Y133.791 E8.22882
G1 X127.055 Y133.487 E8.24482
G1 X127.344 Y132.752 E8.28422
G1 X127.57 Y132.293 E8.30975
G1 X127.797 Y131.868 E8.33378
G1 X128.082 Y131.378 E8.36206
G1 X128.13 Y131.302 E8.36655
G1 X128.783 Y130.414 E8.42154
G1 X129.198 Y129.926 E8.4535
G1 X129.739 Y129.351 E8.49289
G0 F7500 X130.311 Y129.372
G1 F1500 X130.707 Y129.05 E8.51835
G1 X131.091 Y128.759 E8.54239
G1 X131.727 Y128.327 E8.58075
G1 X132.742 Y127.814 E8.63749
G1 X132.844 Y127.772 E8.64299
G1 X133.105 Y127.671 E8.65695
G1 X134.004 Y127.34 E8.70475
G1 X134.739 Y127.112 E8.74314
G1 X135.827 Y126.92 E8.79826
G1 X136.148 Y126.888 E8.81435
G1 X137.005 Y126.853 E8.85714
G1 X141.267 Y126.858 E9.06978
G1 X162.904 Y126.857 E10.14925
G1 X162.971 Y126.855 E10.15259
G1 X163.74 Y126.872 E10.19097
G1 X164.685 Y127.004 E10.23857
G1 X165.219 Y127.114 E10.26577
G1 X165.485 Y127.166 E10.2793
G1 X166.223 Y127.38 E10.31763
G1 X166.793 Y127.605 E10.3482
G1 X167.378 Y127.864 E10.38012
G1 X167.741 Y128.036 E10.40016
G1 X167.794 Y128.063 E10.40313
G1 X168.46 Y128.448 E10.44151
G1 X169.061 Y128.881 E10.47847
G1 X169.563 Y129.283 E10.51055
G1 X170.249 Y129.908 E10.55685
G1 X170.313 Y129.974 E10.56144
G1 X170.73 Y130.441 E10.59267
G1 X171.035 Y130.814 E10.61671
G1 X171.49 Y131.434 E10.65508
G1 X171.748 Y131.856 E10.67975
G1 X171.921 Y132.162 E10.69729
G1 X172.264 Y132.85 E10.73565
G1 X172.456 Y133.338 E10.76181
G1 X172.637 Y133.85 E10.7889
G1 X172.855 Y134.587 E10.82725
G1 X172.963 Y135.12 E10.85438
G1 X172.991 Y135.291 E10.86302
G1 X173.044 Y135.685 E10.88286
G1 X173.097 Y136.171 E10.90725
G1 X173.089 Y136.172 E10.90765
G1 X173.13 Y136.508 E10.92454
G1 X173.146 Y137.002 E10.94919
G1 X173.146 Y163.135 E12.25298
G1 X173.143 Y163.299 E12.26116
G1 X173.083 Y164.112 E12.30183
G1 X173.041 Y164.437 E12.31818
G1 X173.035 Y164.436 E12.31848
G1 X173.004 Y164.725 E12.33298
G1 X172.763 Y165.747 E12.38537
G1 X172.62 Y166.205 E12.40931
G1 X172.358 Y166.915 E12.44706
G1 X172.328 Y166.985 E12.45086
G1 X171.973 Y167.703 E12.49082
G1 X171.658 Y168.262 E12.52284
G1 X171.035 Y169.194 E12.57876
G1 X170.714 Y169.581 E12.60385
G1 X170.395 Y169.94 E12.62781
G1 X169.855 Y170.488 E12.66619
G1 X169.261 Y170.977 E12.70458
G1 X168.694 Y171.356 E12.7386
G1 X167.767 Y171.917 E12.79266
G1 X167.09 Y172.28 E12.83099
G1 X166.054 Y172.676 E12.88632
G1 X165.746 Y172.768 E12.90236
G1 X164.851 Y172.976 E12.9482
G1 X164.672 Y173.006 E12.95725
G1 X164.011 Y173.087 E12.99048
G1 X163.604 Y173.118 E13.01084
G1 X163.423 Y173.134 E13.01991
G1 X162.999 Y173.146 E13.04107
G1 X137 Y173.146 E14.33816
G1 X136.814 Y173.135 E14.34746
G1 X136.562 Y173.131 E14.36003
G1 X135.591 Y173.052 E14.40864
G1 X135.443 Y173.03 E14.4161
G1 X134.689 Y172.877 E14.45449
G1 X133.966 Y172.651 E14.49228
G1 X133.035 Y172.307 E14.54179
G1 X132.166 Y171.921 E14.58923
G1 X132.124 Y171.899 E14.5916
G1 X131.462 Y171.507 E14.62998
G1 X131.049 Y171.211 E14.65533
G1 X130.63 Y170.889 E14.6817
G1 X130.045 Y170.39 E14.72006
G1 X129.49 Y169.801 E14.76043
G1 X129.078 Y169.314 E14.79226
G1 X128.876 Y169.065 E14.80825
G1 X128.432 Y168.437 E14.84662
G1 X128.019 Y167.692 E14.88912
G1 X127.727 Y167.084 E14.92277
G1 X127.431 Y166.374 E14.96115
G1 X127.21 Y165.637 E14.99954
G1 X127.188 Y165.522 E15.00538
G1 X127.055 Y164.957 E15.03434
G1 X126.918 Y164.2 E15.07272
G1 X126.859 Y163.374 E15.11403
G1 X126.854 Y163 E15.13269
G1 X126.853 Y137 E16.42984
G1 X126.861 Y136.571 E16.45124
G1 X126.919 Y135.804 E16.48962
G1 X126.987 Y135.373 E16.51139
G1 X127.076 Y134.901 E16.53535
G1 X127.332 Y133.918 E16.58603
G1 X127.434 Y133.614 E16.60203
G1 X127.717 Y132.899 E16.64039
G1 X127.923 Y132.482 E16.66359
G1 X128.15 Y132.057 E16.68763
G1 X128.42 Y131.591 E16.7145
G1 X128.468 Y131.515 E16.71899
G1 X129.088 Y130.673 E16.77115
G1 X129.503 Y130.185 E16.80311
G1 X130.311 Y129.372 E16.8603
G0 F7500 X130.572 Y129.675
G1 F1500 X130.948 Y129.369 E16.88448
G1 X131.332 Y129.078 E16.90852
G1 X131.952 Y128.659 E16.94585
G1 X132.895 Y128.184 E16.99853
G1 X132.997 Y128.142 E17.00404
G1 X133.243 Y128.046 E17.01721
G1 X134.142 Y127.715 E17.065
G1 X134.857 Y127.495 E17.10233
G1 X135.867 Y127.319 E17.15348
G1 X136.188 Y127.287 E17.16957
G1 X136.999 Y127.253 E17.21007
G1 X141.267 Y127.258 E17.423
G1 X162.916 Y127.257 E18.50307
G1 X162.983 Y127.255 E18.50641
G1 X163.73 Y127.273 E18.54369
G1 X164.604 Y127.396 E18.58773
G1 X165.138 Y127.506 E18.61493
G1 X165.413 Y127.56 E18.62891
G1 X166.131 Y127.772 E18.66626
G1 X166.631 Y127.97 E18.69309
G1 X167.216 Y128.229 E18.72501
G1 X167.612 Y128.42 E18.74694
G1 X168.26 Y128.794 E18.78427
G1 X168.811 Y129.193 E18.81821
G1 X169.313 Y129.595 E18.85029
G1 X169.962 Y130.186 E18.89409
G1 X170.026 Y130.252 E18.89867
G1 X170.42 Y130.694 E18.92821
G1 X170.725 Y131.067 E18.95225
G1 X171.167 Y131.671 E18.98959
G1 X171.4 Y132.053 E19.01192
G1 X171.573 Y132.359 E19.02945
G1 X171.905 Y133.029 E19.06676
G1 X172.079 Y133.471 E19.09046
G1 X172.26 Y133.983 E19.11755
G1 X172.471 Y134.7 E19.15484
G1 X172.568 Y135.185 E19.17951
G1 X172.596 Y135.356 E19.18816
G1 X172.647 Y135.728 E19.20689
G1 X172.7 Y136.214 E19.23128
G1 X172.692 Y136.215 E19.23168
G1 X172.732 Y136.556 E19.24881
G1 X172.746 Y137.002 E19.27108
G1 X172.746 Y163.128 E20.57451
G1 X172.743 Y163.292 E20.58269
G1 X172.686 Y164.061 E20.62116
G1 X172.644 Y164.386 E20.63751
G1 X172.639 Y164.385 E20.63777
G1 X172.606 Y164.681 E20.65262
G1 X172.381 Y165.628 E20.70119
G1 X172.238 Y166.086 E20.72512
G1 X171.99 Y166.757 E20.76081
G1 X171.96 Y166.827 E20.76461
G1 X171.624 Y167.506 E20.80241
G1 X171.309 Y168.065 E20.83442
G1 X170.72 Y168.947 E20.88733
G1 X170.415 Y169.316 E20.91122
G1 X170.096 Y169.675 E20.93518
G1 X169.57 Y170.206 E20.97247
G1 X168.99 Y170.679 E21.0098
G1 X168.487 Y171.014 E21.03996
G1 X167.56 Y171.575 E21.09401
G1 X166.9 Y171.927 E21.13133
G1 X165.939 Y172.293 E21.18263
G1 X165.631 Y172.385 E21.19867
G1 X164.785 Y172.582 E21.24201
G1 X164.606 Y172.612 E21.25106
G1 X163.981 Y172.688 E21.28247
G1 X163.574 Y172.719 E21.30284
G1 X163.38 Y172.736 E21.31255
G1 X162.999 Y172.746 E21.33157
G1 X137 Y172.746 E22.62866
G1 X136.82 Y172.735 E22.63766
G1 X136.568 Y172.731 E22.65024
G1 X135.65 Y172.656 E22.69619
G1 X135.502 Y172.634 E22.70365
G1 X134.769 Y172.485 E22.74097
G1 X134.105 Y172.276 E22.7757
G1 X133.174 Y171.932 E22.82522
G1 X132.352 Y171.567 E22.87009
G1 X132.31 Y171.545 E22.87245
G1 X131.667 Y171.163 E22.90977
G1 X131.293 Y170.894 E22.93275
G1 X130.874 Y170.572 E22.95911
G1 X130.306 Y170.085 E22.99644
G1 X129.795 Y169.543 E23.0336
G1 X129.383 Y169.056 E23.06543
G1 X129.19 Y168.818 E23.08072
G1 X128.759 Y168.206 E23.11806
G1 X128.38 Y167.518 E23.15725
G1 X128.088 Y166.91 E23.1909
G1 X127.801 Y166.22 E23.22818
G1 X127.589 Y165.502 E23.26553
G1 X127.571 Y165.405 E23.27045
G1 X127.444 Y164.865 E23.29813
G1 X127.312 Y164.129 E23.33544
G1 X127.259 Y163.368 E23.37349
G1 X127.254 Y163 E23.39186
G1 X127.253 Y137 E24.689
G1 X127.261 Y136.58 E24.70996
G1 X127.318 Y135.834 E24.74728
G1 X127.38 Y135.447 E24.76684
G1 X127.469 Y134.975 E24.7908
G1 X127.712 Y134.045 E24.83876
G1 X127.814 Y133.741 E24.85475
G1 X128.089 Y133.046 E24.89204
G1 X128.276 Y132.67 E24.91299
G1 X128.503 Y132.245 E24.93703
G1 X128.759 Y131.805 E24.96243
G1 X128.807 Y131.729 E24.96691
G1 X129.393 Y130.932 E25.01627
G1 X129.808 Y130.444 E25.04823
G1 X130.572 Y129.675 E25.10231
G0 F7500 X130.833 Y129.978
G1 F1500 X131.19 Y129.688 E25.12526
G1 X131.574 Y129.397 E25.14929
G1 X132.176 Y128.991 E25.18552
G1 X133.047 Y128.554 E25.23414
G1 X133.382 Y128.421 E25.25212
G1 X134.281 Y128.09 E25.29991
G1 X134.975 Y127.877 E25.33613
G1 X135.906 Y127.717 E25.38326
G1 X136.227 Y127.685 E25.39935
G1 X136.992 Y127.653 E25.43755
G1 X141.266 Y127.658 E25.65078
G1 X162.927 Y127.657 E26.73146
G1 X162.994 Y127.655 E26.7348
G1 X163.721 Y127.673 E26.77108
G1 X164.524 Y127.788 E26.81155
G1 X165.058 Y127.898 E26.83875
G1 X165.341 Y127.954 E26.85314
G1 X166.037 Y128.163 E26.8894
G1 X166.469 Y128.336 E26.91262
G1 X167.054 Y128.595 E26.94453
G1 X167.431 Y128.776 E26.9654
G1 X168.059 Y129.141 E27.00164
G1 X168.56 Y129.505 E27.03253
G1 X169.062 Y129.907 E27.06462
G1 X169.675 Y130.464 E27.10594
G1 X169.739 Y130.53 E27.11053
G1 X170.11 Y130.947 E27.13837
G1 X170.415 Y131.32 E27.16241
G1 X170.843 Y131.907 E27.19866
G1 X171.051 Y132.25 E27.21867
G1 X171.224 Y132.556 E27.23621
G1 X171.547 Y133.207 E27.27246
G1 X171.702 Y133.604 E27.29372
G1 X171.883 Y134.116 E27.32082
G1 X172.087 Y134.813 E27.35705
G1 X172.173 Y135.25 E27.37927
G1 X172.201 Y135.421 E27.38791
G1 X172.249 Y135.771 E27.40554
G1 X172.302 Y136.257 E27.42993
G1 X172.294 Y136.258 E27.43033
G1 X172.334 Y136.602 E27.44761
G1 X172.346 Y137.002 E27.46758
G1 X172.346 Y163.121 E28.77066
G1 X172.343 Y163.285 E28.77884
G1 X172.29 Y164.01 E28.81511
G1 X172.248 Y164.335 E28.83146
G1 X172.242 Y164.334 E28.83176
G1 X172.208 Y164.637 E28.84697
G1 X171.999 Y165.509 E28.89171
G1 X171.856 Y165.967 E28.91565
G1 X171.622 Y166.6 E28.94932
G1 X171.592 Y166.67 E28.95311
G1 X171.276 Y167.31 E28.98872
G1 X170.961 Y167.869 E29.02074
G1 X170.406 Y168.7 E29.07059
G1 X170.116 Y169.05 E29.09327
G1 X169.797 Y169.409 E29.11723
G1 X169.285 Y169.925 E29.15349
G1 X168.72 Y170.381 E29.18972
G1 X168.28 Y170.672 E29.21603
G1 X167.353 Y171.233 E29.27009
G1 X166.712 Y171.574 E29.30632
G1 X165.825 Y171.91 E29.35364
G1 X165.517 Y172.002 E29.36967
G1 X164.719 Y172.187 E29.41054
G1 X164.54 Y172.217 E29.4196
G1 X163.95 Y172.289 E29.44925
G1 X163.543 Y172.32 E29.46962
G1 X163.542 Y172.302 E29.47051
G1 X162.999 Y172.346 E29.49769
G1 X137 Y172.346 E30.79479
G1 X136.826 Y172.335 E30.80349
G1 X136.574 Y172.331 E30.81606
G1 X135.709 Y172.26 E30.85936
G1 X135.561 Y172.238 E30.86683
G1 X134.849 Y172.092 E30.90309
G1 X134.243 Y171.901 E30.93479
G1 X133.312 Y171.557 E30.9843
G1 X132.538 Y171.212 E31.02658
G1 X132.496 Y171.19 E31.02895
G1 X131.872 Y170.819 E31.06516
G1 X131.536 Y170.577 E31.08582
G1 X131.117 Y170.255 E31.11219
G1 X130.567 Y169.782 E31.14838
G1 X130.1 Y169.285 E31.1824
G1 X129.688 Y168.798 E31.21423
G1 X129.504 Y168.57 E31.22884
G1 X129.087 Y167.976 E31.26505
G1 X128.741 Y167.345 E31.30096
G1 X128.449 Y166.737 E31.33461
G1 X128.171 Y166.066 E31.37084
G1 X127.968 Y165.369 E31.40706
G1 X127.948 Y165.257 E31.41274
G1 X127.834 Y164.773 E31.43754
G1 X127.706 Y164.058 E31.47378
G1 X127.659 Y163.362 E31.50858
G1 X127.654 Y163 E31.52665
G1 X127.653 Y137 E32.82379
G1 X127.661 Y136.589 E32.8443
G1 X127.773 Y135.521 E32.89788
G1 X127.862 Y135.049 E32.92184
G1 X128.091 Y134.173 E32.96701
G1 X128.193 Y133.869 E32.98301
G1 X128.461 Y133.194 E33.01924
G1 X128.628 Y132.859 E33.03792
G1 X128.855 Y132.434 E33.06195
G1 X129.097 Y132.019 E33.08592
G1 X129.145 Y131.943 E33.09041
G1 X129.697 Y131.191 E33.13695
G1 X130.112 Y130.703 E33.16891
G1 X130.833 Y129.978 E33.21992
G0 F7500 X131.094 Y130.281
G1 F1500 X131.431 Y130.007 E33.24159
G1 X131.815 Y129.716 E33.26562
G1 X132.4 Y129.323 E33.30078
G1 X133.199 Y128.924 E33.34534
G1 X133.52 Y128.797 E33.36256
G1 X134.419 Y128.466 E33.41036
G1 X135.092 Y128.26 E33.44547
G1 X135.946 Y128.115 E33.48869
G1 X136.267 Y128.083 E33.50478
G1 X136.985 Y128.053 E33.54063
G1 X141.266 Y128.058 E33.75421
G1 X162.939 Y128.057 E34.83549
G1 X163.006 Y128.055 E34.83883
G1 X163.71 Y128.074 E34.87396
G1 X164.443 Y128.179 E34.91091
G1 X164.977 Y128.289 E34.93811
G1 X164.976 Y128.294 E34.93836
G1 X165.269 Y128.348 E34.95323
G1 X165.942 Y128.554 E34.98834
G1 X166.307 Y128.702 E35.00799
G1 X166.892 Y128.961 E35.03991
G1 X167.249 Y129.133 E35.05968
G1 X167.857 Y129.487 E35.09478
G1 X168.31 Y129.817 E35.12274
G1 X168.812 Y130.219 E35.15483
G1 X169.388 Y130.743 E35.19367
G1 X169.452 Y130.809 E35.19826
G1 X169.801 Y131.2 E35.22441
G1 X170.106 Y131.573 E35.24845
G1 X170.52 Y132.143 E35.28359
G1 X170.703 Y132.447 E35.3013
G1 X170.876 Y132.753 E35.31883
G1 X171.187 Y133.384 E35.35393
G1 X171.324 Y133.738 E35.37287
G1 X171.505 Y134.25 E35.39996
G1 X171.702 Y134.926 E35.43509
G1 X171.779 Y135.314 E35.45482
G1 X171.807 Y135.485 E35.46347
G1 X171.851 Y135.815 E35.48008
G1 X171.904 Y136.301 E35.50447
G1 X171.896 Y136.302 E35.50487
G1 X171.936 Y136.648 E35.52225
G1 X171.946 Y137.002 E35.53992
G1 X171.946 Y163.113 E36.8426
G1 X171.943 Y163.277 E36.85078
G1 X171.893 Y163.959 E36.8849
G1 X171.851 Y164.284 E36.90125
G1 X171.844 Y164.283 E36.9016
G1 X171.809 Y164.592 E36.91712
G1 X171.617 Y165.39 E36.95806
G1 X171.474 Y165.848 E36.982
G1 X171.255 Y166.442 E37.01359
G1 X171.225 Y166.512 E37.01739
G1 X170.927 Y167.114 E37.0509
