;FLAVOR:Marlin
;TIME:1435
;Filament used: 0.76253m
;Layer height: 0.2
;MINX:133.573
;MINY:136.503
;MINZ:0.3
;MAXX:166.427
;MAXY:169.532
;MAXZ:16.1
;Generated with Cura_SteamEngine 4.13.1
M140 S60
M105
M190 S60
M104 S200
M105
M109 S200
M82 ;absolute extrusion mode
G28 ;Home
G1 Z15.0 F2000 ;Move the platform
G92 E0
G92 E0
G1 F1500 E-6.5
;LAYER_COUNT:80
;LAYER:0
M107
M204 S1000
G0 F7500 X137.466 Y141.669 Z0.3
;TYPE:SKIRT
G1 F1500 E0
G1 X138.061 Y141.149 E0.03942
G1 X138.704 Y140.692 E0.07878
G1 X139.391 Y140.302 E0.11819
G1 X140.114 Y139.984 E0.1576
G1 X140.865 Y139.741 E0.19698
G1 X141.637 Y139.574 E0.23638
G1 X142.422 Y139.487 E0.27579
G1 X142.892 Y139.473 E0.29925
G1 X151.411 Y139.474 E0.72426
G1 X154.067 Y139.486 E0.85677
G1 X154.78 Y139.474 E0.89235
G1 X157.107 Y139.473 E1.00844
G1 X157.895 Y139.513 E1.04781
G1 X158.676 Y139.632 E1.08722
G1 X159.441 Y139.829 E1.12663
G1 X160.181 Y140.103 E1.166
G1 X160.89 Y140.45 E1.20538
G1 X161.561 Y140.868 E1.24482
G1 X162.186 Y141.35 E1.2842
G1 X162.759 Y141.894 E1.32362
G1 X162.846 Y141.996 E1.33031
G1 X164.056 Y143.168 E1.41435
G1 X164.594 Y143.746 E1.45374
G1 X165.071 Y144.375 E1.49313
G1 X165.483 Y145.049 E1.53254
G1 X165.824 Y145.761 E1.57192
G1 X166.091 Y146.504 E1.61131
G1 X166.282 Y147.27 E1.6507
G1 X166.394 Y148.052 E1.69011
G1 X166.427 Y148.769 E1.72592
G1 X166.427 Y151.942 E1.88422
G1 X166.42 Y152.08 E1.89111
G1 X166.42 Y161.731 E2.3726
G1 X166.38 Y162.52 E2.41202
G1 X166.261 Y163.3 E2.45138
G1 X166.063 Y164.065 E2.49081
G1 X165.789 Y164.805 E2.53018
G1 X165.441 Y165.514 E2.56958
G1 X165.023 Y166.185 E2.60902
G1 X164.54 Y166.809 E2.64839
G1 X163.997 Y167.382 E2.68777
G1 X163.398 Y167.897 E2.72718
G1 X162.75 Y168.348 E2.76657
G1 X162.059 Y168.732 E2.80601
G1 X161.334 Y169.044 E2.84539
G1 X160.581 Y169.281 E2.88477
G1 X159.807 Y169.44 E2.92419
G1 X159.022 Y169.521 E2.96356
G1 X158.622 Y169.531 E2.98353
G1 X155.261 Y169.532 E3.15121
G1 X154.473 Y169.492 E3.19057
G1 X153.692 Y169.373 E3.22999
G1 X152.927 Y169.175 E3.26941
G1 X152.187 Y168.901 E3.30878
G1 X151.478 Y168.554 E3.34816
G1 X150.807 Y168.137 E3.38757
G1 X150.182 Y167.654 E3.42698
G1 X149.998 Y167.479 E3.43965
G1 X149.511 Y167.897 E3.47167
G1 X148.863 Y168.348 E3.51106
G1 X148.172 Y168.732 E3.5505
G1 X147.447 Y169.044 E3.58987
G1 X146.694 Y169.281 E3.62926
G1 X145.92 Y169.44 E3.66868
G1 X145.135 Y169.521 E3.70805
G1 X144.735 Y169.531 E3.72801
G1 X141.375 Y169.532 E3.89564
G1 X140.587 Y169.492 E3.93501
G1 X139.806 Y169.373 E3.97442
G1 X139.041 Y169.175 E4.01385
G1 X138.301 Y168.901 E4.05321
G1 X137.592 Y168.554 E4.0926
G1 X136.921 Y168.137 E4.13201
G1 X136.296 Y167.654 E4.17142
G1 X135.724 Y167.11 E4.2108
G1 X135.209 Y166.511 E4.25021
G1 X134.757 Y165.864 E4.28959
G1 X134.373 Y165.174 E4.32898
G1 X134.061 Y164.448 E4.36841
G1 X133.824 Y163.695 E4.40779
G1 X133.664 Y162.922 E4.44717
G1 X133.583 Y162.136 E4.48659
G1 X133.573 Y161.732 E4.50676
G1 X133.573 Y154.103 E4.88737
G1 X133.592 Y153.728 E4.9061
G1 X133.592 Y148.724 E5.15575
G1 X133.632 Y147.935 E5.19517
G1 X133.751 Y147.155 E5.23453
G1 X133.949 Y146.39 E5.27395
G1 X134.223 Y145.65 E5.31332
G1 X134.571 Y144.941 E5.35273
G1 X134.989 Y144.27 E5.39217
G1 X135.472 Y143.646 E5.43153
G1 X135.967 Y143.12 E5.46757
G1 X137.466 Y141.669 E5.57165
G0 F7500 X137.744 Y141.956
G1 F1500 X138.324 Y141.45 E5.61005
G1 X138.953 Y141.008 E5.64841
G1 X139.625 Y140.633 E5.6868
G1 X140.331 Y140.33 E5.72513
G1 X141.066 Y140.102 E5.76352
G1 X141.82 Y139.951 E5.80189
G1 X142.892 Y139.873 E5.85551
G1 X151.409 Y139.874 E6.28042
G1 X154.072 Y139.886 E6.41328
G1 X154.78 Y139.874 E6.44861
G1 X157.107 Y139.873 E6.56471
G1 X157.875 Y139.913 E6.60307
G1 X158.635 Y140.032 E6.64145
G1 X159.378 Y140.229 E6.6798
G1 X160.097 Y140.503 E6.71819
G1 X160.784 Y140.849 E6.75656
G1 X161.431 Y141.265 E6.79494
G1 X162.031 Y141.746 E6.83331
G1 X162.578 Y142.287 E6.87169
G1 X162.602 Y142.316 E6.87357
G1 X163.777 Y143.455 E6.95521
G1 X164.301 Y144.019 E6.99362
G1 X164.763 Y144.633 E7.03195
G1 X165.159 Y145.292 E7.07031
G1 X165.485 Y145.989 E7.1087
G1 X165.737 Y146.716 E7.14709
G1 X165.911 Y147.465 E7.18545
G1 X166.007 Y148.228 E7.22382
G1 X166.027 Y148.769 E7.25082
G1 X166.027 Y151.942 E7.40913
G1 X166.02 Y152.076 E7.41582
G1 X166.02 Y161.731 E7.89751
G1 X165.98 Y162.499 E7.93588
G1 X165.861 Y163.259 E7.97426
G1 X165.663 Y164.002 E8.01262
G1 X165.389 Y164.721 E8.05101
G1 X165.042 Y165.407 E8.08936
G1 X164.626 Y166.054 E8.12774
G1 X164.145 Y166.654 E8.1661
G1 X163.604 Y167.201 E8.20448
G1 X163.009 Y167.689 E8.24288
G1 X162.367 Y168.112 E8.28123
G1 X161.684 Y168.467 E8.31963
G1 X160.969 Y168.748 E8.35796
G1 X160.227 Y168.954 E8.39638
G1 X159.469 Y169.082 E8.43473
G1 X158.622 Y169.131 E8.47706
G1 X155.261 Y169.132 E8.64474
G1 X154.493 Y169.092 E8.68311
G1 X153.733 Y168.973 E8.72149
G1 X152.99 Y168.776 E8.75984
G1 X152.271 Y168.502 E8.79822
G1 X151.584 Y168.155 E8.83662
G1 X150.938 Y167.739 E8.87496
G1 X150.337 Y167.258 E8.91336
G1 X149.995 Y166.92 E8.93735
G1 X149.717 Y167.201 E8.95707
G1 X149.122 Y167.689 E8.99546
G1 X148.48 Y168.112 E9.03382
G1 X147.797 Y168.467 E9.07222
G1 X147.082 Y168.748 E9.11055
G1 X146.34 Y168.954 E9.14897
G1 X145.582 Y169.082 E9.18732
G1 X144.735 Y169.131 E9.22965
G1 X141.375 Y169.132 E9.39728
G1 X140.607 Y169.092 E9.43565
G1 X139.847 Y168.973 E9.47403
G1 X139.104 Y168.776 E9.51238
G1 X138.385 Y168.502 E9.55076
G1 X137.698 Y168.155 E9.58916
G1 X137.052 Y167.739 E9.62749
G1 X136.451 Y167.258 E9.6659
G1 X135.904 Y166.717 E9.70428
G1 X135.416 Y166.123 E9.74264
G1 X134.993 Y165.481 E9.78099
G1 X134.638 Y164.798 E9.81939
G1 X134.356 Y164.083 E9.85774
G1 X134.15 Y163.342 E9.89611
G1 X134.022 Y162.583 E9.93451
G1 X133.973 Y161.732 E9.97704
G1 X133.973 Y154.103 E10.35765
G1 X133.992 Y153.738 E10.37589
G1 X133.992 Y148.724 E10.62604
G1 X134.032 Y147.956 E10.6644
G1 X134.151 Y147.196 E10.70278
G1 X134.349 Y146.453 E10.74114
G1 X134.623 Y145.734 E10.77953
G1 X134.97 Y145.048 E10.81789
G1 X135.386 Y144.401 E10.85626
G1 X135.867 Y143.801 E10.89463
G1 X136.245 Y143.407 E10.92187
G1 X137.744 Y141.956 E11.02595
G0 F7500 X138.022 Y142.243
G1 F1500 X138.587 Y141.753 E11.06326
G1 X139.201 Y141.325 E11.1006
G1 X139.856 Y140.965 E11.13789
G1 X140.547 Y140.677 E11.17524
G1 X141.264 Y140.465 E11.21254
G1 X142 Y140.33 E11.24987
G1 X142.892 Y140.273 E11.29447
G1 X151.407 Y140.274 E11.71928
G1 X154.078 Y140.286 E11.85254
G1 X154.78 Y140.274 E11.88757
G1 X157.107 Y140.273 E12.00366
G1 X157.854 Y140.313 E12.04098
G1 X158.593 Y140.432 E12.07833
G1 X159.314 Y140.629 E12.11562
G1 X160.011 Y140.902 E12.15296
G1 X160.674 Y141.248 E12.19027
G1 X161.296 Y141.663 E12.22758
G1 X161.871 Y142.142 E12.26491
G1 X162.231 Y142.513 E12.2907
G1 X163.499 Y143.742 E12.3788
G1 X164.007 Y144.291 E12.41612
G1 X164.454 Y144.891 E12.45345
G1 X164.835 Y145.535 E12.49078
G1 X165.145 Y146.216 E12.52811
G1 X165.38 Y146.926 E12.56542
G1 X165.538 Y147.657 E12.60273
G1 X165.627 Y148.769 E12.65839
G1 X165.627 Y151.942 E12.81669
G1 X165.62 Y152.073 E12.82323
G1 X165.62 Y161.731 E13.30507
G1 X165.58 Y162.478 E13.3424
G1 X165.461 Y163.216 E13.37969
G1 X165.263 Y163.938 E13.41704
G1 X164.99 Y164.634 E13.45434
G1 X164.643 Y165.297 E13.49167
G1 X164.228 Y165.92 E13.52902
G1 X163.749 Y166.494 E13.56632
G1 X163.212 Y167.015 E13.60365
G1 X162.622 Y167.474 E13.64094
G1 X161.986 Y167.869 E13.67829
G1 X161.312 Y168.193 E13.7156
G1 X160.607 Y168.443 E13.75292
G1 X159.879 Y168.617 E13.79026
G1 X159.137 Y168.712 E13.82758
G1 X158.622 Y168.731 E13.85329
G1 X155.261 Y168.732 E14.02098
G1 X154.514 Y168.692 E14.0583
G1 X153.776 Y168.573 E14.09559
G1 X153.054 Y168.376 E14.13293
G1 X152.358 Y168.102 E14.17025
G1 X151.694 Y167.756 E14.2076
G1 X151.072 Y167.342 E14.24488
G1 X150.497 Y166.863 E14.28222
G1 X149.991 Y166.339 E14.31856
G1 X149.862 Y166.494 E14.32862
G1 X149.325 Y167.015 E14.36595
G1 X148.735 Y167.474 E14.40324
G1 X148.099 Y167.869 E14.44059
G1 X147.425 Y168.193 E14.4779
G1 X146.72 Y168.443 E14.51522
G1 X145.992 Y168.617 E14.55256
G1 X145.25 Y168.712 E14.58988
G1 X144.735 Y168.731 E14.61559
G1 X141.375 Y168.732 E14.78322
G1 X140.628 Y168.692 E14.82055
G1 X139.89 Y168.573 E14.85784
G1 X139.168 Y168.376 E14.89518
G1 X138.472 Y168.102 E14.9325
G1 X137.808 Y167.756 E14.96985
G1 X137.186 Y167.342 E15.00713
G1 X136.611 Y166.863 E15.04446
G1 X136.091 Y166.325 E15.08179
G1 X135.631 Y165.735 E15.11912
G1 X135.236 Y165.1 E15.15643
G1 X134.912 Y164.426 E15.19374
G1 X134.661 Y163.721 E15.23107
G1 X134.488 Y162.993 E15.2684
G1 X134.392 Y162.251 E15.30573
G1 X134.373 Y161.732 E15.33164
G1 X134.373 Y154.103 E15.71225
G1 X134.392 Y153.748 E15.72999
G1 X134.392 Y148.724 E15.98064
G1 X134.432 Y147.977 E16.01796
G1 X134.551 Y147.239 E16.05525
G1 X134.749 Y146.517 E16.0926
G1 X135.022 Y145.821 E16.1299
G1 X135.369 Y145.158 E16.16724
G1 X135.784 Y144.535 E16.20458
G1 X136.523 Y143.694 E16.26044
G1 X138.022 Y142.243 E16.36452
G0 F7500 X138.301 Y142.531
G1 F1500 X138.85 Y142.055 E16.40077
G1 X139.447 Y141.643 E16.43696
G1 X140.087 Y141.298 E16.47323
G1 X140.761 Y141.026 E16.5095
G1 X141.46 Y140.83 E16.54571
G1 X142.177 Y140.712 E16.58197
G1 X142.892 Y140.673 E16.61769
G1 X151.406 Y140.674 E17.04246
G1 X154.084 Y140.686 E17.17606
G1 X154.78 Y140.674 E17.21079
G1 X157.107 Y140.673 E17.32689
G1 X157.832 Y140.713 E17.36311
G1 X158.549 Y140.832 E17.39937
G1 X159.248 Y141.029 E17.4356
G1 X159.921 Y141.302 E17.47184
G1 X160.56 Y141.647 E17.50807
G1 X161.158 Y142.06 E17.54433
G1 X161.706 Y142.536 E17.58054
G1 X161.94 Y142.789 E17.59773
G1 X163.22 Y144.03 E17.68668
G1 X163.713 Y144.563 E17.7229
G1 X164.145 Y145.148 E17.75918
G1 X164.509 Y145.776 E17.7954
G1 X164.803 Y146.44 E17.83162
G1 X165.021 Y147.133 E17.86787
G1 X165.162 Y147.846 E17.90413
G1 X165.227 Y148.769 E17.95029
G1 X165.227 Y151.942 E18.10859
G1 X165.22 Y152.069 E18.11494
G1 X165.22 Y161.731 E18.59698
G1 X165.18 Y162.456 E18.6332
G1 X165.061 Y163.173 E18.66946
G1 X164.863 Y163.872 E18.70571
G1 X164.59 Y164.545 E18.74194
G1 X164.245 Y165.184 E18.77817
G1 X163.831 Y165.781 E18.81442
G1 X163.355 Y166.329 E18.85063
G1 X162.821 Y166.822 E18.88689
G1 X162.236 Y167.252 E18.92311
G1 X161.607 Y167.616 E18.95937
G1 X160.942 Y167.909 E18.99562
G1 X160.249 Y168.127 E19.03187
G1 X159.537 Y168.267 E19.06807
G1 X158.622 Y168.331 E19.11383
G1 X155.261 Y168.332 E19.28151
G1 X154.536 Y168.292 E19.31774
G1 X153.819 Y168.173 E19.354
G1 X153.12 Y167.976 E19.39023
G1 X152.447 Y167.703 E19.42646
G1 X151.808 Y167.358 E19.46269
G1 X151.211 Y166.944 E19.49894
G1 X150.662 Y166.468 E19.53519
G1 X150.17 Y165.934 E19.57141
G1 X149.999 Y165.702 E19.58579
G1 X149.944 Y165.781 E19.5906
G1 X149.468 Y166.329 E19.62681
G1 X148.934 Y166.822 E19.66307
G1 X148.349 Y167.252 E19.69929
G1 X147.72 Y167.616 E19.73555
G1 X147.055 Y167.909 E19.7718
G1 X146.362 Y168.127 E19.80805
G1 X145.65 Y168.267 E19.84425
G1 X144.735 Y168.331 E19.89001
G1 X141.375 Y168.332 E20.05764
G1 X140.65 Y168.292 E20.09387
G1 X139.933 Y168.173 E20.13013
G1 X139.234 Y167.976 E20.16636
G1 X138.561 Y167.703 E20.20259
G1 X137.922 Y167.358 E20.23882
G1 X137.325 Y166.944 E20.27507
G1 X136.776 Y166.468 E20.31132
G1 X136.284 Y165.934 E20.34754
G1 X135.853 Y165.35 E20.38375
G1 X135.489 Y164.721 E20.42001
G1 X135.196 Y164.056 E20.45627
G1 X134.978 Y163.363 E20.49251
G1 X134.837 Y162.651 E20.52872
G1 X134.773 Y161.732 E20.57468
G1 X134.773 Y154.103 E20.95529
G1 X134.792 Y153.759 E20.97248
G1 X134.792 Y148.724 E21.22368
G1 X134.832 Y147.999 E21.2599
G1 X134.951 Y147.282 E21.29617
G1 X135.149 Y146.583 E21.33241
G1 X135.422 Y145.91 E21.36864
G1 X135.767 Y145.271 E21.40487
G1 X136.181 Y144.674 E21.44112
G1 X136.802 Y143.982 E21.48751
G1 X138.301 Y142.531 E21.59159
G0 F7500 X138.579 Y142.818
G1 F1500 X139.112 Y142.358 E21.62671
G1 X139.693 Y141.961 E21.66182
G1 X140.316 Y141.633 E21.69695
G1 X140.972 Y141.377 E21.73208
G1 X141.653 Y141.198 E21.76721
G1 X142.349 Y141.097 E21.8023
G1 X142.892 Y141.073 E21.82941
G1 X151.404 Y141.074 E22.25408
G1 X154.09 Y141.086 E22.38808
G1 X154.78 Y141.074 E22.42251
G1 X157.107 Y141.073 E22.53861
G1 X157.81 Y141.113 E22.57374
G1 X158.504 Y141.232 E22.60887
G1 X159.18 Y141.429 E22.644
G1 X159.829 Y141.701 E22.6791
G1 X160.443 Y142.045 E22.71422
G1 X161.014 Y142.457 E22.74934
G1 X161.535 Y142.93 E22.78445
G1 X161.67 Y143.084 E22.79467
G1 X162.942 Y144.317 E22.88305
G1 X163.419 Y144.835 E22.91818
G1 X163.834 Y145.403 E22.95328
G1 X164.182 Y146.015 E22.9884
G1 X164.458 Y146.663 E23.02354
G1 X164.659 Y147.337 E23.05863
G1 X164.783 Y148.031 E23.0938
G1 X164.827 Y148.769 E23.13069
G1 X164.827 Y151.942 E23.28899
G1 X164.82 Y152.065 E23.29513
G1 X164.82 Y161.731 E23.77737
G1 X164.78 Y162.434 E23.8125
G1 X164.661 Y163.128 E23.84763
G1 X164.463 Y163.803 E23.88273
G1 X164.191 Y164.452 E23.91783
G1 X163.846 Y165.066 E23.95297
G1 X163.435 Y165.637 E23.98807
G1 X162.961 Y166.158 E24.02321
G1 X162.431 Y166.622 E24.05835
G1 X161.852 Y167.022 E24.09346
G1 X161.231 Y167.354 E24.12859
G1 X160.577 Y167.614 E24.16371
G1 X159.897 Y167.798 E24.19885
G1 X159.201 Y167.904 E24.23398
G1 X158.622 Y167.931 E24.26289
G1 X155.261 Y167.932 E24.43057
G1 X154.558 Y167.892 E24.4657
G1 X153.864 Y167.773 E24.50083
G1 X153.188 Y167.576 E24.53596
G1 X152.539 Y167.304 E24.57107
G1 X151.925 Y166.959 E24.60621
G1 X151.354 Y166.548 E24.64131
G1 X150.833 Y166.074 E24.67645
G1 X150.37 Y165.544 E24.71156
G1 X149.995 Y165.002 E24.74444
G1 X149.959 Y165.066 E24.7481
G1 X149.548 Y165.637 E24.7832
G1 X149.074 Y166.158 E24.81834
G1 X148.544 Y166.622 E24.85349
G1 X147.965 Y167.022 E24.88859
G1 X147.344 Y167.354 E24.92373
G1 X146.69 Y167.614 E24.95884
G1 X146.01 Y167.798 E24.99398
G1 X145.314 Y167.904 E25.02911
G1 X144.735 Y167.931 E25.05803
G1 X141.375 Y167.932 E25.22566
G1 X140.672 Y167.892 E25.26079
G1 X139.978 Y167.773 E25.29592
G1 X139.302 Y167.576 E25.33104
G1 X138.653 Y167.304 E25.36615
G1 X138.039 Y166.959 E25.40129
G1 X137.468 Y166.548 E25.43639
G1 X136.947 Y166.074 E25.47153
G1 X136.484 Y165.544 E25.50664
G1 X136.083 Y164.965 E25.54178
G1 X135.75 Y164.345 E25.57689
G1 X135.49 Y163.691 E25.612
G1 X135.306 Y163.011 E25.64715
G1 X135.2 Y162.315 E25.68227
G1 X135.173 Y161.732 E25.71139
G1 X135.173 Y154.103 E26.092
G1 X135.192 Y153.769 E26.10869
G1 X135.192 Y148.724 E26.36038
G1 X135.232 Y148.021 E26.39551
G1 X135.351 Y147.327 E26.43064
G1 X135.549 Y146.652 E26.46574
G1 X135.821 Y146.003 E26.50085
G1 X136.166 Y145.389 E26.53598
G1 X136.577 Y144.818 E26.57108
G1 X137.08 Y144.269 E26.60823
G1 X138.579 Y142.818 E26.71231
G0 F7500 X138.857 Y143.106
G1 F1500 X139.373 Y142.662 E26.74627
G1 X139.938 Y142.281 E26.78027
G1 X140.543 Y141.969 E26.81423
G1 X141.181 Y141.731 E26.84821
G1 X141.842 Y141.569 E26.88216
G1 X142.518 Y141.485 E26.91614
G1 X142.892 Y141.473 E26.93481
G1 X151.402 Y141.474 E27.35938
G1 X154.095 Y141.486 E27.49373
G1 X154.781 Y141.474 E27.52796
G1 X157.108 Y141.473 E27.64406
G1 X157.787 Y141.513 E27.67799
G1 X158.458 Y141.632 E27.71199
G1 X159.109 Y141.829 E27.74592
G1 X159.734 Y142.1 E27.77991
G1 X160.322 Y142.443 E27.81387
G1 X160.866 Y142.853 E27.84786
G1 X161.358 Y143.324 E27.88184
G1 X161.416 Y143.395 E27.88641
G1 X162.664 Y144.604 E27.9731
G1 X163.124 Y145.106 E28.00707
G1 X163.522 Y145.658 E28.04102
G1 X163.853 Y146.253 E28.07499
G1 X164.112 Y146.883 E28.10897
G1 X164.295 Y147.539 E28.14295
G1 X164.4 Y148.211 E28.17688
G1 X164.427 Y148.769 E28.20476
G1 X164.427 Y151.942 E28.36306
G1 X164.42 Y152.061 E28.369
G1 X164.42 Y161.731 E28.85144
G1 X164.38 Y162.411 E28.88543
G1 X164.261 Y163.081 E28.91938
G1 X164.064 Y163.733 E28.95336
G1 X163.792 Y164.357 E28.98732
G1 X163.448 Y164.945 E29.0213
G1 X163.038 Y165.489 E29.05529
G1 X162.567 Y165.98 E29.08923
G1 X162.042 Y166.414 E29.12322
G1 X161.47 Y166.783 E29.15718
G1 X160.858 Y167.082 E29.19116
G1 X160.216 Y167.307 E29.2251
G1 X159.551 Y167.456 E29.2591
G1 X158.622 Y167.531 E29.3056
G1 X155.261 Y167.532 E29.47328
G1 X154.581 Y167.492 E29.50726
G1 X153.911 Y167.373 E29.54121
G1 X153.259 Y167.176 E29.57519
G1 X152.635 Y166.904 E29.60915
G1 X152.047 Y166.561 E29.64312
G1 X151.503 Y166.151 E29.6771
G1 X151.011 Y165.681 E29.71105
