; generated by PrusaSlicer 2.5.0+win64 on 2022-10-10 at 08:29:25 UTC


;
;
; 

; external perimeters extrusion width = 0.45mm
; perimeters extrusion width = 0.45mm
; infill extrusion width = 0.45mm
; solid infill extrusion width = 0.45mm
; top infill extrusion width = 0.40mm
; first layer extrusion width = 0.42mm

M73 P0 R35
M73 Q0 S35
M201 X1000 Y1000 Z200 E5000 ; sets maximum accelerations, mm/sec^2
M203 X200 Y200 Z12 E120 ; sets maximum feedrates, mm / sec
M204 P1250 R1250 T1250 ; sets acceleration (P, T) and retract acceleration (R), mm/sec^2
M205 X8.00 Y8.00 Z0.40 E4.50 ; sets the jerk limits, mm/sec
M205 S0 T0 ; sets the minimum extruding and travel feed rate, mm/sec
M107
;TYPE:Custom
M862.3 P "MK3S" ; printer model check
M862.1 P0.4 ; nozzle diameter check
M115 U3.11.0 ; tell printer latest fw version
G90 ; use absolute coordinates
M83 ; extruder relative mode
M104 S215 ; set extruder temp
M140 S60 ; set bed temp
M190 S60 ; wait for bed temp
M109 S215 ; wait for extruder temp
G28 W ; home all without mesh bed level
G80 ; mesh bed leveling

G1 Z0.2 F720
G1 Y-3 F1000 ; go outside print area
G92 E0
G1 X60 E9 F1000 ; intro line
G1 X100 E12.5 F1000 ; intro line

G92 E0
M221 S95

; Don't change E values below. Excessive value can damage the printer.
M907 E430 ; set extruder motor current
G21 ; set units to millimeters
G90 ; use absolute coordinates
M83 ; use relative distances for extrusion
M900 K0.05 ; Filament gcode LA 1.5
M900 K30 ; Filament gcode LA 1.0
M107
;LAYER_CHANGE
;Z:0.2
;HEIGHT:0.2
;BEFORE_LAYER_CHANGE
G92 E0.0
;0.2


G1 E-.8 F2100
G1 Z.4 F720
;AFTER_LAYER_CHANGE
;0.2
G1 X104.375 Y90.473 F10800
G1 Z.2 F720
G1 E.8 F2100
M204 S800
;TYPE:Skirt/Brim
;WIDTH:0.42
G1 F1200
G1 X105.13 Y89.656 E.03491
G1 X117.42 Y78.355 E.52348
G1 X118.631 Y77.398 E.04837
G1 X119.69 Y76.732 E.03925
G1 X120.293 Y76.463 E.02069
G1 X121.668 Y76.069 E.04483
G1 X122.321 Y75.977 E.02069
G1 X127.597 Y75.972 E.16543
G1 X128.2 Y76.05 E.01906
G1 X129.472 Y76.382 E.04122
G1 X130.036 Y76.609 E.01906
G1 X131.455 Y77.46 E.0519
G1 X132.743 Y78.506 E.05201
G1 X144.98 Y89.763 E.52133
G1 X145.816 Y90.712 E.03968
G1 X146.445 Y91.631 E.03491
G1 X147.215 Y93.196 E.05467
G1 X147.628 Y94.552 E.04444
G1 X147.887 Y96.553 E.06326
G1 X147.887 Y122.947 E.82758
G1 X147.734 Y124.4 E.04579
G1 X147.267 Y126.161 E.05714
G1 X146.685 Y127.453 E.04445
G1 X146.012 Y128.525 E.03968
G1 X145.208 Y129.502 E.03968
G1 X144.285 Y130.369 E.03968
G1 X143.259 Y131.11 E.03968
G1 X142.147 Y131.714 E.03968
G1 X140.967 Y132.17 E.03968
G1 X139.415 Y132.525 E.04991
G1 X138.371 Y132.634 E.03292
G1 X111.976 Y132.643 E.82759
G1 X110.112 Y132.443 E.05878
G1 X108.743 Y132.074 E.04445
G1 X107.577 Y131.581 E.03968
G1 X106.484 Y130.943 E.03968
G1 X105.24 Y129.95 E.04991
G1 X104.375 Y129.027 E.03968
G1 X103.635 Y128 E.03968
G1 X103.032 Y126.887 E.03968
G1 X102.576 Y125.707 E.03968
G1 X102.256 Y124.363 E.0433
G1 X102.106 Y122.534 E.05753
G1 X102.107 Y96.918 E.80318
G1 X102.256 Y95.137 E.05605
G1 X102.679 Y93.483 E.05353
G1 X103.032 Y92.613 E.02944
G1 X103.635 Y91.5 E.03968
G1 X104.34 Y90.522 E.0378
M204 S1000
;WIPE_START
G1 F8640
G1 X105.13 Y89.656 E-.27085
G1 X106.69 Y88.222 E-.48915
;WIPE_END
G1 E-.04 F2100
G1 Z.6 F720
G1 X106.468 Y92.132 F10800
G1 Z.2 F720
G1 E.8 F2100
M204 S800
G1 F1200
G1 X107.133 Y91.428 E.03038
G1 X107.928 Y90.798 E.0318
G1 X108.677 Y90.35 E.02737
G1 X109.465 Y89.999 E.02706
G1 X110.401 Y89.719 E.03062
G1 X111.774 Y89.526 E.04347
G1 X116.802 Y89.527 E.15765
G1 X116.538 Y88.524 E.03252
G1 X116.403 Y87.663 E.02732
G1 X116.355 Y86.716 E.02972
G1 X116.402 Y85.845 E.02737
G1 X116.537 Y84.983 E.02736
G1 X116.799 Y84.015 E.03144
G1 X117.119 Y83.195 E.02761
G1 X117.521 Y82.413 E.02755
G1 X118.067 Y81.585 E.03109
G1 X118.659 Y80.873 E.02904
G1 X119.334 Y80.22 E.02945
G1 X120.118 Y79.611 E.03113
G1 X121.387 Y78.928 E.04518
G1 X122.649 Y78.65 E.04051
G1 X127.342 Y78.649 E.14714
G1 X128.901 Y79.044 E.05042
G1 X129.709 Y79.496 E.02905
G1 X130.394 Y79.994 E.02655
G1 X131.067 Y80.591 E.02818
G1 X131.684 Y81.267 E.02872
G1 X132.225 Y82.002 E.0286
G1 X132.674 Y82.768 E.02786
G1 X133.04 Y83.572 E.02768
G1 X133.338 Y84.464 E.02951
G1 X133.534 Y85.366 E.02892
G1 X133.632 Y86.27 E.02851
G1 X133.63 Y87.262 E.03112
G1 X133.517 Y88.235 E.03069
G1 X133.324 Y89.085 E.02734
G1 X133.178 Y89.529 E.01465
G1 X138.193 Y89.532 E.15725
G1 X139.265 Y89.651 E.03381
G1 X140.111 Y89.855 E.02728
G1 X140.914 Y90.154 E.02687
G1 X141.75 Y90.591 E.02959
G1 X142.502 Y91.117 E.02877
G1 X143.157 Y91.709 E.02769
G1 X143.862 Y92.549 E.03438
G1 X144.335 Y93.305 E.02795
G1 X144.722 Y94.142 E.0289
G1 X145.047 Y95.222 E.03539
G1 X145.217 Y96.435 E.03839
G1 X145.222 Y123 E.83292
G1 X145.052 Y124.254 E.03969
G1 X144.721 Y125.362 E.03626
G1 X144.295 Y126.267 E.03135
G1 X143.739 Y127.117 E.03184
G1 X143.127 Y127.82 E.02922
G1 X142.353 Y128.5 E.0323
G1 X141.616 Y128.99 E.02776
G1 X140.914 Y129.346 E.02469
G1 X140.193 Y129.62 E.02416
G1 X139.276 Y129.847 E.02964
G1 X138.327 Y129.961 E.02996
G1 X111.788 Y129.974 E.8321
M73 Q1 S35
G1 X110.652 Y129.835 E.03588
M73 P1 R35
G1 X109.574 Y129.541 E.03506
G1 X108.481 Y129.045 E.03763
G1 X107.856 Y128.652 E.02314
G1 X107.286 Y128.209 E.02263
G1 X106.548 Y127.47 E.03276
G1 X105.972 Y126.708 E.02994
G1 X105.504 Y125.881 E.02979
G1 X105.147 Y124.994 E.02998
G1 X104.916 Y124.097 E.02906
G1 X104.79 Y123.158 E.0297
G1 X104.776 Y96.576 E.83347
G1 X104.913 Y95.418 E.03655
G1 X105.21 Y94.319 E.03572
G1 X105.551 Y93.523 E.02713
G1 X105.995 Y92.758 E.02774
G1 X106.432 Y92.18 E.02271
M204 S1000
G1 X106.732 Y92.407 F10800
M204 S800
G1 F1200
G1 X106.807 Y92.307 E.00392
G1 X107.396 Y91.7 E.02652
G1 X108.133 Y91.115 E.02951
G1 X108.841 Y90.69 E.0259
G1 X109.608 Y90.348 E.02632
G1 X110.468 Y90.09 E.02816
G1 X111.787 Y89.903 E.04178
G1 X117.37 Y89.904 E.17505
G1 X117.122 Y89.262 E.02159
G1 X116.909 Y88.456 E.02614
G1 X116.777 Y87.614 E.0267
G1 X116.732 Y86.727 E.02787
G1 X116.776 Y85.894 E.02616
G1 X116.908 Y85.051 E.02674
G1 X117.154 Y84.142 E.02951
G1 X117.467 Y83.341 E.02698
G1 X117.852 Y82.595 E.02633
G1 X118.363 Y81.818 E.02916
G1 X118.942 Y81.122 E.02839
G1 X119.589 Y80.498 E.02816
G1 X120.337 Y79.918 E.02967
G1 X121.541 Y79.274 E.04284
G1 X122.708 Y79.023 E.03742
G1 X127.273 Y79.02 E.14314
G1 X128.739 Y79.386 E.04736
G1 X129.516 Y79.82 E.02789
G1 X130.165 Y80.293 E.02519
G1 X130.809 Y80.866 E.02702
G1 X131.399 Y81.514 E.02748
G1 X131.915 Y82.217 E.02735
G1 X132.344 Y82.95 E.02664
G1 X132.686 Y83.701 E.02587
G1 X132.972 Y84.555 E.02824
G1 X133.16 Y85.417 E.02765
G1 X133.256 Y86.3 E.02786
G1 X133.253 Y87.25 E.0298
G1 X133.144 Y88.18 E.02936
G1 X132.959 Y88.992 E.02609
G1 X132.654 Y89.906 E.03022
G1 X138.163 Y89.908 E.17273
G1 X139.189 Y90.02 E.03238
G1 X139.99 Y90.212 E.02582
G1 X140.771 Y90.503 E.02613
G1 X141.545 Y90.907 E.02736
G1 X142.259 Y91.405 E.0273
G1 X142.877 Y91.962 E.02611
G1 X143.55 Y92.761 E.03274
G1 X143.998 Y93.475 E.02643
G1 X144.365 Y94.264 E.02728
G1 X144.676 Y95.29 E.03361
G1 X144.84 Y96.448 E.03669
G1 X144.845 Y122.987 E.8321
G1 X144.681 Y124.188 E.03802
G1 X144.364 Y125.24 E.03443
G1 X143.96 Y126.094 E.02962
G1 X143.431 Y126.899 E.03021
G1 X142.869 Y127.545 E.02685
G1 X142.114 Y128.208 E.03149
G1 X141.417 Y128.669 E.02622
G1 X140.77 Y128.998 E.02275
G1 X140.091 Y129.257 E.02279
G1 X139.218 Y129.474 E.02819
G1 X138.315 Y129.584 E.02852
G1 X111.8 Y129.597 E.83137
G1 X110.713 Y129.462 E.03435
G1 X109.688 Y129.181 E.0333
G1 X108.67 Y128.719 E.03505
G1 X108.08 Y128.348 E.02186
G1 X107.527 Y127.919 E.02195
G1 X106.825 Y127.213 E.03122
G1 X106.281 Y126.491 E.02834
G1 X105.839 Y125.707 E.02823
G1 X105.502 Y124.866 E.02842
G1 X105.284 Y124.015 E.02755
G1 X105.166 Y123.121 E.02826
G1 X105.153 Y96.587 E.83196
G1 X105.286 Y95.477 E.03505
G1 X105.57 Y94.431 E.034
G1 X105.893 Y93.683 E.02553
G1 X106.303 Y92.976 E.02564
G1 X106.696 Y92.455 E.02047
M204 S1000
G1 X106.997 Y92.682 F10800
M204 S800
G1 F1200
G1 X107.101 Y92.544 E.00542
G1 X107.657 Y91.971 E.02502
G1 X108.338 Y91.432 E.02722
G1 X109.025 Y91.019 E.02515
G1 X109.75 Y90.698 E.02485
G1 X110.536 Y90.461 E.02573
G1 X111.801 Y90.28 E.04007
G1 X117.923 Y90.281 E.19195
G1 X117.484 Y89.154 E.03791
G1 X117.28 Y88.387 E.0249
G1 X117.153 Y87.585 E.02546
G1 X117.109 Y86.717 E.02724
G1 X117.152 Y85.924 E.02492
G1 X117.279 Y85.12 E.02551
G1 X117.515 Y84.251 E.02823
G1 X117.814 Y83.488 E.02571
G1 X118.182 Y82.777 E.02511
G1 X118.66 Y82.051 E.02725
G1 X119.212 Y81.386 E.02709
G1 X119.843 Y80.777 E.02751
G1 X120.554 Y80.226 E.0282
G1 X121.694 Y79.619 E.04049
G1 X122.765 Y79.396 E.03431
G1 X127.25 Y79.397 E.14062
G1 X128.577 Y79.727 E.04287
G1 X129.321 Y80.143 E.02673
G1 X129.935 Y80.592 E.02382
G1 X130.537 Y81.127 E.02527
G1 X131.101 Y81.745 E.02624
G1 X131.595 Y82.416 E.02611
G1 X132.005 Y83.116 E.02543
G1 X132.331 Y83.831 E.02464
G1 X132.606 Y84.646 E.02697
G1 X132.79 Y85.487 E.027
G1 X132.88 Y86.33 E.02657
G1 X132.876 Y87.238 E.02847
G1 X132.771 Y88.125 E.02803
G1 X132.593 Y88.898 E.02485
G1 X132.354 Y89.612 E.02362
G1 X132.051 Y90.283 E.02307
G1 X138.132 Y90.284 E.19068
G1 X139.113 Y90.39 E.03093
G1 X139.891 Y90.576 E.02507
G1 X140.628 Y90.852 E.02468
G1 X141.339 Y91.223 E.02516
G1 X142.016 Y91.694 E.02583
G1 X142.598 Y92.216 E.02452
G1 X143.238 Y92.974 E.0311
G1 X143.662 Y93.646 E.02491
G1 X144.008 Y94.387 E.02566
G1 X144.305 Y95.358 E.03182
G1 X144.463 Y96.462 E.03497
G1 X144.467 Y122.974 E.83126
G1 X144.309 Y124.122 E.03633
M73 P1 R34
G1 X144.007 Y125.116 E.03259
G1 X143.626 Y125.92 E.02789
G1 X143.123 Y126.681 E.02858
G1 X142.61 Y127.271 E.02452
G1 X141.895 Y127.901 E.02989
G1 X141.236 Y128.338 E.02478
G1 X140.608 Y128.657 E.02208
G1 X139.968 Y128.9 E.02148
G1 X139.139 Y129.106 E.02676
G1 X138.282 Y129.208 E.02708
G1 X111.812 Y129.22 E.82996
G1 X110.773 Y129.09 E.03281
G1 X109.803 Y128.822 E.03155
G1 X108.86 Y128.393 E.03248
G1 X108.289 Y128.034 E.02116
G1 X107.769 Y127.629 E.02067
G1 X107.102 Y126.957 E.02969
G1 X106.59 Y126.275 E.02672
G1 X106.174 Y125.534 E.02666
G1 X105.856 Y124.738 E.02687
G1 X105.656 Y123.954 E.02536
G1 X105.541 Y123.084 E.02752
G1 X105.53 Y96.598 E.83045
G1 X105.653 Y95.562 E.03271
G1 X105.922 Y94.567 E.03232
G1 X106.225 Y93.862 E.02407
G1 X106.611 Y93.193 E.0242
G1 X106.961 Y92.73 E.01822
M204 S1000
G1 X107.261 Y92.955 F10800
M204 S800
G1 F1200
G1 X107.38 Y92.798 E.00618
G1 X107.919 Y92.243 E.02426
G1 X108.542 Y91.749 E.02493
G1 X109.209 Y91.348 E.02439
G1 X109.892 Y91.047 E.02338
G1 X110.604 Y90.832 E.02333
G1 X111.815 Y90.658 E.03836
G1 X118.566 Y90.658 E.21169
G1 X118.13 Y89.795 E.03033
G1 X117.846 Y89.049 E.02502
G1 X117.647 Y88.3 E.02431
G1 X117.527 Y87.536 E.02423
G1 X117.486 Y86.728 E.02539
G1 X117.526 Y85.973 E.02369
G1 X117.65 Y85.189 E.02488
G1 X117.87 Y84.379 E.02631
G1 X118.154 Y83.652 E.02447
G1 X118.512 Y82.959 E.02448
G1 X118.969 Y82.268 E.02597
G1 X119.495 Y81.635 E.02579
G1 X120.082 Y81.069 E.02558
G1 X120.773 Y80.534 E.0274
G1 X121.799 Y79.982 E.03653
G1 X122.785 Y79.773 E.03161
G1 X127.227 Y79.774 E.13927
G1 X128.415 Y80.069 E.03837
G1 X129.127 Y80.466 E.02557
M73 Q2 S35
G1 X129.704 Y80.891 E.02245
G1 X130.265 Y81.389 E.02354
G1 X130.804 Y81.977 E.02498
G1 X131.285 Y82.631 E.02548
G1 X131.666 Y83.282 E.02362
M73 P2 R34
G1 X131.977 Y83.961 E.02343
G1 X132.24 Y84.737 E.02569
G1 X132.416 Y85.538 E.02572
G1 X132.503 Y86.339 E.02526
G1 X132.5 Y87.205 E.02713
G1 X132.401 Y88.052 E.02674
G1 X132.233 Y88.787 E.02366
G1 X132 Y89.483 E.02302
G1 X131.661 Y90.228 E.02565
G1 X131.407 Y90.66 E.01572
G1 X138.122 Y90.661 E.21055
G1 X139.06 Y90.763 E.0296
G1 X139.77 Y90.933 E.02289
G1 X140.464 Y91.192 E.02322
G1 X141.154 Y91.552 E.0244
G1 X141.79 Y91.996 E.02433
G1 X142.336 Y92.488 E.02303
G1 X142.927 Y93.187 E.0287
G1 X143.326 Y93.817 E.0234
G1 X143.652 Y94.511 E.02404
M73 Q2 S34
G1 X143.934 Y95.427 E.03004
G1 X144.086 Y96.476 E.03324
G1 X144.09 Y122.961 E.83042
G1 X143.938 Y124.055 E.03463
G1 X143.651 Y124.992 E.03074
G1 X143.291 Y125.745 E.02617
G1 X142.83 Y126.443 E.02622
G1 X142.351 Y126.997 E.02296
G1 X141.675 Y127.594 E.02829
G1 X141.055 Y128.007 E.02335
G1 X140.465 Y128.308 E.02078
G1 X139.845 Y128.544 E.02079
G1 X139.061 Y128.737 E.02531
G1 X138.249 Y128.832 E.02564
G1 X111.823 Y128.842 E.82855
G1 X110.834 Y128.718 E.03126
G1 X109.919 Y128.462 E.0298
G1 X109.05 Y128.067 E.02994
G1 X108.513 Y127.731 E.01986
G1 X108.01 Y127.339 E.01998
G1 X107.379 Y126.701 E.02813
G1 X106.9 Y126.06 E.02511
G1 X106.509 Y125.361 E.0251
G1 X106.211 Y124.61 E.02532
G1 X106.029 Y123.894 E.02318
G1 X105.917 Y123.047 E.02679
G1 X105.907 Y96.609 E.82894
G1 X106.021 Y95.646 E.03039
G1 X106.274 Y94.703 E.03064
G1 X106.557 Y94.04 E.0226
G1 X106.919 Y93.41 E.02276
G1 X107.225 Y93.003 E.01597
M204 S1000
G1 X107.527 Y93.23 F10800
M204 S800
G1 F1200
G1 X107.674 Y93.034 E.00768
G1 X108.181 Y92.515 E.02274
G1 X108.748 Y92.066 E.02269
G1 X109.373 Y91.688 E.02291
G1 X110.013 Y91.404 E.02194
G1 X110.673 Y91.203 E.02163
G1 X111.828 Y91.035 E.03662
G1 X119.284 Y91.036 E.23376
G1 X118.804 Y90.292 E.02773
G1 X118.479 Y89.651 E.02254
G1 X118.202 Y88.924 E.0244
G1 X118.018 Y88.231 E.02248
G1 X117.903 Y87.507 E.02298
G1 X117.863 Y86.718 E.02475
G1 X117.902 Y86.003 E.02246
G1 X118.016 Y85.277 E.02304
G1 X118.225 Y84.507 E.02503
G1 X118.501 Y83.799 E.02383
G1 X118.842 Y83.141 E.02323
G1 X119.266 Y82.501 E.02408
G1 X119.765 Y81.899 E.02451
G1 X120.322 Y81.36 E.0243
G1 X120.968 Y80.857 E.02567
G1 X121.906 Y80.345 E.03353
G1 X122.806 Y80.15 E.02885
G1 X127.204 Y80.151 E.13792
G1 X128.253 Y80.411 E.03388
G1 X128.933 Y80.79 E.0244
G1 X129.46 Y81.178 E.02054
G1 X129.994 Y81.652 E.02237
G1 X130.506 Y82.209 E.02373
G1 X130.965 Y82.831 E.02424
G1 X131.327 Y83.448 E.02242
G1 X131.63 Y84.109 E.02281
G1 X131.879 Y84.848 E.02444
G1 X132.042 Y85.59 E.02382
G1 X132.126 Y86.349 E.02396
G1 X132.125 Y87.171 E.02578
G1 X132.027 Y87.997 E.02608
G1 X131.872 Y88.677 E.02184
G1 X131.652 Y89.336 E.0218
G1 X131.322 Y90.062 E.02499
G1 X130.74 Y91.037 E.03561
G1 X138.111 Y91.038 E.23112
G1 X139.007 Y91.137 E.02825
G1 X139.65 Y91.291 E.02073
G1 X140.301 Y91.532 E.02176
G1 X140.948 Y91.868 E.02288
G1 X141.565 Y92.298 E.02356
G1 X142.073 Y92.759 E.02151
G1 X142.615 Y93.4 E.02632
G1 X142.99 Y93.989 E.02191
G1 X143.296 Y94.636 E.02242
G1 X143.563 Y95.496 E.02824
G1 X143.709 Y96.49 E.03148
G1 X143.713 Y122.947 E.82956
G1 X143.567 Y123.987 E.03291
G1 X143.295 Y124.867 E.0289
G1 X142.969 Y125.549 E.02368
G1 X142.536 Y126.206 E.02468
G1 X142.091 Y126.723 E.0214
G1 X141.455 Y127.288 E.02667
G1 X140.873 Y127.677 E.02192
G1 X140.321 Y127.959 E.01945
G1 X139.722 Y128.187 E.02009
G1 X138.983 Y128.367 E.02384
G1 X138.216 Y128.456 E.0242
G1 X111.836 Y128.465 E.82716
G1 X110.896 Y128.345 E.02969
G1 X110.035 Y128.103 E.02805
G1 X109.239 Y127.741 E.02742
G1 X108.721 Y127.416 E.01916
G1 X108.252 Y127.05 E.01867
G1 X107.657 Y126.446 E.02658
G1 X107.21 Y125.845 E.02349
G1 X106.845 Y125.189 E.02354
G1 X106.567 Y124.483 E.02379
G1 X106.401 Y123.833 E.02103
G1 X106.292 Y123.01 E.02605
G1 X106.284 Y96.62 E.82742
G1 X106.394 Y95.705 E.02891
G1 X106.626 Y94.838 E.02815
G1 X106.89 Y94.217 E.02115
G1 X107.228 Y93.627 E.02131
G1 X107.491 Y93.278 E.01371
M204 S1000
G1 X107.792 Y93.504 F10800
M204 S800
G1 F1200
G1 X107.968 Y93.271 E.00917
G1 X108.441 Y92.788 E.02121
G1 X108.953 Y92.382 E.02048
G1 X109.538 Y92.027 E.02143
G1 X110.135 Y91.761 E.0205
G1 X110.742 Y91.574 E.01992
G1 X111.842 Y91.412 E.03486
G1 X120.086 Y91.413 E.25849
G1 X119.535 Y90.729 E.02754
G1 X119.136 Y90.113 E.02302
G1 X118.82 Y89.489 E.02191
G1 X118.564 Y88.818 E.02254
G1 X118.385 Y88.144 E.02186
G1 X118.277 Y87.458 E.02176
G1 X118.24 Y86.729 E.02289
G1 X118.278 Y86.034 E.02184
G1 X118.387 Y85.347 E.02181
G1 X118.58 Y84.634 E.02314
G1 X118.841 Y83.964 E.02256
G1 X119.173 Y83.324 E.0226
G1 X119.563 Y82.733 E.0222
G1 X120.035 Y82.162 E.02323
G1 X120.563 Y81.65 E.02304
G1 X121.165 Y81.179 E.02397
G1 X122.016 Y80.707 E.03052
G1 X122.827 Y80.527 E.02605
G1 X127.182 Y80.528 E.13655
G1 X128.092 Y80.752 E.02941
G1 X128.719 Y81.101 E.02249
G1 X129.217 Y81.466 E.01935
G1 X129.737 Y81.927 E.02178
G1 X130.221 Y82.456 E.02248
