; generated by PrusaSlicer 2.5.0+win64 on 2022-10-10 at 08:29:42 UTC


;
;
; 

; external perimeters extrusion width = 0.45mm
; perimeters extrusion width = 0.45mm
; infill extrusion width = 0.45mm
; solid infill extrusion width = 0.45mm
; top infill extrusion width = 0.40mm
; first layer extrusion width = 0.42mm

M73 P0 R36
M73 Q0 S37
M201 X1000 Y1000 Z200 E5000 ; sets maximum accelerations, mm/sec^2
M203 X200 Y200 Z12 E120 ; sets maximum feedrates, mm / sec
M204 P1250 R1250 T1250 ; sets acceleration (P, T) and retract acceleration (R), mm/sec^2
M205 X8.00 Y8.00 Z0.40 E4.50 ; sets the jerk limits, mm/sec
M205 S0 T0 ; sets the minimum extruding and travel feed rate, mm/sec
M107
;TYPE:Custom
M862.3 P "MK3S" ; printer model check
M862.1 P0.4 ; nozzle diameter check
M115 U3.11.0 ; tell printer latest fw version
G90 ; use absolute coordinates
M83 ; extruder relative mode
M104 S215 ; set extruder temp
M140 S60 ; set bed temp
M190 S60 ; wait for bed temp
M109 S215 ; wait for extruder temp
G28 W ; home all without mesh bed level
G80 ; mesh bed leveling

G1 Z0.2 F720
G1 Y-3 F1000 ; go outside print area
G92 E0
G1 X60 E9 F1000 ; intro line
G1 X100 E12.5 F1000 ; intro line

G92 E0
M221 S95

; Don't change E values below. Excessive value can damage the printer.
M907 E430 ; set extruder motor current
G21 ; set units to millimeters
G90 ; use absolute coordinates
M83 ; use relative distances for extrusion
M900 K0.05 ; Filament gcode LA 1.5
M900 K30 ; Filament gcode LA 1.0
M107
;LAYER_CHANGE
;Z:0.2
;HEIGHT:0.2
;BEFORE_LAYER_CHANGE
G92 E0.0
;0.2


G1 E-.8 F2100
G1 Z.4 F720
;AFTER_LAYER_CHANGE
;0.2
G1 X105.511 Y77.297 F10800
G1 Z.2 F720
G1 E.8 F2100
M204 S800
;TYPE:Skirt/Brim
;WIDTH:0.42
G1 F1200
G1 X113.601 Y67.055 E.40921
G1 X116.773 Y63.86 E.14116
G1 X118.454 Y63.164 E.05704
G1 X131.527 Y63.164 E.40993
G1 X133.208 Y63.86 E.05704
G1 X136.386 Y67.061 E.14143
M73 Q0 S36
G1 X144.494 Y77.403 E.41204
G1 X144.82 Y77.96 E.02023
G1 X145.596 Y79.835 E.06361
G1 X145.777 Y80.744 E.02908
G1 X145.777 Y128.862 E1.50868
G1 X145.596 Y129.771 E.02908
G1 X144.82 Y131.646 E.06361
G1 X144.344 Y132.377 E.02735
G1 X135.344 Y141.812 E.40884
G1 X133.624 Y142.549 E.05867
G1 X116.377 Y142.549 E.54077
G1 X114.657 Y141.813 E.05867
G1 X105.656 Y132.377 E.40886
G1 X105.18 Y131.646 E.02735
G1 X104.404 Y129.771 E.06361
G1 X104.223 Y128.862 E.02908
G1 X104.223 Y80.644 E1.51182
G1 X104.404 Y79.735 E.02908
G1 X105.18 Y77.86 E.06361
G1 X105.481 Y77.348 E.01861
M204 S1000
;WIPE_START
G1 F8640
G1 X107.519 Y74.764 E-.76
;WIPE_END
G1 E-.04 F2100
G1 Z.6 F720
G1 X107.982 Y78.615 F10800
G1 Z.2 F720
G1 E.8 F2100
M204 S800
G1 F1200
G1 X108.028 Y78.523 E.00322
G1 X113.298 Y73.265 E.2334
G1 X114.4 Y72.551 E.04118
G1 X115.78 Y72.113 E.04539
G1 X115.836 Y69.69 E.07598
G1 X116.465 Y68.08 E.0542
G1 X117.102 Y67.293 E.03174
G1 X117.993 Y66.552 E.03631
G1 X118.837 Y66.143 E.02941
G1 X120.148 Y65.827 E.0423
G1 X129.816 Y65.831 E.30314
G1 X131.112 Y66.123 E.04164
G1 X132.167 Y66.676 E.03734
G1 X133.052 Y67.473 E.03735
G1 X133.808 Y68.643 E.04368
G1 X134.194 Y69.971 E.04335
G1 X134.217 Y72.139 E.06798
G1 X135.545 Y72.572 E.0438
G1 X136.602 Y73.265 E.03964
G1 X141.884 Y78.535 E.23396
G1 X142.561 Y79.516 E.03737
G1 X142.993 Y80.638 E.03769
G1 X143.026 Y80.867 E.00726
G1 X143.114 Y128.055 E1.47955
G1 X143.001 Y128.95 E.02828
M73 P1 R36
M73 Q1 S36
G1 X141.973 Y130.981 E.07138
G1 X136.779 Y136.176 E.23033
G1 X134.748 Y137.204 E.07136
G1 X133.856 Y137.316 E.02818
G1 X116.144 Y137.316 E.55536
G1 X115.252 Y137.204 E.02818
G1 X113.221 Y136.176 E.07136
G1 X108.093 Y131.047 E.22741
G1 X107.313 Y129.83 E.04532
G1 X106.925 Y128.47 E.04435
G1 X106.886 Y81.447 E1.47437
G1 X106.999 Y80.555 E.0282
G1 X107.955 Y78.668 E.06631
M204 S1000
G1 X108.282 Y78.835 F10800
M204 S800
G1 F1200
G1 X108.316 Y78.769 E.00231
G1 X113.55 Y73.546 E.23186
G1 X114.539 Y72.902 E.037
G1 X115.696 Y72.532 E.03808
G1 X116.148 Y72.502 E.0142
G1 X116.213 Y69.733 E.08683
G1 X116.804 Y68.247 E.05015
G1 X117.357 Y67.572 E.02737
G1 X118.216 Y66.857 E.03503
G1 X118.946 Y66.505 E.02541
G1 X120.171 Y66.204 E.03955
G1 X129.796 Y66.208 E.30177
G1 X130.959 Y66.468 E.03738
G1 X131.97 Y66.998 E.03579
G1 X132.78 Y67.735 E.03434
G1 X133.453 Y68.775 E.03885
G1 X133.824 Y70.051 E.04166
G1 X133.842 Y72.503 E.07689
G1 X134.204 Y72.531 E.01139
G1 X135.361 Y72.902 E.03809
G1 X136.35 Y73.546 E.037
G1 X141.605 Y78.79 E.23279
G1 X142.238 Y79.711 E.03504
G1 X142.624 Y80.715 E.03373
G1 X142.649 Y80.883 E.0053
G1 X142.737 Y128.044 E1.4787
G1 X142.631 Y128.87 E.02613
G1 X141.685 Y130.736 E.06558
G1 X136.533 Y135.888 E.22846
G1 X134.668 Y136.834 E.06557
G1 X133.844 Y136.939 E.02604
G1 X116.156 Y136.939 E.5546
G1 X115.332 Y136.834 E.02604
G1 X113.467 Y135.888 E.06557
G1 X108.374 Y130.795 E.22586
G1 X107.668 Y129.7 E.04084
G1 X107.295 Y128.392 E.04265
G1 X107.264 Y81.459 E1.47154
G1 X107.369 Y80.635 E.02605
G1 X108.255 Y78.888 E.06142
M204 S1000
G1 X108.583 Y79.055 F10800
M204 S800
G1 F1200
G1 X108.603 Y79.015 E.0014
G1 X113.803 Y73.826 E.23033
G1 X114.679 Y73.253 E.03281
G1 X115.785 Y72.899 E.03642
G1 X116.519 Y72.867 E.02303
G1 X116.576 Y69.839 E.09496
G1 X117.116 Y68.461 E.04637
G1 X117.613 Y67.85 E.02472
G1 X118.439 Y67.162 E.03371
G1 X119.056 Y66.866 E.02146
G1 X120.195 Y66.581 E.03679
G1 X129.775 Y66.585 E.30039
G1 X130.808 Y66.815 E.03318
G1 X131.735 Y67.294 E.03272
G1 X132.508 Y67.998 E.0328
G1 X133.099 Y68.907 E.03399
G1 X133.455 Y70.13 E.03995
G1 X133.466 Y72.868 E.08582
G1 X134.115 Y72.899 E.02039
G1 X135.221 Y73.253 E.03642
G1 X136.097 Y73.826 E.03281
G1 X141.327 Y79.045 E.23165
G1 X141.895 Y79.869 E.03137
G1 X142.255 Y80.797 E.03123
G1 X142.272 Y80.9 E.00326
G1 X142.359 Y128.032 E1.4778
G1 X142.261 Y128.79 E.02396
G1 X141.398 Y130.49 E.0598
G1 X136.287 Y135.601 E.2266
G1 X134.587 Y136.464 E.05979
G1 X133.832 Y136.562 E.02388
G1 X116.168 Y136.562 E.55382
G1 X115.413 Y136.464 E.02388
G1 X113.713 Y135.601 E.05979
G1 X108.655 Y130.543 E.22428
G1 X108.001 Y129.521 E.03803
G1 X107.665 Y128.316 E.03923
G1 X107.641 Y81.471 E1.46877
M73 P2 R36
G1 X107.739 Y80.716 E.02389
M73 P2 R35
M73 Q2 S36
G1 X108.556 Y79.108 E.05655
M204 S1000
G1 X108.883 Y79.275 F10800
M204 S800
G1 F1200
G1 X114.056 Y74.106 E.22928
G1 X114.818 Y73.604 E.02861
G1 X115.874 Y73.267 E.03474
G1 X116.891 Y73.234 E.03191
G1 X116.94 Y69.942 E.10324
G1 X117.428 Y68.674 E.04259
G1 X117.87 Y68.126 E.02208
G1 X118.626 Y67.49 E.03097
G1 X119.169 Y67.226 E.01893
G1 X120.218 Y66.958 E.03397
G1 X129.753 Y66.962 E.29896
G1 X130.7 Y67.177 E.03042
G1 X131.537 Y67.616 E.02964
G1 X132.234 Y68.258 E.02974
G1 X132.767 Y69.087 E.0309
G1 X133.078 Y70.158 E.03496
G1 X133.09 Y73.235 E.09647
G1 X134.026 Y73.267 E.02938
G1 X135.082 Y73.604 E.03474
G1 X135.844 Y74.106 E.02861
G1 X141.048 Y79.3 E.23053
G1 X141.552 Y80.027 E.02773
G1 X141.895 Y80.92 E.02999
G1 X141.982 Y128.02 E1.47679
G1 X141.892 Y128.708 E.02177
G1 X141.11 Y130.245 E.05405
G1 X136.042 Y135.313 E.22474
G1 X134.506 Y136.095 E.05404
G1 X133.819 Y136.185 E.02171
G1 X116.181 Y136.185 E.55304
G1 X115.494 Y136.095 E.02171
G1 X113.958 Y135.313 E.05404
G1 X108.936 Y130.291 E.22269
G1 X108.335 Y129.344 E.03518
G1 X108.035 Y128.242 E.0358
G1 X108.018 Y81.484 E1.46606
G1 X108.108 Y80.797 E.02171
G1 X108.856 Y79.328 E.05168
M204 S1000
G1 X109.178 Y79.507 F10800
M204 S800
G1 F1200
G1 X114.31 Y74.386 E.2273
G1 X114.959 Y73.955 E.02442
G1 X115.962 Y73.634 E.03304
G1 X117.264 Y73.605 E.04085
G1 X117.305 Y70.043 E.11167
G1 X117.742 Y68.886 E.03881
G1 X118.129 Y68.401 E.01945
G1 X118.815 Y67.817 E.02823
G1 X119.283 Y67.586 E.0164
G1 X120.243 Y67.335 E.03109
G1 X129.732 Y67.339 E.29754
G1 X130.549 Y67.523 E.02624
G1 X131.3 Y67.911 E.02652
G1 X131.96 Y68.518 E.02813
G1 X132.434 Y69.266 E.02775
G1 X132.701 Y70.186 E.03003
G1 X132.714 Y73.605 E.1072
G1 X133.938 Y73.634 E.03838
G1 X134.941 Y73.955 E.03304
G1 X135.59 Y74.386 E.02442
G1 X140.77 Y79.554 E.2294
G1 X141.228 Y80.222 E.02539
G1 X141.518 Y80.973 E.02525
G1 X141.605 Y128.008 E1.47475
G1 X141.522 Y128.626 E.01957
G1 X140.822 Y129.999 E.04831
G1 X135.796 Y135.025 E.22289
G1 X134.424 Y135.725 E.0483
G1 X133.806 Y135.808 E.01953
G1 X116.194 Y135.808 E.55223
G1 X115.576 Y135.725 E.01953
G1 X114.204 Y135.025 E.0483
G1 X109.218 Y130.04 E.22108
G1 X108.67 Y129.168 E.03228
G1 X108.406 Y128.17 E.03238
G1 X108.395 Y81.497 E1.4634
G1 X108.478 Y80.879 E.01953
G1 X109.151 Y79.56 E.04643
M204 S1000
G1 X109.465 Y79.753 F10800
M204 S800
G1 F1200
G1 X114.563 Y74.666 E.22581
G1 X115.099 Y74.306 E.02023
G1 X116.05 Y74.002 E.0313
G1 X117.639 Y73.977 E.04984
G1 X117.67 Y70.142 E.12024
G1 X118.057 Y69.095 E.03502
G1 X118.389 Y68.674 E.01682
G1 X119.006 Y68.143 E.02551
G1 X119.401 Y67.944 E.01386
G1 X120.268 Y67.713 E.02815
G1 X129.71 Y67.716 E.29606
G1 X130.441 Y67.885 E.0235
M73 P3 R35
G1 X131.064 Y68.205 E.02197
M73 Q3 S36
G1 X131.686 Y68.778 E.02651
G1 X132.1 Y69.443 E.02456
G1 X132.324 Y70.214 E.02517
G1 X132.339 Y73.977 E.11801
G1 X133.85 Y74.002 E.0474
G1 X134.801 Y74.306 E.0313
G1 X135.337 Y74.666 E.02023
G1 X140.49 Y79.808 E.22827
G1 X140.903 Y80.415 E.023
G1 X141.153 Y81.074 E.0221
G1 X141.228 Y127.995 E1.47119
G1 X141.153 Y128.543 E.01735
M73 Q3 S35
G1 X140.535 Y129.753 E.04259
G1 X135.55 Y134.738 E.22104
G1 X134.341 Y135.356 E.04259
G1 X133.793 Y135.431 E.01732
G1 X116.207 Y135.431 E.55141
G1 X115.659 Y135.356 E.01732
G1 X114.45 Y134.738 E.04259
G1 X109.5 Y129.788 E.21947
G1 X109.006 Y128.994 E.02933
G1 X108.777 Y128.1 E.02894
G1 X108.772 Y81.51 E1.46081
G1 X108.847 Y80.962 E.01732
G1 X109.438 Y79.806 E.04071
M204 S1000
G1 X109.752 Y79.999 F10800
M204 S800
G1 F1200
G1 X114.792 Y74.966 E.22331
G1 X115.242 Y74.657 E.01711
G1 X116.137 Y74.37 E.02949
G1 X118.015 Y74.352 E.05888
G1 X118.036 Y70.239 E.12896
G1 X118.373 Y69.302 E.03123
G1 X118.652 Y68.945 E.01418
G1 X119.2 Y68.467 E.0228
G1 X119.521 Y68.302 E.01132
G1 X120.294 Y68.09 E.02514
G1 X129.689 Y68.093 E.29457
G1 X130.292 Y68.232 E.01941
G1 X130.831 Y68.503 E.01889
G1 X131.382 Y69.003 E.02334
G1 X131.747 Y69.578 E.02135
G1 X131.947 Y70.243 E.02179
G1 X131.963 Y74.352 E.12882
G1 X133.763 Y74.37 E.05643
G1 X134.658 Y74.657 E.02949
G1 X135.108 Y74.966 E.01711
G1 X140.212 Y80.063 E.22615
G1 X140.559 Y80.569 E.01926
G1 X140.788 Y81.175 E.02032
G1 X140.851 Y127.982 E1.46759
G1 X140.784 Y128.46 E.01512
G1 X140.248 Y129.507 E.03691
G1 X135.304 Y134.451 E.2192
G1 X134.257 Y134.987 E.03691
G1 X133.78 Y135.054 E.0151
G1 X116.22 Y135.054 E.55057
G1 X115.743 Y134.987 E.0151
G1 X114.696 Y134.451 E.03691
G1 X109.783 Y129.538 E.21784
G1 X109.343 Y128.823 E.02632
G1 X109.149 Y128.033 E.0255
G1 X109.149 Y81.523 E1.45829
G1 X109.216 Y81.046 E.0151
G1 X109.725 Y80.052 E.03502
M204 S1000
G1 X110.04 Y80.245 F10800
M204 S800
G1 F1200
G1 X115.024 Y75.263 E.22095
G1 X115.386 Y75.007 E.0139
G1 X116.224 Y74.738 E.02761
G1 X118.392 Y74.728 E.06796
G1 X118.402 Y70.333 E.13782
G1 X118.691 Y69.507 E.02744
G1 X118.916 Y69.215 E.01154
G1 X119.396 Y68.79 E.02012
G1 X119.644 Y68.659 E.00879
G1 X120.321 Y68.467 E.02205
G1 X129.668 Y68.47 E.29306
G1 X130.147 Y68.581 E.01542
G1 X130.6 Y68.803 E.01583
G1 X131.081 Y69.231 E.02017
G1 X131.396 Y69.716 E.01816
G1 X131.57 Y70.274 E.01832
G1 X131.587 Y74.728 E.13966
G1 X133.676 Y74.738 E.06547
G1 X134.514 Y75.007 E.02761
G1 X134.876 Y75.263 E.0139
G1 X139.932 Y80.317 E.22414
G1 X140.233 Y80.761 E.01684
G1 X140.423 Y81.274 E.01715
G1 X140.474 Y127.969 E1.46407
G1 X140.416 Y128.375 E.01286
G1 X139.96 Y129.261 E.03126
G1 X135.058 Y134.163 E.21736
G1 X134.172 Y134.619 E.03125
M73 P4 R35
G1 X133.766 Y134.677 E.01285
G1 X116.234 Y134.677 E.54971
G1 X115.828 Y134.619 E.01285
M73 Q4 S35
G1 X114.942 Y134.163 E.03125
G1 X110.064 Y129.286 E.21626
G1 X109.701 Y128.701 E.02159
G1 X109.526 Y128.009 E.02238
G1 X109.526 Y81.537 E1.45711
G1 X109.584 Y81.131 E.01285
G1 X110.012 Y80.298 E.02937
M204 S1000
G1 X110.327 Y80.491 F10800
M204 S800
G1 F1200
G1 X115.261 Y75.556 E.2188
G1 X115.532 Y75.356 E.01057
G1 X116.311 Y75.106 E.02565
G1 X118.769 Y75.106 E.07707
G1 X118.769 Y70.423 E.14683
G1 X119.011 Y69.708 E.02367
G1 X119.182 Y69.482 E.00889
G1 X119.597 Y69.109 E.01749
G1 X119.772 Y69.014 E.00624
G1 X120.349 Y68.844 E.01885
G1 X129.646 Y68.847 E.2915
G1 X130.006 Y68.93 E.01157
G1 X130.371 Y69.103 E.01266
G1 X130.811 Y69.495 E.01848
G1 X131.046 Y69.858 E.01356
G1 X131.193 Y70.307 E.0148
G1 X131.212 Y75.106 E.15049
G1 X133.589 Y75.106 E.07453
G1 X134.368 Y75.356 E.02565
G1 X134.639 Y75.556 E.01057
G1 X139.652 Y80.57 E.2223
G1 X139.906 Y80.95 E.01435
G1 X140.057 Y81.37 E.01399
G1 X140.097 Y127.954 E1.46062
G1 X140.047 Y128.288 E.01058
G1 X139.673 Y129.015 E.02565
G1 X134.812 Y133.876 E.21553
G1 X134.085 Y134.25 E.02565
G1 X133.752 Y134.3 E.01057
G1 X116.248 Y134.3 E.54881
G1 X115.915 Y134.25 E.01057
G1 X115.188 Y133.876 E.02565
G1 X110.347 Y129.036 E.21463
G1 X110.038 Y128.53 E.01858
G1 X109.903 Y127.987 E.01756
G1 X109.903 Y81.551 E1.45595
G1 X109.953 Y81.218 E.01057
G1 X110.3 Y80.544 E.02376
M204 S1000
G1 X110.614 Y80.737 F10800
M204 S800
G1 F1200
G1 X115.517 Y75.834 E.21741
G1 X115.73 Y75.678 E.00825
G1 X116.34 Y75.483 E.02009
G1 X119.146 Y75.483 E.08798
G1 X119.146 Y70.454 E.15767
G1 X119.332 Y69.908 E.0181
G1 X119.451 Y69.747 E.00628
G1 X119.804 Y69.425 E.01495
G1 X119.906 Y69.367 E.0037
G1 X120.378 Y69.221 E.01551
G1 X129.624 Y69.225 E.28989
G1 X129.862 Y69.28 E.00767
G1 X130.183 Y69.431 E.01111
G1 X130.538 Y69.756 E.01508
G1 X130.695 Y69.999 E.00908
G1 X130.825 Y70.396 E.01309
G1 X130.835 Y75.483 E.15951
G1 X133.56 Y75.483 E.08543
G1 X134.17 Y75.678 E.02009
G1 X134.383 Y75.834 E.00825
G1 X139.371 Y80.822 E.2212
G1 X139.578 Y81.136 E.01178
G1 X139.691 Y81.463 E.01084
G1 X139.72 Y127.94 E1.45725
G1 X139.68 Y128.2 E.00826
M73 P4 R34
G1 X139.386 Y128.769 E.02009
G1 X134.566 Y133.589 E.21371
G1 X133.997 Y133.883 E.02009
G1 X133.737 Y133.923 E.00825
G1 X116.263 Y133.923 E.54787
G1 X116.003 Y133.883 E.00825
G1 X115.434 Y133.589 E.02009
G1 X110.629 Y128.784 E.21305
G1 X110.395 Y128.407 E.01391
G1 X110.28 Y127.962 E.01441
G1 X110.28 Y81.566 E1.45471
G1 X110.32 Y81.306 E.00825
G1 X110.587 Y80.79 E.01821
M204 S1000
G1 X110.901 Y80.983 F10800
M204 S800
G1 F1200
G1 X115.773 Y76.111 E.216
G1 X115.925 Y76.002 E.00589
G1 X116.369 Y75.86 E.01461
G1 X119.523 Y75.86 E.0989
G1 X119.523 Y70.486 E.1685
M73 P5 R34
G1 X119.655 Y70.104 E.01267
G1 X119.723 Y70.009 E.00367
G1 X120.018 Y69.736 E.01261
G1 X120.41 Y69.598 E.01302
G1 X129.602 Y69.602 E.2882
G1 X129.719 Y69.629 E.00377
G1 X129.993 Y69.759 E.0095
G1 X130.262 Y70.013 E.0116
M73 Q5 S35
G1 X130.345 Y70.14 E.00476
G1 X130.458 Y70.485 E.01136
G1 X130.458 Y75.86 E.16855
G1 X133.531 Y75.86 E.09636
G1 X133.975 Y76.002 E.01461
G1 X134.127 Y76.111 E.00589
G1 X139.092 Y81.076 E.22013
G1 X139.229 Y81.283 E.00778
G1 X139.324 Y81.556 E.00908
G1 X139.343 Y127.924 E1.45382
G1 X139.313 Y128.109 E.00589
G1 X139.099 Y128.523 E.01461
G1 X134.32 Y133.302 E.21188
G1 X133.906 Y133.516 E.01461
G1 X133.721 Y133.546 E.00589
G1 X116.279 Y133.546 E.54687
G1 X116.094 Y133.516 E.00589
G1 X115.68 Y133.302 E.01461
G1 X110.91 Y128.532 E.2115
G1 X110.751 Y128.279 E.00936
G1 X110.657 Y127.936 E.01116
G1 X110.657 Y81.582 E1.45338
G1 X110.687 Y81.397 E.00589
G1 X110.874 Y81.036 E.01273
M204 S1000
G1 X111.189 Y81.229 F10800
M204 S800
G1 F1200
G1 X116.027 Y76.39 E.21454
G1 X116.117 Y76.327 E.00346
G1 X116.398 Y76.237 E.00925
G1 X119.9 Y76.237 E.1098
G1 X119.9 Y70.52 E.17927
G1 X119.998 Y70.268 E.00845
G1 X120.232 Y70.051 E.01002
G1 X120.445 Y69.975 E.00709
G1 X129.55 Y69.975 E.28548
G1 X129.8 Y70.085 E.00856
G1 X129.981 Y70.265 E.00802
G1 X130.081 Y70.52 E.00856
G1 X130.081 Y76.237 E.17927
G1 X133.502 Y76.237 E.10726
G1 X133.783 Y76.327 E.00925
G1 X133.873 Y76.39 E.00346
G1 X138.81 Y81.327 E.21891
G1 X138.898 Y81.464 E.00509
G1 X138.956 Y81.643 E.00592
G1 X138.966 Y127.906 E1.45055
G1 X138.947 Y128.015 E.00346
G1 X138.811 Y128.277 E.00925
G1 X134.074 Y133.014 E.21005
G1 X133.812 Y133.15 E.00925
G1 X133.703 Y133.169 E.00346
G1 X116.297 Y133.169 E.54578
G1 X116.188 Y133.15 E.00346
G1 X115.926 Y133.014 E.00925
G1 X111.19 Y128.279 E.20999
