; generated by PrusaSlicer 2.5.0+win64 on 2022-10-10 at 08:30:08 UTC


;
;
; 

; external perimeters extrusion width = 0.45mm
; perimeters extrusion width = 0.45mm
; infill extrusion width = 0.45mm
; solid infill extrusion width = 0.45mm
; top infill extrusion width = 0.40mm
; first layer extrusion width = 0.42mm

M73 P0 R93
M73 Q0 S94
M201 X1000 Y1000 Z200 E5000 ; sets maximum accelerations, mm/sec^2
M203 X200 Y200 Z12 E120 ; sets maximum feedrates, mm / sec
M204 P1250 R1250 T1250 ; sets acceleration (P, T) and retract acceleration (R), mm/sec^2
M205 X8.00 Y8.00 Z0.40 E4.50 ; sets the jerk limits, mm/sec
M205 S0 T0 ; sets the minimum extruding and travel feed rate, mm/sec
M107
;TYPE:Custom
M862.3 P "MK3S" ; printer model check
M862.1 P0.4 ; nozzle diameter check
M115 U3.11.0 ; tell printer latest fw version
G90 ; use absolute coordinates
M83 ; extruder relative mode
M104 S215 ; set extruder temp
M140 S60 ; set bed temp
M190 S60 ; wait for bed temp
M109 S215 ; wait for extruder temp
G28 W ; home all without mesh bed level
G80 ; mesh bed leveling

G1 Z0.2 F720
G1 Y-3 F1000 ; go outside print area
G92 E0
G1 X60 E9 F1000 ; intro line
G1 X100 E12.5 F1000 ; intro line

G92 E0
M221 S95

; Don't change E values below. Excessive value can damage the printer.
M907 E430 ; set extruder motor current
G21 ; set units to millimeters
G90 ; use absolute coordinates
M83 ; use relative distances for extrusion
M900 K0.05 ; Filament gcode LA 1.5
M900 K30 ; Filament gcode LA 1.0
M107
;LAYER_CHANGE
;Z:0.2
;HEIGHT:0.2
;BEFORE_LAYER_CHANGE
G92 E0.0
;0.2


G1 E-.8 F2100
G1 Z.4 F720
;AFTER_LAYER_CHANGE
;0.2
G1 X104.717 Y79.49 F10800
G1 Z.2 F720
G1 E.8 F2100
M204 S800
;TYPE:Skirt/Brim
;WIDTH:0.42
G1 F1200
G1 X107.705 Y76.502 E.13248
G1 X109.385 Y75.806 E.05705
G1 X133.224 Y75.807 E.74744
G1 X134.835 Y76.437 E.05424
G1 X146.024 Y86.755 E.47722
G1 X149.081 Y89.809 E.13549
G1 X149.777 Y91.49 E.05704
G1 X149.777 Y135.314 E1.3741
G1 X149.081 Y136.995 E.05704
G1 X146.093 Y139.983 E.13247
G1 X144.419 Y140.679 E.05684
G1 X113.795 Y140.708 E.96021
G1 X110.366 Y140.679 E.10751
G1 X109.477 Y140.498 E.02844
G1 X107.603 Y139.721 E.0636
G1 X106.832 Y139.206 E.02908
G1 X101.695 Y134.069 E.22778
G1 X101.18 Y133.298 E.02908
G1 X100.404 Y131.423 E.06361
G1 X100.223 Y130.514 E.02908
G1 X100.223 Y96.29 E1.07306
G1 X100.295 Y95.711 E.0183
G1 X104.092 Y80.592 E.48879
G1 X104.687 Y79.542 E.03783
M204 S1000
;WIPE_START
G1 F8640
G1 X107.006 Y77.206 E-.76
;WIPE_END
G1 E-.04 F2100
G1 Z.6 F720
G1 X107.304 Y80.992 F10800
G1 Z.2 F720
G1 E.8 F2100
M204 S800
G1 F1200
G1 X107.63 Y80.403 E.02109
G1 X108.576 Y79.444 E.04225
G1 X109.761 Y78.781 E.04258
G1 X110.858 Y78.501 E.0355
G1 X116.6 Y78.484 E.18003
G1 X117.666 Y78.719 E.03423
G1 X118.754 Y79.251 E.03796
G1 X119.716 Y80.095 E.04014
G1 X120.396 Y81.085 E.03765
G1 X120.719 Y81.986 E.03001
G1 X121.876 Y81.986 E.03629
G1 X122.134 Y81.226 E.02515
G1 X122.703 Y80.304 E.03398
G1 X123.512 Y79.501 E.03574
G1 X124.504 Y78.891 E.03653
G1 X126.062 Y78.47 E.05059
G1 X131.461 Y78.471 E.16928
G1 X132.796 Y78.769 E.0429
G1 X134.008 Y79.432 E.04331
G1 X135.014 Y80.466 E.04523
G1 X135.622 Y81.609 E.0406
G1 X135.894 Y82.767 E.0373
G1 X135.858 Y88.797 E.18907
G1 X143.142 Y88.849 E.22838
G1 X144.408 Y89.262 E.04175
G1 X145.505 Y89.999 E.04143
G1 X146.397 Y91.04 E.043
G1 X146.753 Y91.746 E.02478
G1 X147.018 Y92.551 E.02659
G1 X147.114 Y133.556 E1.28567
G1 X146.837 Y134.845 E.04133
M73 Q0 S93
G1 X146.175 Y136.078 E.0439
G1 X145.219 Y137.039 E.04249
G1 X144.075 Y137.687 E.04124
G1 X142.72 Y138.015 E.04372
G1 X137.097 Y138.016 E.17631
G1 X135.61 Y138.041 E.04662
G1 X134.533 Y138.021 E.03377
G1 X120.768 Y138.016 E.4316
G1 X119.289 Y138.044 E.04637
G1 X117.811 Y138.028 E.04635
G1 X115.752 Y138.045 E.06457
G1 X114.782 Y138.026 E.03041
G1 X113.773 Y138.045 E.03165
G1 X111.042 Y138.012 E.08563
G1 X109.796 Y137.745 E.03995
G1 X108.21 Y136.817 E.0576
G1 X104.119 Y132.726 E.1814
G1 X103.314 Y131.478 E.04658
G1 X102.893 Y129.904 E.0511
G1 X102.889 Y128.274 E.05109
G1 X103.059 Y127.276 E.03175
G1 X103.864 Y125.669 E.05635
G1 X104.652 Y124.865 E.03529
G1 X105.579 Y124.268 E.03457
G1 X107.27 Y123.791 E.05508
G1 X117.25 Y123.791 E.31294
G1 X118.235 Y123.294 E.03458
G1 X119.652 Y122.988 E.04546
G1 X125.902 Y122.992 E.19595
G1 X127.291 Y123.304 E.04466
G1 X128.251 Y123.791 E.03372
G1 X132.889 Y123.791 E.14541
G1 X132.889 Y103.012 E.65148
G1 X128.479 Y103.012 E.13825
G1 X128.181 Y103.254 E.01203
G1 X127.38 Y103.666 E.02823
G1 X126.068 Y103.994 E.0424
G1 X119.665 Y104.016 E.20079
G1 X118.215 Y103.704 E.04649
G1 X117.351 Y103.273 E.03026
G1 X117.024 Y103.01 E.01317
G1 X107.096 Y102.987 E.31127
G1 X105.852 Y102.654 E.0404
G1 X104.736 Y102.007 E.04044
G1 X103.882 Y101.141 E.03814
G1 X103.278 Y100.128 E.03699
G1 X102.893 Y98.674 E.04715
G1 X102.917 Y96.742 E.06057
G1 X103.22 Y95.539 E.03891
G1 X103.817 Y94.459 E.03869
G1 X106.685 Y91.527 E.1286
G1 X106.684 Y82.864 E.27162
G1 X107.008 Y81.525 E.04319
G1 X107.275 Y81.044 E.01725
M204 S1000
G1 X107.6 Y81.227 F10800
M204 S800
G1 F1200
G1 X107.945 Y80.611 E.02213
G1 X108.823 Y79.73 E.03901
G1 X109.921 Y79.123 E.03932
G1 X110.927 Y78.872 E.0325
G1 X116.579 Y78.861 E.17723
G1 X117.561 Y79.082 E.03155
G1 X118.563 Y79.578 E.03507
G1 X119.448 Y80.361 E.03706
G1 X120.07 Y81.276 E.03467
G1 X120.45 Y82.363 E.03612
G1 X122.15 Y82.363 E.05329
G1 X122.467 Y81.403 E.0317
G1 X122.986 Y80.554 E.03119
G1 X123.731 Y79.809 E.03304
G1 X124.632 Y79.247 E.0333
G1 X126.088 Y78.847 E.04735
G1 X131.44 Y78.848 E.1678
G1 X132.686 Y79.13 E.04008
G1 X133.799 Y79.748 E.03991
G1 X134.724 Y80.707 E.04177
G1 X135.277 Y81.762 E.03736
G1 X135.517 Y82.787 E.033
G1 X135.479 Y89.172 E.20018
G1 X143.109 Y89.226 E.23924
G1 X144.263 Y89.611 E.03815
G1 X145.271 Y90.295 E.03821
G1 X146.094 Y91.266 E.0399
G1 X146.399 Y91.876 E.02138
G1 X146.65 Y92.641 E.02524
G1 X146.737 Y133.536 E1.28224
G1 X146.475 Y134.738 E.03859
G1 X145.887 Y135.833 E.03896
G1 X145.009 Y136.725 E.03925
G1 X143.958 Y137.328 E.03797
G1 X142.697 Y137.638 E.04074
G1 X137.093 Y137.639 E.17569
G1 X135.607 Y137.664 E.04661
G1 X134.537 Y137.643 E.03356
G1 X120.764 Y137.639 E.43183
G1 X119.291 Y137.667 E.04621
G1 X117.805 Y137.65 E.0466
G1 X117.296 Y137.667 E.01596
G1 X115.754 Y137.667 E.04833
G1 X114.782 Y137.649 E.03049
G1 X113.775 Y137.668 E.0316
G1 X111.066 Y137.635 E.08493
G1 X109.906 Y137.383 E.03722
G1 X108.46 Y136.534 E.05257
G1 X104.401 Y132.474 E.18001
G1 X103.647 Y131.3 E.04373
G1 X103.264 Y129.832 E.04757
G1 X103.264 Y128.319 E.04745
G1 X103.41 Y127.418 E.02861
G1 X104.187 Y125.865 E.05445
G1 X104.904 Y125.147 E.03181
G1 X105.758 Y124.601 E.0318
G1 X107.295 Y124.168 E.05007
G1 X117.392 Y124.168 E.31656
G1 X117.534 Y124.062 E.00556
G1 X118.339 Y123.657 E.02824
G1 X119.673 Y123.365 E.04281
G1 X125.88 Y123.369 E.19463
G1 X127.185 Y123.667 E.04195
G1 X127.971 Y124.065 E.02765
G1 X128.11 Y124.168 E.0054
G1 X133.266 Y124.168 E.16166
G1 X133.266 Y102.635 E.67513
G1 X128.342 Y102.635 E.15438
G1 X127.989 Y102.928 E.01438
G1 X127.227 Y103.32 E.02687
G1 X126.044 Y103.617 E.03823
G1 X119.683 Y103.639 E.19944
G1 X118.362 Y103.356 E.04237
G1 X117.54 Y102.946 E.02881
G1 X117.16 Y102.634 E.01541
G1 X107.168 Y102.616 E.3133
G1 X106.017 Y102.314 E.03732
G1 X104.985 Y101.723 E.03729
G1 X104.192 Y100.926 E.03524
G1 X103.635 Y100.003 E.03381
G1 X103.271 Y98.652 E.04387
G1 X103.294 Y96.77 E.05903
G1 X103.579 Y95.657 E.03602
G1 X104.133 Y94.665 E.03562
G1 X107.062 Y91.682 E.13109
G1 X107.062 Y82.887 E.27573
G1 X107.368 Y81.641 E.04024
G1 X107.571 Y81.279 E.01301
M204 S1000
G1 X107.895 Y81.463 F10800
M204 S800
G1 F1200
G1 X108.26 Y80.821 E.02318
G1 X109.069 Y80.017 E.03577
G1 X110.08 Y79.466 E.03608
G1 X110.95 Y79.249 E.02813
G1 X116.558 Y79.238 E.17582
G1 X117.454 Y79.444 E.02885
G1 X118.332 Y79.877 E.03068
G1 X119.18 Y80.627 E.03549
G1 X119.743 Y81.464 E.03163
G1 X120.093 Y82.488 E.03391
G1 X120.124 Y82.74 E.00797
G1 X122.472 Y82.74 E.07363
G1 X122.501 Y82.504 E.00748
G1 X122.802 Y81.579 E.03049
G1 X123.27 Y80.803 E.02841
G1 X123.952 Y80.116 E.03036
G1 X124.761 Y79.602 E.03005
G1 X126.114 Y79.224 E.04405
G1 X131.418 Y79.225 E.1663
G1 X132.574 Y79.491 E.03721
G1 X133.589 Y80.062 E.0365
G1 X134.431 Y80.947 E.0383
G1 X134.931 Y81.914 E.03414
G1 X135.14 Y82.807 E.02875
G1 X135.099 Y89.547 E.21132
G1 X143.02 Y89.594 E.24835
G1 X144.075 Y89.939 E.03482
G1 X145.002 Y90.561 E.03499
G1 X145.768 Y91.456 E.03694
G1 X146.045 Y92.008 E.01935
G1 X146.283 Y92.73 E.02386
G1 X146.359 Y133.515 E1.27879
G1 X146.112 Y134.63 E.0358
G1 X145.57 Y135.629 E.03563
G1 X144.76 Y136.441 E.03596
G1 X143.841 Y136.968 E.03322
G1 X142.673 Y137.261 E.03776
G1 X137.09 Y137.262 E.17505
G1 X135.604 Y137.287 E.04661
G1 X134.54 Y137.266 E.03335
G1 X120.761 Y137.262 E.43205
G1 X119.286 Y137.29 E.04623
G1 X117.801 Y137.273 E.04659
G1 X117.293 Y137.29 E.01593
G1 X115.756 Y137.29 E.04818
G1 X114.782 Y137.272 E.03054
G1 X113.776 Y137.29 E.03155
G1 X111.09 Y137.258 E.08423
G1 X110.017 Y137.021 E.03446
G1 X108.71 Y136.25 E.04757
G1 X104.681 Y132.221 E.17865
G1 X104.004 Y131.174 E.0391
G1 X103.641 Y129.807 E.04433
G1 X103.641 Y128.333 E.04623
G1 X103.761 Y127.558 E.02458
G1 X104.477 Y126.108 E.05071
G1 X105.125 Y125.453 E.02888
G1 X105.938 Y124.934 E.03025
G1 X107.321 Y124.545 E.04506
G1 X117.524 Y124.545 E.31989
G1 X117.725 Y124.388 E.00798
G1 X118.445 Y124.02 E.02537
G1 X119.693 Y123.743 E.0401
G1 X125.858 Y123.746 E.19329
G1 X127.076 Y124.028 E.0392
M73 P0 R92
G1 X127.78 Y124.391 E.02483
G1 X127.977 Y124.545 E.00783
G1 X133.643 Y124.545 E.17764
G1 X133.643 Y102.258 E.69877
G1 X128.202 Y102.258 E.17059
G1 X127.796 Y102.603 E.0167
G1 X127.073 Y102.975 E.02548
G1 X126.02 Y103.24 E.03406
G1 X119.702 Y103.262 E.19809
G1 X118.509 Y103.008 E.03825
G1 X117.729 Y102.619 E.02732
G1 X117.3 Y102.257 E.01762
G1 X107.194 Y102.239 E.31687
G1 X106.138 Y101.957 E.03427
G1 X105.233 Y101.438 E.03271
G1 X104.501 Y100.709 E.03238
G1 X103.991 Y99.877 E.03062
G1 X103.648 Y98.63 E.04054
G1 X103.671 Y96.798 E.05745
G1 X103.937 Y95.777 E.03309
G1 X104.449 Y94.873 E.03255
G1 X107.439 Y91.836 E.13364
G1 X107.439 Y82.911 E.27984
G1 X107.727 Y81.758 E.03726
G1 X107.865 Y81.515 E.00876
M204 S1000
G1 X108.187 Y81.698 F10800
M204 S800
G1 F1200
G1 X108.544 Y81.07 E.02266
G1 X109.316 Y80.303 E.03411
G1 X110.196 Y79.826 E.03141
G1 X110.975 Y79.626 E.02521
G1 X116.536 Y79.615 E.17436
G1 X117.346 Y79.806 E.02609
G1 X118.141 Y80.202 E.02785
G1 X118.911 Y80.892 E.03241
G1 X119.394 Y81.61 E.02714
G1 X119.726 Y82.579 E.03212
G1 X119.756 Y83.117 E.01689
M73 P1 R92
M73 Q1 S93
G1 X122.845 Y83.117 E.09686
G1 X122.87 Y82.589 E.01658
G1 X123.153 Y81.717 E.02877
G1 X123.579 Y81.02 E.02561
G1 X124.203 Y80.397 E.02764
G1 X124.891 Y79.957 E.02561
G1 X126.14 Y79.601 E.04073
G1 X131.397 Y79.602 E.16481
G1 X132.413 Y79.833 E.03269
G1 X133.378 Y80.376 E.03472
G1 X134.137 Y81.184 E.03476
G1 X134.584 Y82.064 E.03094
G1 X134.762 Y82.827 E.02457
G1 X134.72 Y89.922 E.22247
G1 X142.931 Y89.961 E.25744
G1 X143.933 Y90.289 E.03307
G1 X144.733 Y90.826 E.03021
G1 X145.442 Y91.648 E.03401
G1 X145.691 Y92.139 E.01728
G1 X145.915 Y92.82 E.02246
G1 X145.982 Y133.496 E1.27536
G1 X145.767 Y134.476 E.03147
G1 X145.281 Y135.384 E.0323
G1 X144.548 Y136.129 E.03277
G1 X143.721 Y136.61 E.02999
G1 X142.649 Y136.884 E.03471
G1 X137.087 Y136.885 E.17439
G1 X135.601 Y136.91 E.0466
G1 X134.544 Y136.889 E.03314
G1 X120.757 Y136.885 E.43228
G1 X119.282 Y136.913 E.04626
G1 X117.796 Y136.896 E.04659
G1 X117.29 Y136.913 E.0159
G1 X115.758 Y136.913 E.04802
G1 X114.782 Y136.895 E.03059
G1 X113.778 Y136.913 E.0315
G1 X111.115 Y136.881 E.08351
G1 X110.129 Y136.66 E.03168
G1 X108.96 Y135.967 E.0426
G1 X104.961 Y131.968 E.17732
G1 X104.36 Y131.046 E.03452
G1 X104.018 Y129.782 E.04106
G1 X104.018 Y128.346 E.04503
G1 X104.113 Y127.696 E.0206
G1 X104.767 Y126.351 E.04689
G1 X105.377 Y125.734 E.0272
G1 X106.116 Y125.267 E.02739
G1 X107.347 Y124.922 E.0401
G1 X117.659 Y124.922 E.32334
G1 X117.915 Y124.714 E.01033
G1 X118.595 Y124.367 E.02394
G1 X119.714 Y124.12 E.03591
G1 X125.837 Y124.123 E.19198
G1 X126.924 Y124.374 E.035
G1 X127.588 Y124.716 E.02343
G1 X127.841 Y124.922 E.01021
G1 X134.02 Y124.922 E.19372
G1 X134.02 Y101.881 E.72242
G1 X128.06 Y101.881 E.18687
G1 X127.602 Y102.279 E.019
G1 X126.92 Y102.63 E.02406
G1 X125.996 Y102.863 E.02989
G1 X119.721 Y102.885 E.19675
G1 X118.656 Y102.66 E.03413
G1 X117.92 Y102.293 E.02579
G1 X117.441 Y101.88 E.0198
G1 X107.22 Y101.862 E.32049
G1 X106.261 Y101.6 E.03117
G1 X105.48 Y101.153 E.02822
G1 X104.809 Y100.49 E.02957
G1 X104.346 Y99.748 E.02743
G1 X104.026 Y98.607 E.03715
G1 X104.047 Y96.825 E.05587
G1 X104.278 Y95.939 E.02872
G1 X104.736 Y95.119 E.02943
G1 X107.816 Y91.991 E.13767
G1 X107.816 Y82.935 E.28393
G1 X108.086 Y81.876 E.03426
G1 X108.157 Y81.75 E.00454
M204 S1000
G1 X108.48 Y81.933 F10800
M204 S800
G1 F1200
G1 X108.828 Y81.319 E.02213
G1 X109.562 Y80.59 E.03245
G1 X110.315 Y80.184 E.02681
G1 X111.001 Y80.003 E.02225
G1 X116.514 Y79.992 E.17285
G1 X117.235 Y80.167 E.02327
G1 X117.947 Y80.527 E.02502
G1 X118.64 Y81.156 E.02935
G1 X119.045 Y81.756 E.02271
G1 X119.36 Y82.673 E.03039
G1 X119.387 Y83.494 E.02576
G1 X123.216 Y83.495 E.12005
G1 X123.238 Y82.678 E.02561
G1 X123.505 Y81.855 E.02712
G1 X123.887 Y81.238 E.02277
G1 X124.454 Y80.679 E.02497
G1 X125.024 Y80.311 E.02126
G1 X126.168 Y79.978 E.03735
G1 X131.375 Y79.979 E.16327
G1 X132.3 Y80.194 E.02979
G1 X133.165 Y80.689 E.03124
G1 X133.842 Y81.42 E.03126
G1 X134.223 Y82.174 E.02648
G1 X134.385 Y82.848 E.02175
G1 X134.341 Y90.298 E.23359
G1 X142.844 Y90.329 E.26662
G1 X143.748 Y90.618 E.02976
G1 X144.467 Y91.094 E.02702
G1 X145.117 Y91.84 E.03105
G1 X145.338 Y92.272 E.01518
G1 X145.548 Y92.909 E.02106
G1 X145.605 Y133.475 E1.2719
G1 X145.406 Y134.367 E.02867
G1 X144.964 Y135.179 E.02899
G1 X144.299 Y135.844 E.02949
G1 X143.6 Y136.252 E.02535
G1 X142.624 Y136.507 E.03164
G1 X137.084 Y136.508 E.17372
G1 X135.598 Y136.533 E.04659
G1 X134.548 Y136.512 E.03293
G1 X120.754 Y136.508 E.43252
G1 X119.278 Y136.536 E.04628
G1 X117.792 Y136.519 E.04658
G1 X117.286 Y136.536 E.01587
G1 X115.76 Y136.536 E.04787
G1 X114.782 Y136.518 E.03065
G1 X113.779 Y136.536 E.03145
G1 X111.14 Y136.504 E.08277
G1 X110.242 Y136.299 E.02886
G1 X109.21 Y135.684 E.03767
G1 X105.241 Y131.715 E.17601
G1 X104.715 Y130.916 E.02998
G1 X104.395 Y129.756 E.03774
G1 X104.395 Y128.36 E.04377
G1 X104.482 Y127.78 E.01839
G1 X105.057 Y126.594 E.04134
G1 X105.63 Y126.015 E.02552
G1 X106.292 Y125.601 E.02448
G1 X107.373 Y125.299 E.03519
G1 X117.799 Y125.299 E.32689
G1 X118.108 Y125.04 E.01265
G1 X118.745 Y124.713 E.02246
G1 X119.734 Y124.497 E.03173
G1 X125.815 Y124.501 E.19068
G1 X126.773 Y124.72 E.0308
G1 X127.396 Y125.041 E.02197
G1 X127.702 Y125.299 E.01255
G1 X134.397 Y125.299 E.20991
G1 X134.397 Y101.504 E.74606
G1 X127.915 Y101.504 E.20322
G1 X127.408 Y101.955 E.02128
G1 X126.767 Y102.285 E.02261
G1 X125.971 Y102.486 E.02572
G1 X119.739 Y102.507 E.19541
G1 X118.802 Y102.311 E.03001
G1 X118.111 Y101.967 E.02422
G1 X117.585 Y101.503 E.02197
G1 X107.247 Y101.485 E.32415
G1 X106.386 Y101.243 E.02805
G1 X105.727 Y100.867 E.02378
G1 X105.089 Y100.237 E.02812
G1 X104.701 Y99.617 E.02293
G1 X104.403 Y98.582 E.03377
G1 X104.419 Y96.895 E.0529
G1 X104.621 Y96.098 E.02578
G1 X105.023 Y95.365 E.02622
G1 X108.193 Y92.145 E.14168
G1 X108.193 Y82.96 E.28801
G1 X108.45 Y81.985 E.03159
M204 S1000
G1 X108.802 Y82.117 F10800
M204 S800
G1 F1200
G1 X109.112 Y81.569 E.01974
G1 X109.807 Y80.878 E.03073
G1 X110.47 Y80.529 E.02348
G1 X111.071 Y80.374 E.01947
G1 X116.49 Y80.369 E.16991
G1 X117.121 Y80.527 E.02041
G1 X117.752 Y80.851 E.02223
G1 X118.342 Y81.388 E.02502
G1 X118.697 Y81.903 E.01962
G1 X118.993 Y82.766 E.0286
G1 X119.015 Y83.871 E.03465
G1 X123.59 Y83.872 E.14344
G1 X123.606 Y82.764 E.03472
M73 Q1 S92
G1 X123.839 Y82.031 E.02412
G1 X124.169 Y81.49 E.01988
G1 X124.706 Y80.96 E.02365
G1 X125.159 Y80.664 E.01696
G1 X126.196 Y80.355 E.03392
G1 X131.352 Y80.356 E.16168
G1 X132.185 Y80.554 E.02683
G1 X132.949 Y80.999 E.02774
G1 X133.545 Y81.654 E.02777
