; generated by PrusaSlicer 2.5.0+win64 on 2022-10-10 at 06:43:47 UTC


;
;
; 

; external perimeters extrusion width = 0.45mm
; perimeters extrusion width = 0.45mm
; infill extrusion width = 0.45mm
; solid infill extrusion width = 0.45mm
; top infill extrusion width = 0.40mm
; first layer extrusion width = 0.42mm

M73 P0 R19
M73 Q0 S19
M201 X1000 Y1000 Z200 E5000 ; sets maximum accelerations, mm/sec^2
M203 X200 Y200 Z12 E120 ; sets maximum feedrates, mm / sec
M204 P1250 R1250 T1250 ; sets acceleration (P, T) and retract acceleration (R), mm/sec^2
M205 X8.00 Y8.00 Z0.40 E4.50 ; sets the jerk limits, mm/sec
M205 S0 T0 ; sets the minimum extruding and travel feed rate, mm/sec
M107
;TYPE:Custom
M862.3 P "MK3S" ; printer model check
M862.1 P0.4 ; nozzle diameter check
M115 U3.11.0 ; tell printer latest fw version
G90 ; use absolute coordinates
M83 ; extruder relative mode
M104 S215 ; set extruder temp
M140 S60 ; set bed temp
M190 S60 ; wait for bed temp
M109 S215 ; wait for extruder temp
G28 W ; home all without mesh bed level
G80 ; mesh bed leveling

G1 Z0.2 F720
G1 Y-3 F1000 ; go outside print area
G92 E0
G1 X60 E9 F1000 ; intro line
G1 X100 E12.5 F1000 ; intro line

G92 E0
M221 S95

; Don't change E values below. Excessive value can damage the printer.
M907 E430 ; set extruder motor current
G21 ; set units to millimeters
G90 ; use absolute coordinates
M83 ; use relative distances for extrusion
M900 K0.05 ; Filament gcode LA 1.5
M900 K30 ; Filament gcode LA 1.0
M107
;LAYER_CHANGE
;Z:0.2
;HEIGHT:0.2
;BEFORE_LAYER_CHANGE
G92 E0.0
;0.2


G1 E-.8 F2100
G1 Z.4 F720
;AFTER_LAYER_CHANGE
;0.2
G1 X103.814 Y86.485 F10800
G1 Z.2 F720
G1 E.8 F2100
M204 S800
;TYPE:Skirt/Brim
;WIDTH:0.42
G1 F1200
G1 X105.231 Y84.812 E.06874
G1 X106.86 Y83.571 E.06422
G1 X108.594 Y82.755 E.06009
G1 X109.641 Y82.416 E.03451
G1 X111.069 Y82.144 E.04558
G1 X138.513 Y82.131 E.86048
G1 X140.128 Y82.357 E.05114
G1 X141.622 Y82.821 E.04906
G1 X143.186 Y83.598 E.05473
G1 X144.442 Y84.532 E.04909
G1 X145.534 Y85.64 E.04877
G1 X146.419 Y86.834 E.04661
G1 X147.131 Y88.246 E.04959
G1 X147.508 Y89.349 E.03654
G1 X147.71 Y90.213 E.02781
G1 X147.85 Y91.116 E.02865
G1 X147.894 Y92.208 E.03427
G1 X147.883 Y118.334 E.81918
G1 X147.722 Y119.708 E.04336
G1 X147.329 Y121.21 E.0487
G1 X146.744 Y122.56 E.04611
G1 X146.019 Y123.762 E.04401
G1 X145.091 Y124.87 E.04532
G1 X144.562 Y125.375 E.02293
M73 Q1 S19
G1 X143.6 Y126.117 E.03808
G1 X142.714 Y126.639 E.03226
G1 X141.167 Y127.356 E.05345
G1 X139.814 Y127.701 E.0438
M73 P1 R19
G1 X138.645 Y127.868 E.03701
G1 X111.677 Y127.879 E.84557
G1 X110.032 Y127.675 E.05197
G1 X109.119 Y127.435 E.02959
G1 X107.516 Y126.796 E.05413
G1 X106.289 Y126.05 E.04501
G1 X105.381 Y125.324 E.03646
G1 X104.784 Y124.734 E.02631
G1 X103.813 Y123.515 E.04885
G1 X103.432 Y122.907 E.02251
G1 X102.863 Y121.752 E.04038
G1 X102.514 Y120.723 E.03406
G1 X102.128 Y118.453 E.07219
G1 X102.128 Y91.547 E.84361
G1 X102.397 Y89.774 E.05624
M73 P1 R18
G1 X102.578 Y89.052 E.02335
G1 X103.06 Y87.808 E.04181
G1 X103.784 Y86.537 E.04587
M204 S1000
;WIPE_START
G1 F8640
G1 X105.231 Y84.812 E-.51985
G1 X106.058 Y84.182 E-.24015
;WIPE_END
G1 E-.04 F2100
G1 Z.6 F720
G1 X105.905 Y88.156 F10800
G1 Z.2 F720
G1 E.8 F2100
M204 S800
G1 F1200
G1 X106.695 Y87.123 E.04079
G1 X107.75 Y86.18 E.04437
G1 X108.997 Y85.462 E.04511
G1 X110.335 Y84.99 E.0445
G1 X111.76 Y84.786 E.04513
G1 X138.24 Y84.785 E.83027
G1 X139.578 Y84.969 E.04233
G1 X140.669 Y85.31 E.03584
G1 X141.852 Y85.91 E.0416
G1 X142.875 Y86.707 E.04067
G1 X143.394 Y87.242 E.02338
G1 X143.826 Y87.754 E.02101
G1 X144.449 Y88.769 E.03734
G1 X144.947 Y90.087 E.04415
G1 X145.195 Y91.439 E.04311
G1 X145.216 Y118.204 E.8392
G1 X145.072 Y119.383 E.03725
G1 X144.741 Y120.53 E.03745
G1 X144.439 Y121.213 E.02338
G1 X144.082 Y121.869 E.02345
G1 X143.263 Y122.926 E.04192
G1 X142.17 Y123.864 E.04515
G1 X140.888 Y124.59 E.04619
G1 X139.572 Y125.028 E.04347
G1 X138.217 Y125.223 E.04293
M73 Q1 S18
G1 X111.79 Y125.223 E.82859
G1 X110.424 Y125.032 E.04325
G1 X109.11 Y124.596 E.04341
G1 X108.094 Y124.056 E.03609
G1 X107.177 Y123.36 E.03609
G1 X106.105 Y122.141 E.05089
G1 X105.347 Y120.787 E.04866
G1 X104.78 Y118.216 E.08256
G1 X104.78 Y91.831 E.82728
G1 X105.012 Y90.286 E.04897
M73 Q2 S18
G1 X105.311 Y89.307 E.03209
M73 P2 R18
G1 X105.878 Y88.21 E.03874
M204 S1000
G1 X106.213 Y88.383 F10800
M204 S800
G1 F1200
G1 X106.983 Y87.367 E.03997
G1 X107.985 Y86.475 E.04208
G1 X109.169 Y85.798 E.04274
G1 X110.442 Y85.352 E.0423
G1 X111.799 Y85.161 E.04298
G1 X138.202 Y85.16 E.82783
G1 X139.511 Y85.34 E.04143
G1 X140.513 Y85.653 E.03292
G1 X141.635 Y86.219 E.03941
G1 X142.614 Y86.979 E.03884
G1 X143.119 Y87.5 E.02275
G1 X143.529 Y87.986 E.01996
G1 X144.103 Y88.92 E.03436
G1 X144.579 Y90.172 E.04198
G1 X144.822 Y91.49 E.04203
G1 X144.84 Y118.17 E.83653
G1 X144.705 Y119.294 E.03548
G1 X144.39 Y120.39 E.03576
G1 X144.098 Y121.053 E.02272
G1 X143.758 Y121.675 E.02222
G1 X142.977 Y122.679 E.03988
G1 X141.939 Y123.565 E.04278
G1 X140.719 Y124.252 E.04391
G1 X139.47 Y124.664 E.04124
G1 X138.204 Y124.846 E.04011
G1 X111.804 Y124.846 E.82775
G1 X110.495 Y124.661 E.04146
G1 X109.245 Y124.243 E.04131
G1 X108.31 Y123.746 E.03321
G1 X107.42 Y123.071 E.03501
G1 X106.402 Y121.908 E.04847
G1 X105.69 Y120.629 E.04592
G1 X105.157 Y118.196 E.07809
G1 X105.157 Y91.845 E.8262
G1 X105.383 Y90.356 E.04722
G1 X105.653 Y89.465 E.02921
G1 X106.185 Y88.436 E.03632
M204 S1000
G1 X106.519 Y88.61 F10800
M204 S800
G1 F1200
G1 X106.559 Y88.534 E.00269
G1 X107.27 Y87.611 E.03651
G1 X108.22 Y86.77 E.03979
G1 X109.339 Y86.134 E.04036
G1 X110.547 Y85.714 E.0401
G1 X111.838 Y85.536 E.04083
G1 X138.163 Y85.536 E.82542
G1 X139.444 Y85.712 E.04053
G1 X140.358 Y85.997 E.03003
G1 X141.42 Y86.529 E.03722
G1 X142.352 Y87.251 E.03699
G1 X142.843 Y87.758 E.02212
G1 X143.231 Y88.218 E.01889
G1 X143.772 Y89.102 E.03247
G1 X144.22 Y90.289 E.03978
G1 X144.447 Y91.541 E.0399
G1 X144.464 Y118.137 E.83392
G1 X144.338 Y119.205 E.03372
G1 X144.04 Y120.25 E.03407
G1 X143.763 Y120.879 E.02157
G1 X143.435 Y121.481 E.02148
G1 X142.692 Y122.432 E.03784
G1 X141.738 Y123.245 E.03929
G1 X140.55 Y123.914 E.04275
G1 X139.369 Y124.301 E.03898
M73 Q3 S18
G1 X138.19 Y124.469 E.03732
G1 X111.817 Y124.469 E.82691
G1 X110.565 Y124.29 E.03965
M73 P3 R18
G1 X109.38 Y123.891 E.0392
G1 X108.501 Y123.421 E.03126
G1 X107.665 Y122.783 E.03299
G1 X106.7 Y121.676 E.04605
G1 X106.033 Y120.471 E.04319
G1 X105.534 Y118.176 E.07363
G1 X105.534 Y91.86 E.82512
G1 X105.753 Y90.427 E.04544
G1 X106.009 Y89.592 E.02737
G1 X106.492 Y88.663 E.03284
M204 S1000
G1 X106.826 Y88.838 F10800
M204 S800
G1 F1200
G1 X106.885 Y88.724 E.00403
G1 X107.557 Y87.857 E.03438
G1 X108.454 Y87.066 E.0375
G1 X109.509 Y86.471 E.03798
G1 X110.652 Y86.077 E.03791
G1 X111.875 Y85.912 E.0387
G1 X138.15 Y85.913 E.82382
G1 X139.376 Y86.083 E.03882
G1 X140.204 Y86.342 E.02718
G1 X141.204 Y86.839 E.03503
G1 X142.091 Y87.523 E.03512
G1 X142.568 Y88.015 E.02147
G1 X142.934 Y88.45 E.01783
G1 X143.425 Y89.252 E.02947
G1 X143.861 Y90.405 E.03867
G1 X144.073 Y91.59 E.03775
G1 X144.088 Y118.105 E.83134
G1 X143.971 Y119.117 E.03195
G1 X143.69 Y120.11 E.03237
G1 X143.428 Y120.706 E.0204
G1 X143.111 Y121.286 E.02073
G1 X142.407 Y122.184 E.03576
G1 X141.511 Y122.943 E.03683
G1 X140.376 Y123.579 E.04081
G1 X139.269 Y123.937 E.03647
G1 X138.177 Y124.092 E.03457
G1 X111.83 Y124.092 E.82609
G1 X110.669 Y123.927 E.03678
G1 X109.516 Y123.539 E.03814
G1 X108.694 Y123.096 E.02928
G1 X107.909 Y122.496 E.03097
G1 X106.998 Y121.445 E.04362
G1 X106.377 Y120.313 E.04046
G1 X105.912 Y118.156 E.06921
G1 X105.912 Y91.874 E.82404
G1 X106.124 Y90.498 E.04364
G1 X106.364 Y89.72 E.02553
G1 X106.798 Y88.891 E.02935
M204 S1000
G1 X107.13 Y89.063 F10800
M204 S800
G1 F1200
G1 X107.194 Y88.941 E.00433
G1 X107.844 Y88.103 E.03327
G1 X108.688 Y87.363 E.03518
G1 X109.649 Y86.822 E.0346
G1 X110.722 Y86.448 E.03563
G1 X111.888 Y86.289 E.03689
G1 X138.133 Y86.29 E.82289
G1 X138.833 Y86.401 E.02221
M73 P4 R18
M73 Q4 S18
G1 X139.318 Y86.456 E.0153
G1 X140.05 Y86.686 E.02407
G1 X140.99 Y87.15 E.03284
G1 X141.83 Y87.796 E.03324
G1 X142.292 Y88.273 E.02083
G1 X142.636 Y88.682 E.01675
G1 X143.094 Y89.432 E.02757
G1 X143.502 Y90.521 E.03645
G1 X143.699 Y91.64 E.03561
G1 X143.711 Y118.094 E.82946
G1 X143.599 Y119.058 E.03044
G1 X143.339 Y119.97 E.02974
G1 X143.086 Y120.547 E.01974
G1 X142.788 Y121.091 E.01946
G1 X142.123 Y121.935 E.03367
G1 X141.284 Y122.642 E.0344
G1 X140.688 Y122.958 E.02115
G1 X140.203 Y123.243 E.01767
G1 X139.17 Y123.573 E.03399
G1 X138.164 Y123.715 E.03185
G1 X111.844 Y123.715 E.82525
G1 X110.74 Y123.556 E.03496
G1 X109.653 Y123.187 E.036
G1 X108.887 Y122.772 E.02731
G1 X108.155 Y122.209 E.02896
G1 X107.297 Y121.214 E.04119
G1 X106.721 Y120.157 E.03773
G1 X106.289 Y118.136 E.06481
G1 X106.289 Y91.889 E.82296
G1 X106.494 Y90.57 E.04185
G1 X106.706 Y89.879 E.02267
G1 X107.102 Y89.117 E.02692
M204 S1000
G1 X107.436 Y89.291 F10800
M204 S800
G1 F1200
G1 X107.52 Y89.131 E.00566
G1 X108.13 Y88.349 E.0311
G1 X108.92 Y87.661 E.03287
G1 X109.818 Y87.159 E.03225
G1 X110.827 Y86.811 E.03348
G1 X111.901 Y86.666 E.03396
G1 X138.118 Y86.667 E.82202
G1 X138.783 Y86.775 E.02113
G1 X139.224 Y86.822 E.01391
G1 X139.897 Y87.031 E.02208
G1 X140.806 Y87.48 E.03178
G1 X141.569 Y88.068 E.0302
G1 X142.017 Y88.53 E.02019
G1 X142.337 Y88.913 E.01566
G1 X142.762 Y89.612 E.02566
G1 X143.142 Y90.636 E.03422
G1 X143.325 Y91.688 E.03348
G1 X143.334 Y118.083 E.8276
G1 X143.226 Y118.999 E.02892
G1 X142.989 Y119.831 E.02713
G1 X142.751 Y120.373 E.01857
G1 X142.465 Y120.896 E.01869
G1 X141.84 Y121.685 E.03155
G1 X141.059 Y122.339 E.03194
G1 X140.506 Y122.627 E.01956
G1 X140.03 Y122.907 E.0173
G1 X139.072 Y123.208 E.03149
G1 X138.151 Y123.337 E.02917
G1 X111.858 Y123.338 E.82441
G1 X110.812 Y123.186 E.03313
G1 X109.791 Y122.836 E.03385
G1 X109.081 Y122.449 E.02534
G1 X108.401 Y121.923 E.02695
G1 X107.597 Y120.984 E.03876
G1 X107.066 Y120.002 E.035
G1 X106.666 Y118.116 E.06045
G1 X106.666 Y91.904 E.82188
G1 X106.864 Y90.642 E.04004
M73 P5 R18
M73 Q5 S18
G1 X107.061 Y90.007 E.02086
G1 X107.408 Y89.344 E.02345
M204 S1000
G1 X107.741 Y89.52 F10800
M204 S800
G1 F1200
G1 X107.845 Y89.323 E.00699
G1 X108.415 Y88.597 E.02894
G1 X109.152 Y87.959 E.03057
G1 X109.957 Y87.51 E.02889
G1 X110.933 Y87.173 E.03236
G1 X111.913 Y87.043 E.03101
G1 X138.102 Y87.044 E.82113
G1 X138.732 Y87.149 E.02002
G1 X139.166 Y87.195 E.01368
G1 X139.744 Y87.376 E.01901
G1 X140.592 Y87.79 E.02957
G1 X141.308 Y88.34 E.0283
G1 X141.741 Y88.788 E.01953
G1 X142.039 Y89.144 E.01457
G1 X142.415 Y89.762 E.02268
G1 X142.774 Y90.718 E.03201
G1 X142.951 Y91.736 E.03242
G1 X142.957 Y118.072 E.82572
G1 X142.853 Y118.939 E.02739
G1 X142.638 Y119.691 E.02453
G1 X142.409 Y120.214 E.01791
G1 X142.142 Y120.701 E.01739
G1 X141.558 Y121.435 E.02942
G1 X140.835 Y122.035 E.02947
G1 X140.324 Y122.297 E.01798
G1 X139.858 Y122.571 E.01696
G1 X138.976 Y122.843 E.02895
G1 X138.138 Y122.96 E.02653
G1 X111.872 Y122.96 E.82356
G1 X110.885 Y122.815 E.03128
G1 X109.93 Y122.485 E.03169
G1 X109.276 Y122.126 E.02337
G1 X108.648 Y121.637 E.02495
G1 X107.897 Y120.756 E.03631
G1 X107.411 Y119.848 E.03228
G1 X107.043 Y118.097 E.05611
G1 X107.043 Y91.919 E.8208
G1 X107.235 Y90.716 E.0382
G1 X107.416 Y90.137 E.01903
G1 X107.713 Y89.573 E.01998
M204 S1000
G1 X108.045 Y89.747 F10800
M204 S800
G1 F1200
G1 X108.153 Y89.542 E.00726
G1 X108.7 Y88.844 E.0278
G1 X109.383 Y88.257 E.02823
G1 X110.096 Y87.861 E.02557
G1 X111.037 Y87.536 E.03124
G1 X111.925 Y87.42 E.02807
G1 X138.086 Y87.421 E.82024
G1 X138.682 Y87.523 E.01897
G1 X139.073 Y87.561 E.01233
G1 X139.593 Y87.722 E.01707
G1 X140.378 Y88.102 E.02734
G1 X141.047 Y88.613 E.02637
G1 X141.465 Y89.045 E.01886
G1 X141.74 Y89.374 E.01346
G1 X142.083 Y89.941 E.02077
G1 X142.414 Y90.832 E.02979
G1 X142.576 Y91.784 E.03027
G1 X142.58 Y118.06 E.82388
G1 X142.481 Y118.878 E.02585
G1 X142.288 Y119.552 E.02196
G1 X142.074 Y120.04 E.01672
G1 X141.82 Y120.505 E.0166
G1 X141.276 Y121.183 E.02726
G1 X140.612 Y121.73 E.02697
G1 X140.142 Y121.966 E.0165
G1 X139.724 Y122.218 E.01528
G1 X138.879 Y122.479 E.02772
G1 X138.125 Y122.583 E.02388
M73 P6 R18
M73 Q6 S18
G1 X111.886 Y122.583 E.82271
G1 X110.958 Y122.445 E.0294
G1 X110.07 Y122.135 E.02952
G1 X109.473 Y121.804 E.0214
G1 X108.896 Y121.353 E.02295
G1 X108.199 Y120.528 E.03387
G1 X107.757 Y119.696 E.02955
G1 X107.42 Y118.078 E.05182
G1 X107.42 Y91.934 E.81972
G1 X107.605 Y90.789 E.03637
G1 X107.758 Y90.296 E.01619
G1 X108.017 Y89.8 E.01755
M204 S1000
G1 X108.35 Y89.975 F10800
M204 S800
G1 F1200
G1 X108.478 Y89.733 E.00857
G1 X108.984 Y89.093 E.02559
G1 X109.612 Y88.557 E.02589
G1 X110.262 Y88.2 E.02326
G1 X111.141 Y87.899 E.02912
G1 X111.937 Y87.797 E.02516
G1 X138.069 Y87.798 E.81935
G1 X138.631 Y87.896 E.01788
G1 X139.017 Y87.934 E.01217
G1 X139.443 Y88.068 E.014
G1 X140.166 Y88.414 E.02513
G1 X140.786 Y88.885 E.02442
G1 X141.189 Y89.302 E.01819
G1 X141.441 Y89.604 E.01234
G1 X141.751 Y90.12 E.01885
G1 X142.054 Y90.945 E.02756
G1 X142.202 Y91.83 E.02814
G1 X142.203 Y118.048 E.82206
G1 X142.109 Y118.817 E.02429
M73 P6 R17
G1 X141.937 Y119.412 E.01942
G1 X141.739 Y119.867 E.01553
G1 X141.497 Y120.308 E.01579
G1 X140.995 Y120.93 E.02506
G1 X140.391 Y121.423 E.02444
G1 X139.962 Y121.635 E.01501
G1 X139.55 Y121.882 E.01506
G1 X138.785 Y122.113 E.02506
G1 X138.112 Y122.206 E.0213
G1 X111.9 Y122.206 E.82186
G1 X111.033 Y122.075 E.0275
G1 X110.211 Y121.785 E.02733
G1 X109.67 Y121.482 E.01943
G1 X109.145 Y121.069 E.02095
G1 X108.501 Y120.302 E.03141
G1 X108.103 Y119.544 E.02682
G1 X107.797 Y118.059 E.04756
G1 X107.797 Y91.95 E.81864
G1 X107.974 Y90.864 E.0345
G1 X108.112 Y90.426 E.01439
G1 X108.322 Y90.028 E.0141
M204 S1000
G1 X108.654 Y90.205 F10800
M204 S800
G1 F1200
G1 X108.802 Y89.926 E.00989
G1 X109.267 Y89.343 E.02338
G1 X109.841 Y88.858 E.02356
G1 X110.4 Y88.551 E.01999
G1 X111.245 Y88.262 E.028
G1 X111.948 Y88.174 E.02224
G1 X138.051 Y88.175 E.81844
G1 X138.581 Y88.271 E.01687
M73 Q6 S17
G1 X138.926 Y88.301 E.01085
G1 X139.293 Y88.414 E.01205
G1 X139.985 Y88.746 E.02407
G1 X140.525 Y89.158 E.02128
G1 X140.913 Y89.559 E.01752
G1 X141.141 Y89.834 E.01119
G1 X141.417 Y90.297 E.0169
G1 X141.693 Y91.056 E.02534
G1 X141.827 Y91.875 E.02602
G1 X141.826 Y118.036 E.82026
G1 X141.736 Y118.756 E.02272
M73 P7 R17
M73 Q7 S17
G1 X141.586 Y119.273 E.01689
G1 X141.397 Y119.708 E.01488
G1 X141.175 Y120.111 E.01443
G1 X140.716 Y120.677 E.02285
G1 X140.173 Y121.115 E.02189
G1 X139.783 Y121.302 E.01353
G1 X139.377 Y121.546 E.01487
G1 X138.693 Y121.747 E.02235
G1 X138.099 Y121.829 E.0188
G1 X111.915 Y121.829 E.821
G1 X111.109 Y121.705 E.02557
G1 X110.354 Y121.435 E.02513
G1 X109.869 Y121.161 E.01746
G1 X109.395 Y120.786 E.01896
G1 X108.804 Y120.077 E.02894
G1 X108.45 Y119.395 E.02409
G1 X108.174 Y118.04 E.04335
G1 X108.174 Y91.965 E.81755
G1 X108.344 Y90.94 E.0326
G1 X108.466 Y90.558 E.01257
G1 X108.626 Y90.258 E.01065
M204 S1000
G1 X108.958 Y90.433 F10800
M204 S800
G1 F1200
G1 X109.108 Y90.147 E.01012
G1 X109.549 Y89.593 E.0222
G1 X110.067 Y89.16 E.02117
G1 X110.564 Y88.891 E.01772
G1 X111.342 Y88.627 E.02573
G1 X111.803 Y88.584 E.01452
G1 X111.973 Y88.551 E.00544
G1 X138.033 Y88.552 E.81711
G1 X138.529 Y88.645 E.01582
G1 X138.872 Y88.675 E.01078
G1 X139.141 Y88.76 E.00887
G1 X139.805 Y89.077 E.02305
G1 X140.263 Y89.43 E.01814
G1 X140.637 Y89.816 E.01687
G1 X140.841 Y90.062 E.01002
G1 X141.083 Y90.472 E.01493
G1 X141.332 Y91.166 E.02312
G1 X141.452 Y91.92 E.02392
G1 X141.449 Y118.024 E.81849
G1 X141.364 Y118.693 E.02114
G1 X141.236 Y119.134 E.01438
G1 X141.055 Y119.549 E.01422
G1 X140.854 Y119.914 E.01304
G1 X140.437 Y120.422 E.0206
G1 X139.956 Y120.806 E.01929
G1 X139.607 Y120.968 E.01207
G1 X139.205 Y121.21 E.01473
G1 X138.604 Y121.381 E.0196
G1 X138.086 Y121.452 E.01637
G1 X111.929 Y121.452 E.82015
G1 X111.218 Y121.344 E.02253
G1 X110.497 Y121.086 E.02402
G1 X110.07 Y120.842 E.01544
G1 X109.646 Y120.504 E.01699
G1 X109.108 Y119.853 E.02647
G1 X108.798 Y119.247 E.02136
G1 X108.551 Y118.022 E.03919
