; generated by PrusaSlicer 2.5.0+win64 on 2022-10-10 at 08:29:00 UTC


;
;
; 

; external perimeters extrusion width = 0.45mm
; perimeters extrusion width = 0.45mm
; infill extrusion width = 0.45mm
; solid infill extrusion width = 0.45mm
; top infill extrusion width = 0.40mm
; first layer extrusion width = 0.42mm

M73 P0 R30
M73 Q0 S30
M201 X1000 Y1000 Z200 E5000 ; sets maximum accelerations, mm/sec^2
M203 X200 Y200 Z12 E120 ; sets maximum feedrates, mm / sec
M204 P1250 R1250 T1250 ; sets acceleration (P, T) and retract acceleration (R), mm/sec^2
M205 X8.00 Y8.00 Z0.40 E4.50 ; sets the jerk limits, mm/sec
M205 S0 T0 ; sets the minimum extruding and travel feed rate, mm/sec
M107
;TYPE:Custom
M862.3 P "MK3S" ; printer model check
M862.1 P0.4 ; nozzle diameter check
M115 U3.11.0 ; tell printer latest fw version
G90 ; use absolute coordinates
M83 ; extruder relative mode
M104 S215 ; set extruder temp
M140 S60 ; set bed temp
M190 S60 ; wait for bed temp
M109 S215 ; wait for extruder temp
G28 W ; home all without mesh bed level
G80 ; mesh bed leveling

G1 Z0.2 F720
G1 Y-3 F1000 ; go outside print area
G92 E0
G1 X60 E9 F1000 ; intro line
G1 X100 E12.5 F1000 ; intro line

G92 E0
M221 S95

; Don't change E values below. Excessive value can damage the printer.
M907 E430 ; set extruder motor current
G21 ; set units to millimeters
G90 ; use absolute coordinates
M83 ; use relative distances for extrusion
M900 K0.05 ; Filament gcode LA 1.5
M900 K30 ; Filament gcode LA 1.0
M107
;LAYER_CHANGE
;Z:0.2
;HEIGHT:0.2
;BEFORE_LAYER_CHANGE
G92 E0.0
;0.2


G1 E-.8 F2100
G1 Z.4 F720
;AFTER_LAYER_CHANGE
;0.2
G1 X114.111 Y90.781 F10800
G1 Z.2 F720
G1 E.8 F2100
M204 S800
;TYPE:Skirt/Brim
;WIDTH:0.42
G1 F1200
G1 X115.162 Y89.657 E.04825
G1 X116.784 Y88.271 E.06691
G1 X118.388 Y87.24 E.05978
G1 X119.541 Y86.661 E.04044
G1 X121.055 Y86.097 E.05066
G1 X123.345 Y85.599 E.0735
G1 X125.368 Y85.503 E.06348
G1 X127.003 Y85.648 E.05147
G1 X128.771 Y86.042 E.05681
G1 X130.459 Y86.661 E.05638
G1 X132.157 Y87.559 E.06022
G1 X133.45 Y88.447 E.04918
G1 X134.838 Y89.657 E.05774
G1 X135.889 Y90.781 E.04825
G1 X136.691 Y91.804 E.04075
G1 X137.67 Y93.295 E.05593
G1 X138.531 Y94.936 E.05809
G1 X139.196 Y96.538 E.05441
G1 X139.698 Y98.085 E.05099
G1 X140.3 Y100.892 E.09001
G1 X140.504 Y102.784 E.05966
G1 X140.765 Y108.866 E.19088
G1 X140.449 Y110.269 E.0451
G1 X138.01 Y114.892 E.16387
G1 X137.001 Y115.962 E.04612
G1 X135.953 Y116.334 E.03485
G1 X132.085 Y116.845 E.12235
G1 X117.888 Y116.845 E.44511
G1 X114.008 Y116.332 E.12274
G1 X112.658 Y115.748 E.04612
G1 X111.946 Y114.88 E.0352
G1 X109.513 Y110.225 E.16469
G1 X109.203 Y108.816 E.04523
G1 X109.496 Y102.784 E.18935
G1 X109.66 Y101.165 E.05102
G1 X109.998 Y99.287 E.05985
G1 X110.384 Y97.8 E.04814
G1 X110.84 Y96.439 E.045
G1 X111.467 Y94.938 E.05103
G1 X112.164 Y93.587 E.04765
G1 X113.234 Y91.906 E.06249
G1 X114.074 Y90.829 E.04283
M204 S1000
G1 X114.371 Y91.06 F10800
M204 S800
G1 F1200
G1 X115.435 Y89.918 E.04894
G1 X116.777 Y88.748 E.05583
G1 X118.559 Y87.576 E.06686
G1 X119.689 Y87.008 E.03968
G1 X121.18 Y86.452 E.04989
G1 X123.397 Y85.973 E.07112
G1 X125.342 Y85.879 E.06103
G1 X126.951 Y86.021 E.05066
G1 X128.669 Y86.405 E.05521
G1 X130.311 Y87.008 E.05482
G1 X131.948 Y87.872 E.05805
G1 X133.223 Y88.748 E.0485
G1 X134.565 Y89.918 E.05583
G1 X135.604 Y91.028 E.04765
G1 X136.393 Y92.036 E.04015
G1 X137.343 Y93.485 E.05433
G1 X138.19 Y95.097 E.0571
G1 X138.838 Y96.658 E.053
G1 X139.332 Y98.178 E.0501
G1 X139.928 Y100.958 E.08915
G1 X140.128 Y102.81 E.05842
G1 X140.388 Y108.882 E.19056
G1 X140.115 Y110.093 E.03892
G1 X137.676 Y114.716 E.16387
G1 X136.72 Y115.689 E.04278
G1 X135.901 Y115.96 E.02704
G1 X132.085 Y116.468 E.12072
G1 X117.888 Y116.468 E.44511
G1 X114.06 Y115.959 E.12111
G1 X112.819 Y115.391 E.04278
G1 X112.28 Y114.705 E.02734
G1 X109.848 Y110.05 E.16469
G1 X109.58 Y108.834 E.03904
G1 X109.872 Y102.81 E.1891
G1 X110.034 Y101.218 E.05019
G1 X110.364 Y99.379 E.05858
G1 X110.746 Y97.906 E.0477
G1 X111.192 Y96.573 E.0441
G1 X111.808 Y95.099 E.05008
G1 X112.498 Y93.763 E.04715
G1 X113.542 Y92.124 E.06093
G1 X114.334 Y91.107 E.04041
M204 S1000
;WIPE_START
G1 F8640
G1 X115.435 Y89.918 E-.37421
G1 X116.695 Y88.821 E-.38579
;WIPE_END
G1 E-.04 F2100
G1 Z.6 F720
G1 X116.433 Y92.751 F10800
G1 Z.2 F720
G1 E.8 F2100
M204 S800
G1 F1200
G1 X117.393 Y91.728 E.04399
G1 X118.478 Y90.802 E.04471
G1 X119.552 Y90.077 E.04064
G1 X120.713 Y89.469 E.04111
G1 X122.016 Y88.981 E.04362
G1 X123.611 Y88.633 E.05119
M73 Q1 S30
G1 X125.219 Y88.54 E.05051
G1 X126.628 Y88.668 E.04435
G1 X127.984 Y88.981 E.04362
G1 X129.25 Y89.452 E.04237
M73 P1 R30
G1 X130.341 Y90.014 E.03847
G1 X131.377 Y90.694 E.03886
G1 X132.545 Y91.67 E.04774
G1 X133.594 Y92.776 E.04779
G1 X134.36 Y93.769 E.03931
G1 X135.036 Y94.816 E.03909
G1 X135.69 Y96.041 E.04352
G1 X136.283 Y97.426 E.04724
G1 X136.754 Y98.845 E.04689
G1 X137.091 Y100.208 E.04403
G1 X137.318 Y101.509 E.04141
G1 X137.458 Y102.818 E.04128
G1 X137.513 Y104.312 E.04687
G1 X137.459 Y105.807 E.04689
G1 X137.311 Y107.184 E.04344
G1 X137.082 Y108.423 E.03948
G1 X137.114 Y108.688 E.00838
G1 X137.09 Y109.455 E.02407
G1 X136.828 Y110.551 E.03533
G1 X135.943 Y112.083 E.05547
G1 X135.404 Y112.607 E.02356
G1 X134.769 Y113.066 E.02457
G1 X133.568 Y113.568 E.0408
G1 X132.27 Y113.772 E.04121
G1 X131.322 Y113.748 E.02976
G1 X130.549 Y113.593 E.02472
G1 X119.65 Y113.583 E.34171
G1 X119.37 Y113.599 E.00879
G1 X118.792 Y113.729 E.01859
G1 X117.974 Y113.784 E.0257
G1 X116.729 Y113.643 E.03929
G1 X115.861 Y113.395 E.02829
G1 X114.75 Y112.749 E.04031
G1 X113.87 Y111.875 E.03889
G1 X113.212 Y110.715 E.0418
G1 X112.888 Y109.502 E.03938
G1 X112.869 Y108.582 E.02883
G1 X112.901 Y108.332 E.00792
G1 X112.681 Y107.123 E.03851
G1 X112.533 Y105.692 E.04512
G1 X112.487 Y104.321 E.04301
G1 X112.532 Y102.96 E.04269
G1 X112.68 Y101.525 E.04522
G1 X112.931 Y100.106 E.04518
G1 X113.277 Y98.741 E.04415
G1 X113.721 Y97.415 E.04385
G1 X114.256 Y96.152 E.04301
G1 X114.892 Y94.939 E.04295
G1 X115.682 Y93.71 E.0458
G1 X116.396 Y92.798 E.03632
M204 S1000
G1 X116.693 Y93.031 F10800
M204 S800
G1 F1200
G1 X117.66 Y91.995 E.04441
G1 X118.714 Y91.096 E.04344
G1 X119.754 Y90.395 E.03931
G1 X120.877 Y89.808 E.03975
G1 X122.135 Y89.339 E.0421
G1 X123.648 Y89.008 E.04856
G1 X125.2 Y88.916 E.04874
G1 X126.556 Y89.039 E.04271
G1 X127.864 Y89.339 E.04207
G1 X129.088 Y89.793 E.04092
G1 X130.16 Y90.344 E.0378
G1 X131.161 Y91.003 E.03757
G1 X132.279 Y91.938 E.04571
G1 X133.301 Y93.014 E.04655
G1 X134.047 Y93.981 E.03827
G1 X134.715 Y95.014 E.03859
G1 X135.353 Y96.211 E.04253
G1 X135.927 Y97.553 E.04575
G1 X136.39 Y98.943 E.04595
G1 X136.721 Y100.28 E.04317
G1 X136.943 Y101.556 E.04061
G1 X137.082 Y102.852 E.04087
G1 X137.136 Y104.319 E.04604
G1 X137.084 Y105.773 E.04562
G1 X136.937 Y107.137 E.043
G1 X136.701 Y108.413 E.04068
G1 X136.737 Y108.694 E.00889
G1 X136.719 Y109.387 E.02175
G1 X136.467 Y110.437 E.03383
G1 X135.661 Y111.831 E.0505
G1 X135.152 Y112.327 E.0223
G1 X134.567 Y112.747 E.02255
G1 X133.446 Y113.21 E.03805
G1 X132.231 Y113.397 E.03855
G1 X131.349 Y113.372 E.02765
G1 X130.587 Y113.216 E.02438
G1 X119.64 Y113.206 E.34324
G1 X119.317 Y113.224 E.01014
G1 X118.752 Y113.354 E.0182
G1 X117.966 Y113.406 E.02467
G1 X116.788 Y113.27 E.03718
G1 X115.989 Y113.039 E.0261
G1 X114.997 Y112.463 E.03597
G1 X114.183 Y111.664 E.03574
G1 X113.569 Y110.592 E.03873
G1 X113.265 Y109.47 E.03646
G1 X113.246 Y108.59 E.0276
G1 X113.283 Y108.324 E.00842
G1 X113.055 Y107.077 E.03975
G1 X112.909 Y105.672 E.04428
G1 X112.864 Y104.327 E.04222
G1 X112.908 Y102.992 E.04188
G1 X113.053 Y101.584 E.04438
G1 X113.298 Y100.192 E.04431
G1 X113.636 Y98.854 E.04326
G1 X114.077 Y97.542 E.0434
G1 X114.601 Y96.307 E.04208
G1 X115.222 Y95.122 E.04196
G1 X115.985 Y93.936 E.0442
G1 X116.656 Y93.078 E.03417
M204 S1000
G1 X116.953 Y93.31 F10800
M204 S800
G1 F1200
G1 X117.06 Y93.173 E.00545
G1 X117.926 Y92.262 E.03941
G1 X118.95 Y91.391 E.04217
G1 X119.955 Y90.714 E.03798
G1 X121.041 Y90.148 E.03839
G1 X122.254 Y89.697 E.04058
G1 X123.714 Y89.38 E.04684
G1 X125.18 Y89.293 E.04606
G1 X126.485 Y89.409 E.04107
G1 X127.745 Y89.697 E.04052
G1 X128.926 Y90.134 E.03947
G1 X129.961 Y90.665 E.03649
G1 X130.944 Y91.312 E.03691
G1 X132.029 Y92.22 E.04435
G1 X133.009 Y93.252 E.04463
G1 X133.744 Y94.205 E.03772
G1 X134.394 Y95.212 E.03759
G1 X135.016 Y96.381 E.04153
G1 X135.578 Y97.694 E.04475
G1 X136.025 Y99.041 E.04452
G1 X136.35 Y100.351 E.04232
G1 X136.571 Y101.614 E.04021
G1 X136.706 Y102.885 E.04008
G1 X136.759 Y104.313 E.04478
G1 X136.708 Y105.74 E.04477
G1 X136.563 Y107.089 E.04256
G1 X136.319 Y108.405 E.04194
G1 X136.359 Y108.7 E.00936
G1 X136.342 Y109.357 E.0206
G1 X136.108 Y110.321 E.0311
G1 X135.379 Y111.579 E.04557
G1 X134.899 Y112.047 E.02103
G1 X134.367 Y112.427 E.02051
G1 X133.325 Y112.853 E.03528
G1 X132.193 Y113.021 E.0359
G1 X131.378 Y112.995 E.02555
G1 X130.627 Y112.839 E.02407
G1 X119.63 Y112.829 E.3448
G1 X119.263 Y112.849 E.01152
G1 X118.709 Y112.979 E.01784
G1 X117.992 Y113.03 E.02255
G1 X116.848 Y112.898 E.03611
G1 X116.118 Y112.684 E.02385
G1 X115.208 Y112.15 E.03308
G1 X114.498 Y111.454 E.03117
G1 X113.909 Y110.426 E.03715
G1 X113.641 Y109.439 E.03205
G1 X113.624 Y108.599 E.02635
G1 X113.665 Y108.319 E.00889
G1 X113.429 Y107.031 E.04105
G1 X113.286 Y105.653 E.04343
G1 X113.241 Y104.333 E.04142
G1 X113.284 Y103.024 E.04106
G1 X113.427 Y101.629 E.04396
G1 X113.668 Y100.264 E.04346
G1 X114 Y98.954 E.04238
G1 X114.432 Y97.669 E.0425
G1 X114.945 Y96.461 E.04115
G1 X115.552 Y95.304 E.04098
G1 X116.287 Y94.161 E.04261
G1 X116.916 Y93.357 E.03201
M204 S1000
G1 X117.213 Y93.589 F10800
M204 S800
G1 F1200
G1 X117.351 Y93.412 E.00704
G1 X118.192 Y92.53 E.03823
G1 X119.186 Y91.685 E.0409
G1 X120.157 Y91.033 E.03665
G1 X121.204 Y90.488 E.03703
G1 X122.373 Y90.055 E.03906
G1 X123.751 Y89.755 E.04424
G1 X125.162 Y89.67 E.04431
G1 X126.414 Y89.78 E.03942
G1 X127.626 Y90.055 E.03897
G1 X128.764 Y90.474 E.03801
G1 X129.78 Y90.996 E.0358
G1 X130.728 Y91.621 E.0356
G1 X131.778 Y92.502 E.04299
G1 X132.716 Y93.491 E.04273
G1 X133.431 Y94.416 E.03667
G1 X134.073 Y95.41 E.03709
G1 X134.68 Y96.551 E.04054
G1 X135.222 Y97.82 E.04327
G1 X135.661 Y99.139 E.04359
G1 X135.98 Y100.423 E.04146
G1 X136.196 Y101.661 E.03941
G1 X136.331 Y102.919 E.03968
G1 X136.382 Y104.32 E.04394
G1 X136.332 Y105.706 E.04349
G1 X136.188 Y107.042 E.04213
G1 X135.936 Y108.398 E.04327
G1 X135.982 Y108.708 E.0098
G1 X135.966 Y109.326 E.0194
G1 X135.748 Y110.204 E.02835
G1 X135.097 Y111.327 E.04072
G1 X134.667 Y111.749 E.01886
G1 X134.166 Y112.107 E.01932
G1 X133.206 Y112.494 E.03246
G1 X132.156 Y112.645 E.03325
G1 X131.409 Y112.619 E.02346
G1 X130.667 Y112.462 E.02378
G1 X119.62 Y112.452 E.34637
G1 X119.208 Y112.475 E.01292
G1 X118.665 Y112.604 E.01751
G1 X118.017 Y112.653 E.02039
G1 X116.907 Y112.525 E.03501
G1 X116.248 Y112.33 E.02157
G1 X115.42 Y111.837 E.03021
G1 X114.812 Y111.244 E.02664
G1 X114.248 Y110.26 E.03556
G1 X114.018 Y109.408 E.02765
G1 X114.001 Y108.609 E.02507
G1 X114.048 Y108.315 E.00933
G1 X113.804 Y106.984 E.04242
G1 X113.663 Y105.633 E.04259
G1 X113.618 Y104.339 E.04062
G1 X113.66 Y103.043 E.04065
G1 X113.802 Y101.675 E.04312
G1 X114.035 Y100.35 E.04217
G1 X114.36 Y99.067 E.04149
G1 X114.782 Y97.81 E.04159
G1 X115.282 Y96.63 E.04018
G1 X115.882 Y95.487 E.04047
G1 X116.589 Y94.387 E.04101
G1 X117.176 Y93.636 E.02986
M204 S1000
G1 X117.473 Y93.868 F10800
M204 S800
G1 F1200
G1 X117.631 Y93.666 E.00805
G1 X118.458 Y92.797 E.03762
G1 X119.422 Y91.98 E.03962
G1 X120.358 Y91.352 E.03532
G1 X121.367 Y90.828 E.03566
G1 X122.49 Y90.414 E.03754
G1 X123.817 Y90.127 E.04254
G1 X125.143 Y90.047 E.04167
G1 X126.344 Y90.15 E.03779
G1 X127.508 Y90.413 E.03741
G1 X128.602 Y90.815 E.03655
G1 X129.581 Y91.316 E.03447
G1 X130.511 Y91.93 E.03494
G1 X131.512 Y92.769 E.04097
G1 X132.424 Y93.729 E.0415
G1 X133.128 Y94.64 E.03611
G1 X133.751 Y95.607 E.03608
G1 X134.343 Y96.721 E.03954
G1 X134.872 Y97.961 E.04228
G1 X135.297 Y99.238 E.04218
G1 X135.61 Y100.494 E.0406
G1 X135.824 Y101.719 E.039
G1 X135.955 Y102.952 E.03888
G1 X136.005 Y104.313 E.04269
G1 X135.957 Y105.672 E.04264
G1 X135.814 Y106.994 E.04168
G1 X135.554 Y108.394 E.04465
G1 X135.604 Y108.716 E.01022
G1 X135.589 Y109.295 E.01816
G1 X135.389 Y110.086 E.02556
G1 X134.815 Y111.076 E.0359
G1 X134.414 Y111.469 E.01758
G1 X133.967 Y111.786 E.01719
G1 X133.089 Y112.135 E.02964
G1 X132.122 Y112.27 E.03061
G1 X131.44 Y112.243 E.02138
G1 X130.708 Y112.085 E.02351
G1 X119.609 Y112.075 E.34797
G1 X119.153 Y112.1 E.01435
G1 X118.621 Y112.229 E.01716
G1 X118.007 Y112.275 E.01931
M73 Q2 S30
G1 X116.969 Y112.153 E.03277
G1 X116.38 Y111.976 E.01927
G1 X115.633 Y111.526 E.02734
G1 X115.126 Y111.033 E.02217
G1 X114.587 Y110.093 E.03396
G1 X114.394 Y109.378 E.02324
G1 X114.378 Y108.62 E.02376
M73 P2 R30
G1 X114.431 Y108.314 E.00974
G1 X114.178 Y106.938 E.04388
G1 X114.039 Y105.614 E.04173
G1 X113.995 Y104.332 E.04021
G1 X114.037 Y103.062 E.03985
G1 X114.176 Y101.72 E.04229
G1 X114.405 Y100.423 E.04132
G1 X114.724 Y99.167 E.04063
G1 X115.132 Y97.95 E.04024
G1 X115.62 Y96.798 E.03922
G1 X116.212 Y95.67 E.03997
G1 X116.892 Y94.612 E.03943
G1 X117.436 Y93.915 E.0277
M204 S1000
G1 X117.733 Y94.147 F10800
M204 S800
G1 F1200
G1 X117.91 Y93.919 E.00906
G1 X118.724 Y93.064 E.037
G1 X119.657 Y92.274 E.03834
G1 X120.558 Y91.672 E.03399
G1 X121.53 Y91.169 E.0343
G1 X122.608 Y90.772 E.03602
G1 X123.854 Y90.502 E.03997
G1 X125.125 Y90.424 E.03993
G1 X126.274 Y90.521 E.03615
G1 X127.39 Y90.772 E.03586
G1 X128.441 Y91.156 E.03508
G1 X129.4 Y91.647 E.03377
G1 X130.294 Y92.238 E.03361
G1 X131.262 Y93.051 E.03962
G1 X132.131 Y93.967 E.03961
G1 X132.815 Y94.851 E.03505
G1 X133.43 Y95.805 E.03557
G1 X134.006 Y96.891 E.03854
G1 X134.517 Y98.088 E.04081
G1 X134.933 Y99.336 E.04125
G1 X135.24 Y100.566 E.03974
G1 X135.45 Y101.766 E.03819
G1 X135.58 Y102.986 E.03847
G1 X135.628 Y104.32 E.04186
G1 X135.581 Y105.639 E.04137
G1 X135.442 Y106.936 E.0409
G1 X135.239 Y108.089 E.03671
G1 X135.167 Y108.375 E.00925
G1 X135.227 Y108.726 E.01115
G1 X135.213 Y109.263 E.01686
G1 X135.031 Y109.966 E.02275
G1 X134.532 Y110.826 E.03119
G1 X134.183 Y111.17 E.01535
G1 X133.768 Y111.464 E.01596
G1 X132.973 Y111.775 E.02676
G1 X132.088 Y111.894 E.028
G1 X131.504 Y111.871 E.01833
G1 X130.748 Y111.708 E.02425
G1 X119.599 Y111.698 E.34956
G1 X119.096 Y111.725 E.0158
G1 X118.574 Y111.855 E.01686
G1 X118.032 Y111.899 E.01706
G1 X117.03 Y111.78 E.03163
G1 X116.514 Y111.622 E.01693
G1 X115.847 Y111.215 E.0245
G1 X115.439 Y110.822 E.01776
G1 X114.927 Y109.927 E.03234
G1 X114.771 Y109.347 E.01883
G1 X114.756 Y108.633 E.0224
G1 X114.815 Y108.315 E.01012
G1 X114.552 Y106.891 E.04542
G1 X114.416 Y105.594 E.04088
G1 X114.372 Y104.338 E.0394
G1 X114.414 Y103.081 E.03944
G1 X114.55 Y101.766 E.04145
G1 X114.775 Y100.495 E.04047
G1 X115.087 Y99.266 E.03976
G1 X115.482 Y98.09 E.0389
G1 X115.957 Y96.966 E.03825
G1 X116.542 Y95.852 E.03946
G1 X117.195 Y94.837 E.03785
G1 X117.696 Y94.194 E.02555
M204 S1000
G1 X117.993 Y94.425 F10800
M204 S800
G1 F1200
G1 X118.19 Y94.172 E.01005
G1 X118.99 Y93.332 E.03638
G1 X119.892 Y92.569 E.03704
G1 X120.759 Y91.991 E.03266
G1 X121.692 Y91.509 E.03294
G1 X122.726 Y91.131 E.03451
G1 X123.892 Y90.878 E.03743
G1 X125.108 Y90.801 E.0382
G1 X126.205 Y90.892 E.0345
G1 X127.273 Y91.13 E.0343
G1 X128.28 Y91.497 E.03361
G1 X129.201 Y91.968 E.03242
G1 X130.077 Y92.547 E.03294
G1 X130.996 Y93.318 E.03761
M73 P2 R29
G1 X131.839 Y94.206 E.03838
G1 X132.512 Y95.075 E.03449
G1 X133.109 Y96.002 E.03455
G1 X133.669 Y97.06 E.03754
G1 X134.167 Y98.228 E.03982
G1 X134.569 Y99.434 E.03985
G1 X134.869 Y100.638 E.03888
G1 X135.077 Y101.824 E.03778
G1 X135.204 Y103.019 E.03767
G1 X135.251 Y104.313 E.04061
G1 X135.205 Y105.605 E.04053
G1 X135.069 Y106.877 E.04009
G1 X134.868 Y108.017 E.03629
G1 X134.782 Y108.363 E.01121
G1 X134.85 Y108.736 E.01189
G1 X134.837 Y109.231 E.0155
G1 X134.674 Y109.844 E.01989
G1 X134.249 Y110.575 E.02652
G1 X133.93 Y110.891 E.01406
G1 X133.57 Y111.143 E.01376
G1 X132.901 Y111.405 E.02255
