; Generated with MatterSlice 2.22.04
; filamentDiameter = 1.75
; extrusionWidth = 0.4
; firstLayerExtrusionWidth = 0.4
; layerThickness = 0.2
; firstLayerThickness = 0.2
; automatic settings before start_gcode
G21 ; set units to millimeters
M107 ; fan off
T0 ; set the active extruder to 0
; settings from start_gcode
M104 S200
M140 S60
G28 W       ; Home without mesh level
G0 Z5 F5000
M117 Heating
M109 S200
M190 S60
G80         ; Probe
; Priming Line
G0 Y-3 F10800
G92 E0.0
G1 X60 E9 F1000
G1 X100 E12.5
G92 E0.0
M117 Printing
; automatic settings after start_gcode
T0 ; set the active extruder to 0
G90 ; use absolute coordinates
G92 E0 ; reset the expected extruder position
M82 ; use absolute distance for extrusion
; Layer count: 250
; Layer Change GCode
; LAYER:0
; LAYER_HEIGHT:0.2
; TYPE:FILL
M400
M107
G0 X201.3 Y46.8 Z0.8 F10800
; TYPE:SKIRT
G0 Z0.2
G0 F2100
G1 X174.3 E0.853 F1200
G1 Y124.8 E3.318
G1 X85.2 E6.133
G1 Y11.2 E9.722
G1 X201.3 E13.391
G1 Y46.8 E14.516
G0 X200.9 Y46.4 F10800
G1 X173.9 E15.369 F1200
G1 Y124.4 E17.833
G1 X85.6 E20.623
G1 Y11.6 E24.188
G1 X200.9 E27.831
G1 Y46.4 E28.93
G0 X200.5 Y46 F10800
G1 X173.5 E29.783 F1200
G1 Y124 E32.248
G1 X86 E35.013
G1 Y12 E38.552
G1 X200.5 E42.17
G1 Y46 E43.244
G0 X200.1 Y45.6 F10800
G1 X173.1 E44.097 F1200
G1 Y123.6 E46.562
G1 X86.4 E49.301
G1 Y12.4 E52.815
G1 X200.1 E56.407
G1 Y45.6 E57.456
G0 X199.7 Y45.2 F10800
G1 X172.7 E58.309 F1200
G1 Y123.2 E60.774
G1 X86.8 E63.488
G1 Y12.8 E66.976
G1 X199.7 E70.544
G1 Y45.2 E71.568
G0 X199.3 Y44.8 F10800
G1 X172.3 E72.421 F1200
G1 Y122.8 E74.885
G1 X87.2 E77.574
G1 Y13.2 E81.037
G1 X199.3 E84.579
G1 Y44.8 E85.578
G0 X198.9 Y44.4 F10800
G1 X171.9 E86.431 F1200
G1 Y122.4 E88.895
G1 X87.6 E91.559
G1 Y13.6 E94.997
G1 X198.9 E98.514
G1 Y44.4 E99.487
G0 X198.5 Y44 F10800
G1 X171.5 E100.34 F1200
G1 Y122 E102.804
G1 X88 E105.443
G1 Y14 E108.855
G1 X198.5 E112.347
G1 Y44 E113.295
G0 X198.1 Y43.6 F10800
G1 X171.1 E114.148 F1200
G1 Y121.6 E116.612
G1 X88.4 E119.225
G1 Y14.4 E122.613
G1 X198.1 E126.079
G1 Y43.6 E127.002
G0 X197.7 Y43.2 F10800
G1 X170.7 E127.855 F1200
G1 Y121.2 E130.319
G1 X88.8 E132.907
G1 Y14.8 E136.269
G1 X197.7 E139.71
G1 Y43.2 E140.607
G0 X197.3 Y42.8 F10800
G1 X170.3 E141.46 F1200
G1 Y120.8 E143.925
G1 X89.2 E146.487
G1 Y15.2 E149.824
G1 X197.3 E153.24
G1 Y42.8 E154.112
G0 X196.9 Y42.4 F10800
G1 X169.9 E154.965 F1200
G1 Y120.4 E157.43
G1 X89.6 E159.967
G1 Y15.6 E163.278
G1 X196.9 E166.669
G1 Y42.4 E167.515
G0 X196.5 Y42 F10800
G1 X169.5 E168.368 F1200
G1 Y120 E170.833
G1 X90 E173.345
G1 Y16 E176.631
G1 X196.5 E179.996
G1 Y42 E180.818
G0 X196.1 Y41.6 F10800
G1 X169.1 E181.671 F1200
G1 Y119.6 E184.135
G1 X90.4 E186.622
G1 Y16.4 E189.883
G1 X196.1 E193.223
G1 Y41.6 E194.019
G0 X195.7 Y41.2 F10800
G1 X168.7 E194.872 F1200
G1 Y119.2 E197.337
G1 X90.8 E199.798
G1 Y16.8 E203.034
G1 X195.7 E206.348
G1 Y41.2 E207.119
G0 X195.3 Y40.8 F10800
G1 X168.3 E207.972 F1200
G1 Y118.8 E210.437
G1 X91.2 E212.873
G1 Y17.2 E216.083
G1 X195.3 E219.373
G1 Y40.8 E220.118
G0 X194.9 Y40.4 F10800
G1 X167.9 E220.971 F1200
G1 Y118.4 E223.436
G1 X91.6 E225.847
G1 Y17.6 E229.032
G1 X194.9 E232.296
G1 Y40.4 E233.016
G0 X194.5 Y40 F10800
G1 X167.5 E233.869 F1200
G1 Y118 E236.334
G1 X92 E238.719
G1 Y18 E241.879
G1 X194.5 E245.118
G1 Y40 E245.813
G0 X194.1 Y39.6 F10800
G1 X167.1 E246.666 F1200
G1 Y117.6 E249.131
G1 X92.4 E251.491
G1 Y18.4 E254.625
G1 X194.1 E257.839
G1 Y39.6 E258.509
G0 X193.7 Y39.2 F10800
G1 X166.7 E259.362 F1200
G1 Y117.2 E261.826
G1 X92.8 E264.161
G1 Y18.8 E267.271
G1 X193.7 E270.459
G1 Y39.2 E271.103
G1 E270.303 F2100
G0 Z0.8
G0 X192.28 Y38.06 F10800
G0 X165.5 Y38
; TYPE:WALL-INNER
G0 Z0.2
G1 E271.103 F2100
G1 Y116 E273.568 F1200
G1 X94 E275.827
G1 Y20 E278.86
G1 X192.5 E281.973
G1 Y38 E282.542
G1 X165.62 E283.391
G0 X165.5
G0 X166.3 Y38.8 F10800
; TYPE:WALL-OUTER
G1 Y116.8 E285.855 F1200
G1 X93.2 E288.165
G1 Y19.2 E291.249
G1 X193.3 E294.412
G1 Y38.8 E295.031
G1 X166.42 E295.881
G0 X166.3
G0 Y41.8
G0 X165.9 Y38.4 F10800
; TYPE:WALL-INNER
G1 Y116.4 E298.345 F1200
G1 X93.6 E300.63
G1 Y19.6 E303.688
G1 X192.9 E306.826
G1 Y38.4 E307.42
G1 X166.02 E308.269
G0 X165.9
G1 E307.469 F2100
G0 Z0.8
G0 X94.53 Y20.3 F10800
; TYPE:BOTTOM-FILL
G0 Z0.2
G1 E308.269 F2100
G1 X94.3 Y20.54 E308.28 F1200
G0 Y21.1 F10800
G1 X95.1 Y20.3 E308.315 F1200
G0 X95.67 F10800
G1 X94.3 Y21.67 E308.376 F1200
G0 Y22.23 F10800
G1 X96.23 Y20.3 E308.463 F1200
G0 X96.8 F10800
G1 X94.3 Y22.8 E308.574 F1200
G0 Y23.36 F10800
G1 X97.36 Y20.3 E308.711 F1200
G0 X97.93 F10800
G1 X94.3 Y23.93 E308.873 F1200
G0 Y24.49 F10800
G1 X98.49 Y20.3 E309.061 F1200
G0 X99.06 F10800
G1 X94.3 Y25.06 E309.273 F1200
G0 Y25.63 F10800
G1 X99.62 Y20.3 E309.511 F1200
G0 X100.19 F10800
G1 X94.3 Y26.19 E309.775 F1200
G0 Y26.76 F10800
G1 X100.76 Y20.3 E310.063 F1200
G0 X101.32 F10800
G1 X94.3 Y27.32 E310.377 F1200
G0 Y27.89 F10800
G1 X101.89 Y20.3 E310.716 F1200
G0 X102.45 F10800
G1 X94.3 Y28.45 E311.08 F1200
G0 Y29.02 F10800
G1 X103.02 Y20.3 E311.47 F1200
G0 X103.58 F10800
G1 X94.3 Y29.59 E311.885 F1200
G0 Y30.15 F10800
G1 X104.15 Y20.3 E312.325 F1200
G0 X104.72 F10800
G1 X94.3 Y30.72 E312.791 F1200
G0 Y31.28 F10800
G1 X105.28 Y20.3 E313.281 F1200
G0 X105.85 F10800
G1 X94.3 Y31.85 E313.797 F1200
G0 Y32.41 F10800
G1 X106.41 Y20.3 E314.339 F1200
G0 X106.98 F10800
G1 X94.3 Y32.98 E314.905 F1200
G0 Y33.55 F10800
G1 X107.54 Y20.3 E315.497 F1200
G0 X108.11 F10800
G1 X94.3 Y34.11 E316.114 F1200
G0 Y34.68 F10800
G1 X108.68 Y20.3 E316.757 F1200
G0 X109.24 F10800
G1 X94.3 Y35.24 E317.424 F1200
G0 Y35.81 F10800
G1 X109.81 Y20.3 E318.117 F1200
G0 X110.37 F10800
G1 X94.3 Y36.37 E318.836 F1200
G0 Y36.94 F10800
G1 X110.94 Y20.3 E319.579 F1200
G0 X111.5 F10800
G1 X94.3 Y37.51 E320.348 F1200
G0 Y38.07 F10800
G1 X112.07 Y20.3 E321.142 F1200
G0 X112.64 F10800
G1 X94.3 Y38.64 E321.962 F1200
G0 Y39.2 F10800
G1 X113.2 Y20.3 E322.806 F1200
G0 X113.77 F10800
G1 X94.3 Y39.77 E323.676 F1200
G0 Y40.33 F10800
G1 X114.33 Y20.3 E324.571 F1200
G0 X114.9 F10800
G1 X94.3 Y40.9 E325.492 F1200
G0 Y41.47 F10800
G1 X115.46 Y20.3 E326.438 F1200
G0 X116.03 F10800
G1 X94.3 Y42.03 E327.409 F1200
G0 Y42.6 F10800
G1 X116.6 Y20.3 E328.405 F1200
G0 X117.16 F10800
G1 X94.3 Y43.16 E329.426 F1200
G0 Y43.73 F10800
G1 X117.73 Y20.3 E330.473 F1200
G0 X118.29 F10800
G1 X94.3 Y44.29 E331.545 F1200
G0 Y44.86 F10800
G1 X118.86 Y20.3 E332.643 F1200
G0 X119.42 F10800
G1 X94.3 Y45.43 E333.766 F1200
G0 Y45.99 F10800
G1 X119.99 Y20.3 E334.913 F1200
G0 X120.56 F10800
G1 X94.3 Y46.56 E336.087 F1200
G0 Y47.12 F10800
G1 X121.12 Y20.3 E337.285 F1200
G0 X121.69 F10800
G1 X94.3 Y47.69 E338.509 F1200
G0 Y48.25 F10800
G1 X122.25 Y20.3 E339.758 F1200
G0 X122.82 F10800
G1 X94.3 Y48.82 E341.033 F1200
G0 Y49.39 F10800
G1 X123.38 Y20.3 E342.332 F1200
G0 X123.95 F10800
G1 X94.3 Y49.95 E343.657 F1200
G0 Y50.52 F10800
G1 X124.52 Y20.3 E345.007 F1200
G0 X125.08 F10800
G1 X94.3 Y51.08 E346.383 F1200
G0 Y51.65 F10800
G1 X125.65 Y20.3 E347.784 F1200
G0 X126.21 F10800
G1 X94.3 Y52.21 E349.21 F1200
G0 Y52.78 F10800
G1 X126.78 Y20.3 E350.661 F1200
G0 X127.34 F10800
G1 X94.3 Y53.34 E352.137 F1200
G0 Y53.91 F10800
G1 X127.91 Y20.3 E353.639 F1200
G0 X128.47 F10800
G1 X94.3 Y54.48 E355.166 F1200
G0 Y55.04 F10800
G1 X129.04 Y20.3 E356.719 F1200
G0 X129.61 F10800
G1 X94.3 Y55.61 E358.297 F1200
G0 Y56.17 F10800
G1 X130.17 Y20.3 E359.899 F1200
G0 X130.74 F10800
G1 X94.3 Y56.74 E361.528 F1200
G0 Y57.3 F10800
G1 X131.3 Y20.3 E363.181 F1200
G0 X131.87 F10800
G1 X94.3 Y57.87 E364.86 F1200
G0 Y58.44 F10800
G1 X132.43 Y20.3 E366.564 F1200
G0 X133 F10800
G1 X94.3 Y59 E368.294 F1200
G0 Y59.57 F10800
G1 X133.57 Y20.3 E370.048 F1200
G0 X134.13 F10800
G1 X94.3 Y60.13 E371.828 F1200
G0 Y60.7 F10800
G1 X134.7 Y20.3 E373.633 F1200
G0 X135.26 F10800
G1 X94.3 Y61.26 E375.464 F1200
G0 Y61.83 F10800
G1 X135.83 Y20.3 E377.319 F1200
G0 X136.39 F10800
G1 X94.3 Y62.4 E379.201 F1200
G0 Y62.96 F10800
G1 X136.96 Y20.3 E381.107 F1200
G0 X137.53 F10800
G1 X94.3 Y63.53 E383.038 F1200
G0 Y64.09 F10800
G1 X138.09 Y20.3 E384.995 F1200
G0 X138.66 F10800
G1 X94.3 Y64.66 E386.977 F1200
G0 Y65.22 F10800
G1 X139.22 Y20.3 E388.985 F1200
G0 X139.79 F10800
G1 X94.3 Y65.79 E391.017 F1200
G0 Y66.36 F10800
G1 X140.35 Y20.3 E393.075 F1200
G0 X140.92 F10800
G1 X94.3 Y66.92 E395.159 F1200
G0 Y67.49 F10800
G1 X141.49 Y20.3 E397.267 F1200
G0 X142.05 F10800
G1 X94.3 Y68.05 E399.401 F1200
G0 Y68.62 F10800
G1 X142.62 Y20.3 E401.56 F1200
G0 X143.18 F10800
G1 X94.3 Y69.18 E403.744 F1200
G0 Y69.75 F10800
G1 X143.75 Y20.3 E405.954 F1200
G0 X144.31 F10800
G1 X94.3 Y70.31 E408.189 F1200
G0 Y70.88 F10800
G1 X144.88 Y20.3 E410.449 F1200
G0 X145.45 F10800
G1 X94.3 Y71.45 E412.735 F1200
G0 Y72.01 F10800
G1 X146.01 Y20.3 E415.045 F1200
G0 X146.58 F10800
G1 X94.3 Y72.58 E417.381 F1200
G0 Y73.14 F10800
G1 X147.14 Y20.3 E419.743 F1200
G0 X147.71 F10800
G1 X94.3 Y73.71 E422.129 F1200
G0 Y74.27 F10800
G1 X148.27 Y20.3 E424.541 F1200
G0 X148.84 F10800
G1 X94.3 Y74.84 E426.978 F1200
G0 Y75.41 F10800
G1 X149.41 Y20.3 E429.441 F1200
G0 X149.97 F10800
G1 X94.3 Y75.97 E431.928 F1200
G0 Y76.54 F10800
G1 X150.54 Y20.3 E434.441 F1200
G0 X151.1 F10800
G1 X94.3 Y77.1 E436.979 F1200
G0 Y77.67 F10800
G1 X151.67 Y20.3 E439.543 F1200
G0 X152.23 F10800
G1 X94.3 Y78.23 E442.132 F1200
G0 Y78.8 F10800
G1 X152.8 Y20.3 E444.746 F1200
G0 X153.37 F10800
G1 X94.3 Y79.37 E447.385 F1200
G0 Y79.93 F10800
G1 X153.93 Y20.3 E450.05 F1200
G0 X154.5 F10800
G1 X94.3 Y80.5 E452.74 F1200
G0 Y81.06 F10800
G1 X155.06 Y20.3 E455.455 F1200
G0 X155.63 F10800
G1 X94.3 Y81.63 E458.195 F1200
G0 Y82.19 F10800
G1 X156.19 Y20.3 E460.961 F1200
G0 X156.76 F10800
G1 X94.3 Y82.76 E463.752 F1200
G0 Y83.33 F10800
G1 X157.32 Y20.3 E466.568 F1200
G0 X157.89 F10800
G1 X94.3 Y83.89 E469.41 F1200
G0 Y84.46 F10800
G1 X158.46 Y20.3 E472.277 F1200
G0 X159.02 F10800
G1 X94.3 Y85.02 E475.169 F1200
G0 Y85.59 F10800
G1 X159.59 Y20.3 E478.086 F1200
G0 X160.15 F10800
G1 X94.3 Y86.15 E481.029 F1200
G0 Y86.72 F10800
G1 X160.72 Y20.3 E483.997 F1200
G0 X161.28 F10800
G1 X94.3 Y87.29 E486.99 F1200
G0 Y87.85 F10800
G1 X161.85 Y20.3 E490.009 F1200
G0 X162.42 F10800
G1 X94.3 Y88.42 E493.052 F1200
G0 Y88.98 F10800
G1 X162.98 Y20.3 E496.121 F1200
G0 X163.55 F10800
G1 X94.3 Y89.55 E499.216 F1200
G0 Y90.11 F10800
G1 X164.11 Y20.3 E502.335 F1200
G0 X164.68 F10800
G1 X94.3 Y90.68 E505.48 F1200
G0 Y91.25 F10800
G1 X165.24 Y20.3 E508.65 F1200
G0 X165.81 F10800
G1 X94.3 Y91.81 E511.846 F1200
G0 Y92.38 F10800
G1 X166.38 Y20.3 E515.067 F1200
G0 X166.94 F10800
G1 X94.3 Y92.94 E518.313 F1200
G0 Y93.51 F10800
G1 X167.51 Y20.3 E521.584 F1200
G0 X168.07 F10800
G1 X94.3 Y94.07 E524.88 F1200
G0 Y94.64 F10800
G1 X168.64 Y20.3 E528.202 F1200
G0 X169.2 F10800
G1 X94.3 Y95.2 E531.549 F1200
G0 Y95.77 F10800
G1 X169.77 Y20.3 E534.922 F1200
G0 X170.34 F10800
G1 X94.3 Y96.34 E538.319 F1200
G0 Y96.9 F10800
G1 X170.9 Y20.3 E541.742 F1200
G0 X171.47 F10800
G1 X94.3 Y97.47 E545.191 F1200
G0 Y98.03 F10800
G1 X172.03 Y20.3 E548.664 F1200
G0 X172.6 F10800
G1 X94.3 Y98.6 E552.163 F1200
G0 Y99.16 F10800
G1 X173.16 Y20.3 E555.687 F1200
G0 X173.73 F10800
G1 X94.3 Y99.73 E559.236 F1200
G0 Y100.3 F10800
G1 X174.3 Y20.3 E562.811 F1200
G0 X174.86 F10800
G1 X94.3 Y100.86 E566.411 F1200
G0 Y101.43 F10800
G1 X175.43 Y20.3 E570.036 F1200
G0 X175.99 F10800
G1 X94.3 Y101.99 E573.687 F1200
G0 Y102.56 F10800
G1 X176.56 Y20.3 E577.362 F1200
G0 X177.12 F10800
G1 X94.3 Y103.12 E581.063 F1200
G0 Y103.69 F10800
G1 X177.69 Y20.3 E584.79 F1200
G0 X178.26 F10800
G1 X94.3 Y104.26 E588.541 F1200
G0 Y104.82 F10800
G1 X178.82 Y20.3 E592.318 F1200
G0 X179.39 F10800
G1 X94.3 Y105.39 E596.12 F1200
G0 Y105.95 F10800
G1 X179.95 Y20.3 E599.947 F1200
G0 X180.52 F10800
G1 X94.3 Y106.52 E603.8 F1200
G0 Y107.08 F10800
G1 X181.08 Y20.3 E607.678 F1200
G0 X181.65 F10800
G1 X94.3 Y107.65 E611.581 F1200
G0 Y108.22 F10800
G1 X182.22 Y20.3 E615.51 F1200
G1 E614.71 F2100
G0 Z0.8
G0 X165.2 Y37.88 F10800
G0 Z0.2
G1 E615.51 F2100
G1 X94.3 Y108.78 E618.678 F1200
G0 Y109.35 F10800
G1 X165.2 Y38.45 E621.846 F1200
G0 X165.38 Y37.7 F10800
G1 X182.78 Y20.3 E622.624 F1200
G0 X183.35 F10800
G1 X165.95 Y37.7 E623.401 F1200
G0 X166.51 F10800
G1 X183.91 Y20.3 E624.179 F1200
G0 X184.48 F10800
G1 X167.08 Y37.7 E624.956 F1200
G0 X167.64 F10800
G1 X185.04 Y20.3 E625.733 F1200
G0 X185.61 F10800
G1 X168.21 Y37.7 E626.511 F1200
G0 X168.78 F10800
G1 X186.17 Y20.3 E627.288 F1200
G0 X186.74 F10800
G1 X169.34 Y37.7 E628.066 F1200
G0 X169.91 F10800
G1 X187.31 Y20.3 E628.843 F1200
G0 X187.87 F10800
G1 X170.47 Y37.7 E629.621 F1200
G0 X171.04 F10800
G1 X188.44 Y20.3 E630.398 F1200
G0 X189 F10800
G1 X171.6 Y37.7 E631.176 F1200
G0 X172.17 F10800
G1 X189.57 Y20.3 E631.953 F1200
G0 X190.13 F10800
G1 X172.74 Y37.7 E632.731 F1200
G0 X173.3 F10800
G1 X190.7 Y20.3 E633.508 F1200
G0 X191.27 F10800
G1 X173.87 Y37.7 E634.286 F1200
G0 X174.43 F10800
G1 X191.83 Y20.3 E635.063 F1200
G0 X192.2 Y20.5 F10800
G1 X175 Y37.7 E635.832 F1200
G0 X175.56 F10800
G1 X192.2 Y21.06 E636.575 F1200
G0 Y21.63 F10800
G1 X176.13 Y37.7 E637.293 F1200
G0 X176.7 F10800
G1 X192.2 Y22.2 E637.986 F1200
G0 Y22.76 F10800
G1 X177.26 Y37.7 E638.654 F1200
G0 X177.83 F10800
G1 X192.2 Y23.33 E639.296 F1200
G0 Y23.89 F10800
G1 X178.39 Y37.7 E639.913 F1200
G0 X178.96 Y37.7 F10800
G1 X192.2 Y24.46 E640.504 F1200
G0 Y25.02 F10800
G1 X179.52 Y37.7 E641.071 F1200
G0 X180.09 F10800
G1 X192.2 Y25.59 E641.612 F1200
G0 Y26.16 F10800
G1 X180.65 Y37.7 E642.128 F1200
G0 X181.22 F10800
G1 X192.2 Y26.72 E642.619 F1200
G0 Y27.29 F10800
G1 X181.79 Y37.7 E643.084 F1200
G0 X182.35 F10800
G1 X192.2 Y27.85 E643.524 F1200
G0 Y28.42 F10800
G1 X182.92 Y37.7 E643.939 F1200
G0 X183.48 F10800
G1 X192.2 Y28.98 E644.328 F1200
G0 X192.2 Y29.55 F10800
G1 X184.05 Y37.7 E644.693 F1200
G0 X184.61 F10800
G1 X192.2 Y30.12 E645.031 F1200
G0 Y30.68 F10800
G1 X185.18 Y37.7 E645.345 F1200
G0 X185.75 F10800
G1 X192.2 Y31.25 E645.633 F1200
G0 Y31.81 F10800
G1 X186.31 Y37.7 E645.897 F1200
G0 X186.88 F10800
G1 X192.2 Y32.38 E646.134 F1200
G0 Y32.94 F10800
G1 X187.44 Y37.7 E646.347 F1200
G0 X188.01 F10800
G1 X192.2 Y33.51 E646.534 F1200
G0 Y34.08 F10800
G1 X188.57 Y37.7 E646.696 F1200
G0 X189.14 F10800
G1 X192.2 Y34.64 E646.833 F1200
G0 Y35.21 F10800
G1 X189.71 Y37.7 E646.944 F1200
G0 X190.27 F10800
G1 X192.2 Y35.77 E647.03 F1200
G0 Y36.34 F10800
G1 X190.84 Y37.7 E647.091 F1200
G0 X191.4 F10800
G1 X192.2 Y36.9 E647.127 F1200
G0 Y37.47 F10800
G1 X191.97 Y37.7 E647.137 F1200
G1 E646.337 F2100
G0 Z0.8
G0 X168.24 Y38.11 F10800
G0 X165.97 Y38.5
G0 X165.2 Y39.01
G0 Z0.2
G1 E647.137 F2100
G1 X94.3 Y109.91 E650.305 F1200
G0 Y110.48 F10800
G1 X165.2 Y39.58 E653.473 F1200
G0 Y40.14 F10800
G1 X94.3 Y111.04 E656.642 F1200
G0 Y111.61 F10800
G1 X165.2 Y40.71 E659.81 F1200
G0 Y41.28 F10800
G1 X94.3 Y112.18 E662.978 F1200
G0 Y112.74 F10800
G1 X165.2 Y41.84 E666.146 F1200
G0 Y42.41 F10800
G1 X94.3 Y113.31 E669.314 F1200
G0 Y113.87 F10800
G1 X165.2 Y42.97 E672.482 F1200
G0 Y43.54 F10800
G1 X94.3 Y114.44 E675.651 F1200
G0 Y115 F10800
G1 X165.2 Y44.1 E678.819 F1200
G0 Y44.67 F10800
G1 X94.3 Y115.57 E681.987 F1200
G0 X94.74 Y115.7 F10800
G1 X165.2 Y45.24 E685.136 F1200
G0 Y45.8 F10800
G1 X95.3 Y115.7 E688.259 F1200
G0 X95.87 F10800
G1 X165.2 Y46.37 E691.357 F1200
G0 Y46.93 F10800
G1 X96.43 Y115.7 E694.43 F1200
G0 X97 F10800
G1 X165.2 Y47.5 E697.477 F1200
G0 Y48.06 F10800
G1 X97.56 Y115.7 E700.5 F1200
G0 X98.13 F10800
G1 X165.2 Y48.63 E703.497 F1200
G0 Y49.2 F10800
G1 X98.7 Y115.7 E706.469 F1200
G0 X99.26 F10800
G1 X165.2 Y49.76 E709.415 F1200
G0 Y50.33 F10800
G1 X99.83 Y115.7 E712.336 F1200
G0 X100.39 F10800
G1 X165.2 Y50.89 E715.232 F1200
G0 Y51.46 F10800
G1 X100.96 Y115.7 E718.103 F1200
G0 X101.52 F10800
G1 X165.2 Y52.02 E720.948 F1200
G0 Y52.59 F10800
G1 X102.09 Y115.7 E723.768 F1200
G0 X102.65 F10800
G1 X165.2 Y53.16 E726.563 F1200
G0 Y53.72 F10800
G1 X103.22 Y115.7 E729.333 F1200
G0 X103.79 F10800
G1 X165.2 Y54.29 E732.077 F1200
G0 Y54.85 F10800
G1 X104.35 Y115.7 E734.796 F1200
G0 X104.92 F10800
G1 X165.2 Y55.42 E737.489 F1200
G0 Y55.98 F10800
G1 X105.48 Y115.7 E740.158 F1200
G0 X106.05 F10800
G1 X165.2 Y56.55 E742.801 F1200
G0 Y57.12 F10800
G1 X106.61 Y115.7 E745.419 F1200
G0 X107.18 F10800
G1 X165.2 Y57.68 E748.011 F1200
G0 Y58.25 F10800
G1 X107.75 Y115.7 E750.579 F1200
G0 X108.31 F10800
G1 X165.2 Y58.81 E753.121 F1200
G0 Y59.38 F10800
G1 X108.88 Y115.7 E755.637 F1200
G0 X109.44 F10800
G1 X165.2 Y59.94 E758.129 F1200
G0 Y60.51 F10800
G1 X110.01 Y115.7 E760.595 F1200
G0 X110.57 F10800
G1 X165.2 Y61.07 E763.036 F1200
G0 Y61.64 F10800
G1 X111.14 Y115.7 E765.452 F1200
G0 X111.71 F10800
G1 X165.2 Y62.21 E767.842 F1200
G0 Y62.77 F10800
G1 X112.27 Y115.7 E770.207 F1200
G0 X112.84 F10800
G1 X165.2 Y63.34 E772.547 F1200
G0 Y63.9 F10800
G1 X113.4 Y115.7 E774.861 F1200
G0 X113.97 F10800
G1 X165.2 Y64.47 E777.151 F1200
G0 Y65.03 F10800
G1 X114.53 Y115.7 E779.415 F1200
G0 X115.1 F10800
G1 X165.2 Y65.6 E781.653 F1200
G0 Y66.17 F10800
G1 X115.67 Y115.7 E783.867 F1200
G0 X116.23 F10800
G1 X165.2 Y66.73 E786.055 F1200
G0 Y67.3 F10800
G1 X116.8 Y115.7 E788.218 F1200
G0 X117.36 F10800
G1 X165.2 Y67.86 E790.355 F1200
G0 Y68.43 F10800
G1 X117.93 Y115.7 E792.468 F1200
G0 X118.49 F10800
G1 X165.2 Y68.99 E794.555 F1200
G0 Y69.56 F10800
G1 X119.06 Y115.7 E796.616 F1200
G0 X119.63 F10800
G1 X165.2 Y70.13 E798.653 F1200
G0 Y70.69 F10800
G1 X120.19 Y115.7 E800.664 F1200
G0 X120.76 F10800
G1 X165.2 Y71.26 E802.65 F1200
G0 Y71.82 F10800
G1 X121.32 Y115.7 E804.611 F1200
G0 X121.89 F10800
G1 X165.2 Y72.39 E806.546 F1200
G0 Y72.95 F10800
G1 X122.45 Y115.7 E808.456 F1200
G0 X123.02 F10800
G1 X165.2 Y73.52 E810.341 F1200
G0 Y74.09 F10800
G1 X123.59 Y115.7 E812.2 F1200
G0 X124.15 F10800
G1 X165.2 Y74.65 E814.035 F1200
G0 Y75.22 F10800
G1 X124.72 Y115.7 E815.844 F1200
G0 X125.28 F10800
G1 X165.2 Y75.78 E817.627 F1200
G0 Y76.35 F10800
G1 X125.85 Y115.7 E819.386 F1200
G0 X126.41 F10800
G1 X165.2 Y76.91 E821.119 F1200
G0 Y77.48 F10800
G1 X126.98 Y115.7 E822.827 F1200
G0 X127.55 F10800
G1 X165.2 Y78.05 E824.509 F1200
G0 Y78.61 F10800
G1 X128.11 Y115.7 E826.167 F1200
G0 X128.68 F10800
G1 X165.2 Y79.18 E827.799 F1200
G0 Y79.74 F10800
G1 X129.24 Y115.7 E829.405 F1200
G0 X129.81 Y115.7 F10800
G1 X165.2 Y80.31 E830.987 F1200
G0 Y80.87 F10800
G1 X130.37 Y115.7 E832.543 F1200
G0 X130.94 F10800
G1 X165.2 Y81.44 E834.074 F1200
G0 Y82.01 F10800
G1 X131.5 Y115.7 E835.58 F1200
G0 X132.07 F10800
G1 X165.2 Y82.57 E837.06 F1200
G0 Y83.14 F10800
G1 X132.64 Y115.7 E838.515 F1200
G0 X133.2 F10800
G1 X165.2 Y83.7 E839.945 F1200
G0 Y84.27 F10800
G1 X133.77 Y115.7 E841.35 F1200
G0 X134.33 F10800
G1 X165.2 Y84.83 E842.729 F1200
G0 Y85.4 F10800
G1 X134.9 Y115.7 E844.083 F1200
G0 X135.46 F10800
G1 X165.2 Y85.97 E845.412 F1200
G0 Y86.53 F10800
G1 X136.03 Y115.7 E846.715 F1200
G0 X136.6 F10800
G1 X165.2 Y87.1 E847.993 F1200
G0 Y87.66 F10800
G1 X137.16 Y115.7 E849.246 F1200
G0 X137.73 F10800
G1 X165.2 Y88.23 E850.474 F1200
G0 Y88.79 F10800
G1 X138.29 Y115.7 E851.676 F1200
G0 X138.86 F10800
G1 X165.2 Y89.36 E852.853 F1200
G0 Y89.92 F10800
G1 X139.42 Y115.7 E854.005 F1200
G0 X139.99 F10800
G1 X165.2 Y90.49 E855.132 F1200
G0 Y91.06 F10800
G1 X140.56 Y115.7 E856.233 F1200
G0 X141.12 F10800
G1 X165.2 Y91.62 E857.309 F1200
G0 Y92.19 F10800
G1 X141.69 Y115.7 E858.359 F1200
G0 X142.25 F10800
G1 X165.2 Y92.75 E859.385 F1200
G0 Y93.32 F10800
G1 X142.82 Y115.7 E860.385 F1200
G0 X143.38 F10800
G1 X165.2 Y93.88 E861.36 F1200
G0 Y94.45 F10800
G1 X143.95 Y115.7 E862.309 F1200
G0 X144.51 F10800
G1 X165.2 Y95.02 E863.234 F1200
G0 Y95.58 F10800
G1 X145.08 Y115.7 E864.133 F1200
G0 X145.65 F10800
G1 X165.2 Y96.15 E865.006 F1200
G0 Y96.71 F10800
G1 X146.21 Y115.7 E865.855 F1200
G0 X146.78 F10800
G1 X165.2 Y97.28 E866.678 F1200
G0 Y97.84 F10800
G1 X147.34 Y115.7 E867.476 F1200
G0 X147.91 F10800
G1 X165.2 Y98.41 E868.248 F1200
G0 Y98.98 F10800
G1 X148.47 Y115.7 E868.996 F1200
G0 X149.04 F10800
G1 X165.2 Y99.54 E869.718 F1200
G0 Y100.11 F10800
G1 X149.61 Y115.7 E870.415 F1200
G0 X150.17 F10800
G1 X165.2 Y100.67 E871.086 F1200
G0 Y101.24 F10800
G1 X150.74 Y115.7 E871.732 F1200
G0 X151.3 F10800
G1 X165.2 Y101.8 E872.353 F1200
G0 Y102.37 F10800
G1 X151.87 Y115.7 E872.949 F1200
G0 X152.43 F10800
G1 X165.2 Y102.94 E873.52 F1200
G0 Y103.5 F10800
G1 X153 Y115.7 E874.065 F1200
G0 X153.57 F10800
G1 X165.2 Y104.07 E874.584 F1200
G0 Y104.63 F10800
G1 X154.13 Y115.7 E875.079 F1200
G0 X154.7 F10800
G1 X165.2 Y105.2 E875.548 F1200
G0 Y105.76 F10800
G1 X155.26 Y115.7 E875.992 F1200
G0 X155.83 F10800
G1 X165.2 Y106.33 E876.411 F1200
G0 Y106.9 F10800
G1 X156.39 Y115.7 E876.805 F1200
G0 X156.96 F10800
G1 X165.2 Y107.46 E877.173 F1200
G0 Y108.03 F10800
G1 X157.53 Y115.7 E877.516 F1200
G0 X158.09 F10800
G1 X165.2 Y108.59 E877.833 F1200
G0 Y109.16 F10800
G1 X158.66 Y115.7 E878.126 F1200
G0 X159.22 F10800
G1 X165.2 Y109.72 E878.393 F1200
G0 Y110.29 F10800
G1 X159.79 Y115.7 E878.634 F1200
G0 X160.35 F10800
G1 X165.2 Y110.86 E878.851 F1200
G0 Y111.42 F10800
G1 X160.92 Y115.7 E879.042 F1200
G0 X161.49 F10800
G1 X165.2 Y111.99 E879.208 F1200
G0 Y112.55 F10800
G1 X162.05 Y115.7 E879.349 F1200
G0 X162.62 F10800
G1 X165.2 Y113.12 E879.464 F1200
G0 Y113.68 F10800
G1 X163.18 Y115.7 E879.554 F1200
G0 X163.75 F10800
G1 X165.2 Y114.25 E879.619 F1200
G0 Y114.82 F10800
G1 X164.31 Y115.7 E879.659 F1200
G0 X164.88 F10800
G1 X165.2 Y115.38 E879.673 F1200
; Layer Change GCode
; LAYER:1
; LAYER_HEIGHT:0.2
; TYPE:FILL
G1 E878.873 F2100
G0 Z0.8
G0 Z1 F10800
G0 X165.24 Y105.71
G0 X165.27 Y96.04
G0 X165.31 Y86.36
G0 X165.35 Y76.69
G0 X165.39 Y67.02
G0 X165.42 Y57.35
G0 X165.46 Y47.67
G0 X165.5 Y38
; TYPE:WALL-INNER
G0 Z0.4
G1 E879.673 F2100
G1 Y42.88 E879.827 F2700
G1 Y47.75 E879.981
G1 Y52.63 E880.135
G1 Y57.5 E880.289
G1 Y62.38 E880.443
G1 Y67.25 E880.597
G1 Y72.13 E880.751
G1 Y77 E880.905
G1 Y81.88 E881.059
G1 Y86.75 E881.213
G1 Y91.63 E881.367
G1 Y96.5 E881.521
G1 Y101.38 E881.676
G1 Y106.25 E881.83
G1 Y111.13 E881.984
G1 Y116 E882.138
G1 X160.73 E882.288
G1 X155.97 E882.439
G1 X151.2 E882.589
G1 X146.43 E882.74
G1 X141.67 E882.891
G1 X136.9 E883.041
G1 X132.13 E883.192
G1 X127.37 E883.343
G1 X122.6 E883.493
G1 X117.83 E883.644
G1 X113.07 E883.794
G1 X108.3 E883.945
G1 X103.53 E884.096
G1 X98.77 E884.246
G1 X94 E884.397
G1 Y111.2 E884.548
G1 Y106.4 E884.7
G1 Y101.6 E884.852
G1 Y96.8 E885.003
G1 Y92 E885.155
G1 Y87.2 E885.307
G1 Y82.4 E885.458
G1 Y77.6 E885.61
G1 Y72.8 E885.762
G1 Y68 E885.913
G1 Y63.2 E886.065
G1 Y58.4 E886.217
G1 Y53.6 E886.368
G1 Y48.8 E886.52
G1 Y44 E886.672
G1 Y39.2 E886.823
G1 Y34.4 E886.975
G1 Y29.6 E887.127
G1 Y24.8 E887.278
G1 Y20 E887.43
G1 X98.93 E887.586
G1 X103.85 E887.741
G1 X108.78 E887.897
G1 X113.7 E888.053
G1 X118.63 E888.208
G1 X123.55 E888.364
G1 X128.48 E888.519
G1 X133.4 E888.675
G1 X138.33 E888.831
G1 X143.25 E888.986
G1 X148.18 E889.142
G1 X153.1 E889.298
G1 X158.03 E889.453
G1 X162.95 E889.609
G1 X167.88 E889.764
G1 X172.8 E889.92
G1 X177.73 E890.076
G1 X182.65 E890.231
G1 X187.58 E890.387
G1 X192.5 E890.542
G1 Y24.5 E890.685
G1 Y29 E890.827
G1 Y33.5 E890.969
G1 Y38 E891.111
G1 X188.02 E891.253
G1 X183.54 E891.394
G1 X179.06 E891.536
G1 X174.58 E891.677
G1 X170.1 E891.819
G1 X165.62 E891.961
G0 X165.5
G0 X165.9 Y38.4 F10800
G1 Y43.28 E892.115 F2700
G1 Y48.15 E892.269
G1 Y53.03 E892.423
G1 Y57.9 E892.577
G1 Y62.78 E892.731
G1 Y67.65 E892.885
G1 Y72.53 E893.039
G1 Y77.4 E893.193
G1 Y82.28 E893.347
G1 Y87.15 E893.501
G1 Y92.03 E893.655
G1 Y96.9 E893.809
G1 Y101.78 E893.963
G1 Y106.65 E894.117
G1 Y111.53 E894.271
G1 Y116.4 E894.425
G1 X161.08 E894.577
G1 X156.26 E894.73
G1 X151.44 E894.882
G1 X146.62 E895.034
G1 X141.8 E895.187
G1 X136.98 E895.339
G1 X132.16 E895.491
G1 X127.34 E895.644
G1 X122.52 E895.796
G1 X117.7 E895.948
G1 X112.88 E896.1
G1 X108.06 E896.253
G1 X103.24 E896.405
G1 X98.42 E896.557
G1 X93.6 E896.71
G1 Y111.56 E896.863
G1 Y106.72 E897.015
G1 Y101.88 E897.168
G1 Y97.04 E897.321
G1 Y92.2 E897.474
G1 Y87.36 E897.627
G1 Y82.52 E897.78
G1 Y77.68 E897.933
G1 Y72.84 E898.086
G1 Y68 E898.239
G1 Y63.16 E898.392
G1 Y58.32 E898.545
G1 Y53.48 E898.698
G1 Y48.64 E898.851
G1 Y43.8 E899.004
G1 Y38.96 E899.156
G1 Y34.12 E899.309
G1 Y29.28 E899.462
G1 Y24.44 E899.615
G1 Y19.6 E899.768
G1 X98.57 E899.925
G1 X103.53 E900.082
G1 X108.5 E900.239
G1 X113.46 E900.396
G1 X118.43 E900.553
G1 X123.39 E900.709
G1 X128.36 E900.866
G1 X133.32 E901.023
G1 X138.29 E901.18
G1 X143.25 E901.337
G1 X148.22 E901.494
G1 X153.18 E901.651
G1 X158.15 E901.808
G1 X163.11 E901.965
G1 X168.08 E902.121
G1 X173.04 E902.278
G1 X178.01 E902.435
G1 X182.97 E902.592
G1 X187.94 E902.749
G1 X192.9 E902.906
G1 Y24.3 E903.054
G1 Y29 E903.203
G1 Y33.7 E903.351
G1 Y38.4 E903.5
G1 X188.42 E903.641
G1 X183.94 E903.783
G1 X179.46 E903.924
G1 X174.98 E904.066
G1 X170.5 E904.208
G1 X166.02 E904.349
G0 X165.9
G0 X166.3 Y38.8 F10800
; TYPE:WALL-OUTER
G1 Y43.68 E904.503 F2100
G1 Y48.55 E904.657
G1 Y53.43 E904.811
G1 Y58.3 E904.965
G1 Y63.18 E905.119
G1 Y68.05 E905.273
G1 Y72.93 E905.427
G1 Y77.8 E905.581
G1 Y82.68 E905.735
G1 Y87.55 E905.89
G1 Y92.43 E906.044
G1 Y97.3 E906.198
G1 Y102.18 E906.352
G1 Y107.05 E906.506
G1 Y111.93 E906.66
G1 Y116.8 E906.814
G1 X161.43 E906.968
G1 X156.55 E907.122
G1 X151.68 E907.276
G1 X146.81 E907.43
G1 X141.93 E907.584
G1 X137.06 E907.738
G1 X132.19 E907.892
G1 X127.31 E908.046
G1 X122.44 E908.2
G1 X117.57 E908.354
G1 X112.69 E908.508
G1 X107.82 E908.662
G1 X102.95 E908.816
G1 X98.07 E908.969
G1 X93.2 E909.123
G1 Y111.92 E909.278
G1 Y107.04 E909.432
G1 Y102.16 E909.586
G1 Y97.28 E909.74
G1 Y92.4 E909.894
G1 Y87.52 E910.049
G1 Y82.64 E910.203
G1 Y77.76 E910.357
G1 Y72.88 E910.511
G1 Y68 E910.665
G1 Y63.12 E910.82
G1 Y58.24 E910.974
G1 Y53.36 E911.128
G1 Y48.48 E911.282
G1 Y43.6 E911.436
G1 Y38.72 E911.591
G1 Y33.84 E911.745
G1 Y28.96 E911.899
G1 Y24.08 E912.053
G1 Y19.2 E912.207
G1 X97.97 E912.358
G1 X102.73 E912.509
G1 X107.5 E912.659
G1 X112.27 E912.81
G1 X117.03 E912.96
G1 X121.8 E913.111
G1 X126.57 E913.262
G1 X131.33 E913.412
G1 X136.1 E913.563
G1 X140.87 E913.713
G1 X145.63 E913.864
G1 X150.4 E914.015
G1 X155.17 E914.165
G1 X159.93 E914.316
G1 X164.7 E914.467
G1 X169.47 E914.617
G1 X174.23 E914.768
G1 X179 E914.918
G1 X183.77 E915.069
G1 X188.53 E915.22
G1 X193.3 E915.37
G1 Y24.1 E915.525
G1 Y29 E915.68
G1 Y33.9 E915.835
G1 Y38.8 E915.99
G1 X188.82 E916.131
G1 X184.34 E916.273
G1 X179.86 E916.414
G1 X175.38 E916.556
G1 X170.9 E916.697
G1 X166.42 E916.839
G0 X166.3
G0 Y41.8
G0 X165.5 Y38 F10800
G1 E916.039 F2100
G0 Z1
G0 X174.23 Y32.1 F10800
G0 X182.97 Y26.2
G0 X191.7 Y20.3
; TYPE:FILL
G0 Z0.4
G1 E916.839 F2100
G1 X192.2 Y20.8 E916.861 F12000
G0 Y21.36 F10800
G1 X191.14 Y20.3 E916.908 F12000
G0 X190.57 F10800
G1 X192.2 Y21.93 E916.981 F12000
G0 Y22.49 F10800
G1 X190.01 Y20.3 E917.079 F12000
G0 X189.44 F10800
G1 X192.2 Y23.06 E917.203 F12000
G0 Y23.63 F10800
G1 X188.87 Y20.3 E917.351 F12000
G0 X188.31 F10800
G1 X192.2 Y24.19 E917.525 F12000
G0 Y24.76 F10800
G1 X187.74 Y20.3 E917.724 F12000
G0 X187.18 F10800
G1 X192.2 Y25.32 E917.948 F12000
G0 Y25.89 F10800
G1 X186.61 Y20.3 E918.198 F12000
G0 X186.05 F10800
G1 X192.2 Y26.45 E918.473 F12000
G0 Y27.02 F10800
G1 X185.48 Y20.3 E918.773 F12000
G0 X184.91 F10800
G1 X192.2 Y27.58 E919.099 F12000
G0 Y28.15 F10800
G1 X184.35 Y20.3 E919.45 F12000
G0 X183.78 F10800
G1 X192.2 Y28.72 E919.826 F12000
G0 X192.2 Y29.28 F10800
G1 X183.22 Y20.3 E920.227 F12000
G0 X182.65 F10800
G1 X192.2 Y29.85 E920.654 F12000
G0 Y30.41 F10800
G1 X182.09 Y20.3 E921.105 F12000
G0 X181.52 F10800
G1 X192.2 Y30.98 E921.583 F12000
G0 Y31.54 F10800
G1 X180.95 Y20.3 E922.085 F12000
G0 X180.39 F10800
G1 X192.2 Y32.11 E922.613 F12000
G0 Y32.68 F10800
G1 X179.82 Y20.3 E923.166 F12000
G0 X179.26 F10800
G1 X192.2 Y33.24 E923.744 F12000
G0 Y33.81 F10800
G1 X178.69 Y20.3 E924.347 F12000
G0 X178.13 F10800
G1 X192.2 Y34.37 E924.976 F12000
G0 Y34.94 F10800
G1 X184.88 Y27.62 E925.303 F12000
G1 X177.56 Y20.3 E925.63
G0 X177 F10800
G1 X184.6 Y27.9 E925.97 F12000
G1 X192.2 Y35.5 E926.31
G0 X192.2 Y36.07 F10800
G1 X184.31 Y28.18 E926.662 F12000
G1 X176.43 Y20.3 E927.014
G0 X175.86 F10800
G1 X184.03 Y28.47 E927.379 F12000
G1 X192.2 Y36.64 E927.744
G0 X192.2 Y37.2 F10800
G1 X183.75 Y28.75 E928.122 F12000
G1 X175.3 Y20.3 E928.499
G0 X174.73 F10800
G1 X183.43 Y29 E928.888 F12000
G1 X192.13 Y37.7 E929.277
G0 X191.57 F10800
G1 X182.87 Y29 E929.666 F12000
G1 X174.17 Y20.3 E930.055
G0 X173.6 F10800
G1 X182.3 Y29 E930.443 F12000
G1 X191 Y37.7 E930.832
G0 X190.44 F10800
G1 X181.74 Y29 E931.221 F12000
G1 X173.04 Y20.3 E931.61
G0 X172.47 F10800
G1 X181.17 Y29 E931.998 F12000
G1 X189.87 Y37.7 E932.387
G0 X189.3 F10800
G1 X180.6 Y29 E932.776 F12000
G1 X171.9 Y20.3 E933.165
G0 X171.34 F10800
G1 X180.04 Y29 E933.553 F12000
G1 X188.74 Y37.7 E933.942
G0 X188.17 F10800
G1 X179.47 Y29 E934.331 F12000
G1 X170.77 Y20.3 E934.72
G0 X170.21 F10800
G1 X178.91 Y29 E935.108 F12000
G1 X187.61 Y37.7 E935.497
G0 X187.04 F10800
G1 X178.34 Y29 E935.886 F12000
G1 X169.64 Y20.3 E936.275
G0 X169.08 F10800
G1 X177.78 Y29 E936.663 F12000
G1 X186.48 Y37.7 E937.052
G0 X185.91 F10800
G1 X177.21 Y29 E937.441 F12000
G1 X168.51 Y20.3 E937.83
G0 X167.94 F10800
G1 X176.64 Y29 E938.218 F12000
G1 X185.34 Y37.7 E938.607
G0 X184.78 F10800
G1 X176.08 Y29 E938.996 F12000
G1 X167.38 Y20.3 E939.385
G0 X166.81 F10800
G1 X175.51 Y29 E939.773 F12000
G1 X184.21 Y37.7 E940.162
G0 X183.65 F10800
G1 X174.95 Y29 E940.551 F12000
G1 X166.25 Y20.3 E940.94
G0 X165.68 F10800
G1 X174.38 Y29 E941.329 F12000
G1 X183.08 Y37.7 E941.717
G0 X182.52 F10800
G1 X173.82 Y29 E942.106 F12000
G1 X165.12 Y20.3 E942.495
G0 X164.55 F10800
G1 X173.25 Y29 E942.884 F12000
G1 X181.95 Y37.7 E943.272
G0 X181.38 F10800
G1 X172.68 Y29 E943.661 F12000
G1 X163.98 Y20.3 E944.05
G0 X163.42 F10800
G1 X172.12 Y29 E944.439 F12000
G1 X180.82 Y37.7 E944.827
G0 X180.25 F10800
G1 X171.55 Y29 E945.216 F12000
G1 X162.85 Y20.3 E945.605
G0 X162.29 F10800
G1 X170.99 Y29 E945.994 F12000
G1 X179.69 Y37.7 E946.382
G0 X179.12 F10800
G1 X170.42 Y29 E946.771 F12000
G1 X161.72 Y20.3 E947.16
G0 X161.16 F10800
G1 X169.86 Y29 E947.549 F12000
G1 X178.56 Y37.7 E947.937
G0 X177.99 Y37.7 F10800
G1 X169.29 Y29 E948.326 F12000
G1 X160.59 Y20.3 E948.715
G0 X160.02 F10800
G1 X168.72 Y29 E949.104 F12000
G1 X177.42 Y37.7 E949.492
G0 X176.86 Y37.7 F10800
G1 X168.16 Y29 E949.881 F12000
G1 X159.46 Y20.3 E950.27
G0 X158.89 F10800
G1 X167.59 Y29 E950.659 F12000
G1 X176.29 Y37.7 E951.047
G0 X175.73 Y37.7 F10800
G1 X167.03 Y29 E951.436 F12000
G1 X158.33 Y20.3 E951.825
G0 X157.76 F10800
G1 X166.46 Y29 E952.214 F12000
G1 X175.16 Y37.7 E952.602
G0 X174.6 Y37.7 F10800
G1 X165.9 Y29 E952.991 F12000
G1 X157.2 Y20.3 E953.38
G0 X156.63 F10800
G1 X165.33 Y29 E953.768 F12000
G1 X174.03 Y37.7 E954.157
G0 X173.46 Y37.7 F10800
G1 X164.76 Y29 E954.546 F12000
G1 X156.06 Y20.3 E954.935
G0 X155.5 F10800
G1 X164.2 Y29 E955.323 F12000
G1 X172.9 Y37.7 E955.712
G0 X172.33 Y37.7 F10800
G1 X163.63 Y29 E956.101 F12000
G1 X154.93 Y20.3 E956.49
G0 X154.37 F10800
G1 X163.07 Y29 E956.878 F12000
G1 X171.77 Y37.7 E957.267
G0 X171.2 Y37.7 F10800
G1 X162.5 Y29 E957.656 F12000
G1 X153.8 Y20.3 E958.045
G0 X153.24 F10800
G1 X161.94 Y29 E958.433 F12000
G1 X170.64 Y37.7 E958.822
G0 X170.07 Y37.7 F10800
G1 X161.37 Y29 E959.211 F12000
G1 X152.67 Y20.3 E959.6
G0 X152.11 F10800
G1 X160.8 Y29 E959.988 F12000
G1 X169.5 Y37.7 E960.377
G0 X168.94 Y37.7 F10800
G1 X160.24 Y29 E960.766 F12000
G1 X151.54 Y20.3 E961.154
G0 X150.97 F10800
G1 X159.67 Y29 E961.543 F12000
G1 X168.37 Y37.7 E961.932
G0 X167.81 Y37.7 F10800
G1 X159.11 Y29 E962.321 F12000
G1 X150.41 Y20.3 E962.709
G0 X149.84 F10800
G1 X158.54 Y29 E963.098 F12000
G1 X167.24 Y37.7 E963.487
G0 X166.68 Y37.7 F10800
G1 X157.98 Y29 E963.876 F12000
G1 X149.28 Y20.3 E964.264
G0 X148.71 F10800
G1 X157.41 Y29 E964.653 F12000
G1 X166.11 Y37.7 E965.042
G0 X165.54 Y37.7 F10800
G1 X156.84 Y29 E965.431 F12000
G1 X148.15 Y20.3 E965.819
G0 X147.58 F10800
G1 X156.39 Y29.11 E966.213 F12000
G1 X165.2 Y37.92 E966.607
G0 X165.2 Y38.49 F10800
G1 X156.11 Y29.39 E967.013 F12000
G1 X147.01 Y20.3 E967.419
G0 X146.45 F10800
G1 X155.82 Y29.68 E967.838 F12000
G1 X165.2 Y39.05 E968.257
G0 X165.2 Y39.62 F10800
G1 X155.54 Y29.96 E968.689 F12000
G1 X145.88 Y20.3 E969.12
G0 X145.32 F10800
G1 X155.26 Y30.24 E969.565 F12000
G1 X165.2 Y40.18 E970.009
G0 X165.2 Y40.75 F10800
G1 X154.98 Y30.52 E970.466 F12000
G1 X144.75 Y20.3 E970.923
G0 X144.19 F10800
G1 X154.69 Y30.81 E971.392 F12000
G1 X165.2 Y41.31 E971.862
G0 X165.2 Y41.88 F10800
G1 X158.01 Y34.69 E972.183 F12000
G1 X150.81 Y27.49 E972.504
G1 X143.62 Y20.3 E972.826
G0 X143.05 F10800
G1 X150.44 Y27.68 E973.156 F12000
G1 X157.82 Y35.06 E973.486
G1 X165.2 Y42.45 E973.815
G0 X165.2 Y43.01 F10800
G1 X157.63 Y35.44 E974.154 F12000
G1 X150.06 Y27.87 E974.492
G1 X142.49 Y20.3 E974.83
G0 X141.92 F10800
G1 X149.68 Y28.06 E975.177 F12000
G1 X157.44 Y35.82 E975.524
G1 X165.2 Y43.58 E975.87
G0 X165.2 Y44.14 F10800
G1 X157.25 Y36.19 E976.225 F12000
G1 X149.3 Y28.25 E976.581
G1 X141.36 Y20.3 E976.936
G0 X140.79 F10800
G1 X148.93 Y28.44 E977.299 F12000
G1 X157.06 Y36.57 E977.663
G1 X165.2 Y44.71 E978.026
G0 X165.2 Y45.27 F10800
G1 X156.87 Y36.95 E978.398 F12000
G1 X148.55 Y28.62 E978.77
G1 X140.23 Y20.3 E979.142
G0 X139.66 F10800
G1 X148.17 Y28.81 E979.523 F12000
G1 X156.69 Y37.33 E979.903
G1 X165.2 Y45.84 E980.284
G0 X165.2 Y46.41 F10800
G1 X156.5 Y37.7 E980.672 F12000
G1 X147.8 Y29 E981.061
G1 X139.09 Y20.3 E981.45
G0 X138.53 F10800
G1 X147.42 Y29.19 E981.847 F12000
G1 X156.31 Y38.08 E982.245
G1 X165.2 Y46.97 E982.642
G0 X165.2 Y47.54 F10800
G1 X156.12 Y38.46 E983.048 F12000
G1 X147.04 Y29.38 E983.453
G1 X137.96 Y20.3 E983.859
G0 X137.4 F10800
G1 X146.66 Y29.57 E984.273 F12000
G1 X155.93 Y38.83 E984.687
G1 X165.2 Y48.1 E985.101
G0 X165.2 Y48.67 F10800
G1 X158.11 Y41.58 E985.418 F12000
G1 X151.02 Y34.48 E985.735
G1 X143.92 Y27.39 E986.052
G1 X136.83 Y20.3 E986.369
G0 X136.27 F10800
G1 X143.5 Y27.53 E986.692 F12000
G1 X150.73 Y34.77 E987.015
G1 X157.97 Y42 E987.339
G1 X165.2 Y49.23 E987.662
G0 X165.2 Y49.8 F10800
G1 X157.82 Y42.42 E987.991 F12000
G1 X150.45 Y35.05 E988.321
G1 X143.07 Y27.67 E988.65
G1 X135.7 Y20.3 E988.98
G0 X135.13 F10800
G1 X142.65 Y27.82 E989.316 F12000
G1 X150.17 Y35.33 E989.652
G1 X157.68 Y42.85 E989.988
G1 X165.2 Y50.37 E990.323
G0 X165.2 Y50.93 F10800
G1 X157.54 Y43.27 E990.666 F12000
G1 X149.88 Y35.62 E991.008
G1 X142.23 Y27.96 E991.35
G1 X134.57 Y20.3 E991.692
G0 X134 F10800
G1 X141.8 Y28.1 E992.041 F12000
G1 X149.6 Y35.9 E992.389
G1 X157.4 Y43.7 E992.738
G1 X165.2 Y51.5 E993.086
G0 X165.2 Y52.06 F10800
G1 X157.26 Y44.12 E993.441 F12000
G1 X149.32 Y36.18 E993.796
G1 X141.38 Y28.24 E994.151
G1 X133.44 Y20.3 E994.505
G0 X132.87 F10800
G1 X140.95 Y28.38 E994.867 F12000
G1 X149.04 Y36.46 E995.228
G1 X157.12 Y44.55 E995.589
G1 X165.2 Y52.63 E995.95
G0 X165.2 Y53.19 F10800
G1 X156.98 Y44.97 E996.317 F12000
G1 X148.75 Y36.75 E996.685
G1 X140.53 Y28.52 E997.052
G1 X132.31 Y20.3 E997.42
G0 X131.74 F10800
G1 X140.1 Y28.66 E997.794 F12000
G1 X148.47 Y37.03 E998.167
G1 X156.83 Y45.39 E998.541
G1 X165.2 Y53.76 E998.915
G0 X165.2 Y54.32 F10800
G1 X156.69 Y45.82 E999.295 F12000
G1 X148.19 Y37.31 E999.675
G1 X139.68 Y28.81 E1000.055
G1 X131.17 Y20.3 E1000.435
G0 X130.61 F10800
G1 X139.26 Y28.95 E1000.822 F12000
G1 X147.9 Y37.6 E1001.208
G1 X156.55 Y46.24 E1001.595
G1 X165.2 Y54.89 E1001.981
G0 X165.2 Y55.46 F10800
G1 X156.41 Y46.67 E1002.374 F12000
G1 X147.62 Y37.88 E1002.766
G1 X138.83 Y29.09 E1003.159
G1 X130.04 Y20.3 E1003.552
G0 X129.48 F10800
G1 X136.62 Y27.44 E1003.871 F12000
G1 X143.77 Y34.59 E1004.19
G1 X150.91 Y41.73 E1004.51
G1 X158.05 Y48.88 E1004.829
G1 X165.2 Y56.02 E1005.148
G0 X165.2 Y56.59 F10800
G1 X157.94 Y49.33 E1005.472 F12000
G1 X150.68 Y42.07 E1005.797
G1 X143.43 Y34.81 E1006.121
G1 X136.17 Y27.56 E1006.445
G1 X128.91 Y20.3 E1006.77
G0 X128.35 F10800
G1 X135.72 Y27.67 E1007.099 F12000
G1 X143.09 Y35.04 E1007.428
G1 X150.46 Y42.41 E1007.758
G1 X157.83 Y49.78 E1008.087
G1 X165.2 Y57.15 E1008.416
G0 X165.2 Y57.72 F10800
G1 X157.72 Y50.24 E1008.751 F12000
G1 X150.23 Y42.75 E1009.085
G1 X142.75 Y35.27 E1009.42
G1 X135.26 Y27.78 E1009.754
G1 X127.78 Y20.3 E1010.089
G0 X127.21 F10800
G1 X134.81 Y27.9 E1010.428 F12000
G1 X142.41 Y35.49 E1010.767
G1 X150.01 Y43.09 E1011.107
G1 X157.6 Y50.69 E1011.446
G1 X165.2 Y58.28 E1011.786
G0 X165.2 Y58.85 F10800
G1 X157.49 Y51.14 E1012.13 F12000
G1 X149.78 Y43.43 E1012.475
G1 X142.07 Y35.72 E1012.819
G1 X134.36 Y28.01 E1013.164
G1 X126.65 Y20.3 E1013.508
G0 X126.08 F10800
G1 X133.91 Y28.12 E1013.858 F12000
G1 X141.73 Y35.95 E1014.208
G1 X149.55 Y43.77 E1014.557
G1 X157.38 Y51.59 E1014.907
G1 X165.2 Y59.42 E1015.256
G0 X165.2 Y59.98 F10800
G1 X157.26 Y52.04 E1015.611 F12000
G1 X149.33 Y44.11 E1015.966
G1 X141.39 Y36.17 E1016.32
G1 X133.45 Y28.24 E1016.675
G1 X125.52 Y20.3 E1017.03
G0 X124.95 F10800
G1 X133 Y28.35 E1017.389 F12000
G1 X141.05 Y36.4 E1017.749
G1 X149.1 Y44.45 E1018.109
G1 X157.15 Y52.5 E1018.468
G1 X165.2 Y60.55 E1018.828
G0 X165.2 Y61.11 F10800
G1 X157.04 Y52.95 E1019.193 F12000
G1 X148.87 Y44.79 E1019.557
G1 X140.71 Y36.63 E1019.922
G1 X132.55 Y28.46 E1020.287
G1 X124.39 Y20.3 E1020.652
G0 X123.82 F10800
G1 X132.1 Y28.58 E1021.022 F12000
G1 X140.37 Y36.85 E1021.391
G1 X148.65 Y45.13 E1021.761
G1 X156.92 Y53.4 E1022.131
G1 X165.2 Y61.68 E1022.501
G0 X165.2 Y62.24 F10800
G1 X156.81 Y53.86 E1022.876 F12000
G1 X148.42 Y45.47 E1023.25
G1 X140.03 Y37.08 E1023.625
G1 X131.64 Y28.69 E1024
G1 X123.26 Y20.3 E1024.375
G0 X122.69 F10800
G1 X129.77 Y27.39 E1024.692 F12000
G1 X136.86 Y34.47 E1025.008
G1 X143.94 Y41.56 E1025.325
G1 X151.03 Y48.64 E1025.641
G1 X158.11 Y55.73 E1025.958
G1 X165.2 Y62.81 E1026.275
G0 X165.2 Y63.38 F10800
G1 X158.02 Y56.2 E1026.595 F12000
G1 X150.84 Y49.02 E1026.916
G1 X143.66 Y41.84 E1027.237
G1 X136.48 Y34.66 E1027.558
G1 X129.3 Y27.48 E1027.879
G1 X122.12 Y20.3 E1028.199
G0 X121.56 F10800
G1 X128.83 Y27.57 E1028.524 F12000
G1 X136.11 Y34.85 E1028.849
G1 X143.38 Y42.12 E1029.174
G1 X150.65 Y49.39 E1029.499
G1 X157.93 Y56.67 E1029.824
G1 X165.2 Y63.94 E1030.15
G0 X165.2 Y64.51 F10800
G1 X157.83 Y57.14 E1030.479 F12000
G1 X150.46 Y49.77 E1030.808
G1 X143.1 Y42.4 E1031.137
G1 X135.73 Y35.04 E1031.466
G1 X128.36 Y27.67 E1031.796
G1 X120.99 Y20.3 E1032.125
G0 X120.43 F10800
G1 X127.89 Y27.76 E1032.458 F12000
G1 X135.35 Y35.22 E1032.792
G1 X142.81 Y42.69 E1033.125
G1 X150.27 Y50.15 E1033.459
G1 X157.74 Y57.61 E1033.792
G1 X165.2 Y65.07 E1034.126
G0 X165.2 Y65.64 F10800
G1 X157.64 Y58.08 E1034.463 F12000
G1 X150.09 Y50.53 E1034.801
G1 X142.53 Y42.97 E1035.139
G1 X134.97 Y35.41 E1035.476
G1 X127.42 Y27.86 E1035.814
G1 X119.86 Y20.3 E1036.152
G0 X119.3 F10800
G1 X126.95 Y27.95 E1036.493 F12000
G1 X134.6 Y35.6 E1036.835
G1 X142.25 Y43.25 E1037.177
G1 X149.9 Y50.9 E1037.519
G1 X157.55 Y58.55 E1037.861
G1 X165.2 Y66.2 E1038.203
G0 X165.2 Y66.77 F10800
G1 X157.45 Y59.02 E1038.549 F12000
G1 X149.71 Y51.28 E1038.895
G1 X141.96 Y43.53 E1039.241
G1 X134.22 Y35.79 E1039.587
G1 X126.47 Y28.04 E1039.933
G1 X118.73 Y20.3 E1040.279
G0 X118.16 F10800
G1 X126 Y28.14 E1040.63 F12000
G1 X133.84 Y35.98 E1040.98
G1 X141.68 Y43.82 E1041.33
G1 X149.52 Y51.66 E1041.68
G1 X157.36 Y59.5 E1042.031
G1 X165.2 Y67.34 E1042.381
G0 X165.2 Y67.9 F10800
G1 X157.27 Y59.97 E1042.736 F12000
G1 X149.33 Y52.03 E1043.09
G1 X141.4 Y44.1 E1043.445
G1 X133.47 Y36.17 E1043.799
G1 X125.53 Y28.23 E1044.154
G1 X117.6 Y20.3 E1044.508
G0 X117.03 F10800
G1 X125.06 Y28.33 E1044.867 F12000
G1 X133.09 Y36.36 E1045.226
G1 X141.12 Y44.38 E1045.584
G1 X149.14 Y52.41 E1045.943
G1 X157.17 Y60.44 E1046.302
G1 X165.2 Y68.47 E1046.66
G0 X165.2 Y69.03 F10800
G1 X157.08 Y60.91 E1047.023 F12000
G1 X148.95 Y52.79 E1047.386
G1 X140.83 Y44.67 E1047.749
G1 X132.71 Y36.54 E1048.112
G1 X124.59 Y28.42 E1048.475
G1 X116.47 Y20.3 E1048.838
G0 X115.9 F10800
G1 X124.12 Y28.52 E1049.205 F12000
G1 X132.33 Y36.73 E1049.572
G1 X140.55 Y44.95 E1049.939
G1 X148.77 Y53.17 E1050.307
G1 X156.98 Y61.38 E1050.674
G1 X165.2 Y69.6 E1051.041
G0 X165.2 Y70.16 F10800
G1 X158.08 Y63.04 E1051.359 F12000
G1 X150.95 Y55.92 E1051.678
G1 X143.83 Y48.79 E1051.996
G1 X136.71 Y41.67 E1052.314
G1 X129.58 Y34.55 E1052.632
G1 X122.46 Y27.42 E1052.951
G1 X115.34 Y20.3 E1053.269
G0 X114.77 F10800
G1 X121.97 Y27.5 E1053.591 F12000
G1 X129.18 Y34.71 E1053.913
G1 X136.38 Y41.91 E1054.235
G1 X143.59 Y49.12 E1054.557
G1 X150.79 Y56.32 E1054.879
G1 X157.99 Y63.52 E1055.201
G1 X165.2 Y70.73 E1055.523
G0 X165.2 Y71.3 F10800
G1 X157.91 Y64.01 E1055.848 F12000
G1 X150.63 Y56.73 E1056.174
G1 X143.34 Y49.44 E1056.499
G1 X136.06 Y42.16 E1056.825
G1 X128.77 Y34.87 E1057.15
G1 X121.49 Y27.59 E1057.476
G1 X114.2 Y20.3 E1057.801
G0 X113.64 F10800
G1 X121 Y27.67 E1058.13 F12000
G1 X128.37 Y35.03 E1058.46
G1 X135.74 Y42.4 E1058.789
G1 X143.1 Y49.76 E1059.118
G1 X150.47 Y57.13 E1059.447
G1 X157.83 Y64.5 E1059.776
G1 X165.2 Y71.86 E1060.105
G0 X165.2 Y72.43 F10800
G1 X157.75 Y64.98 E1060.438 F12000
G1 X150.31 Y57.53 E1060.771
G1 X142.86 Y50.09 E1061.104
G1 X135.41 Y42.64 E1061.436
G1 X127.97 Y35.19 E1061.769
G1 X120.52 Y27.75 E1062.102
G1 X113.07 Y20.3 E1062.435
G0 X112.51 F10800
G1 X120.03 Y27.83 E1062.771 F12000
G1 X127.56 Y35.35 E1063.107
G1 X135.09 Y42.88 E1063.444
G1 X142.62 Y50.41 E1063.78
G1 X150.14 Y57.94 E1064.116
G1 X157.67 Y65.46 E1064.453
G1 X165.2 Y72.99 E1064.789
G0 X165.2 Y73.56 F10800
G1 X157.59 Y65.95 E1065.129 F12000
G1 X149.98 Y58.34 E1065.469
G1 X142.37 Y50.73 E1065.809
G1 X134.77 Y43.12 E1066.149
G1 X127.16 Y35.52 E1066.489
G1 X119.55 Y27.91 E1066.829
G1 X111.94 Y20.3 E1067.169
G0 X111.38 F10800
G1 X119.06 Y27.99 E1067.513 F12000
G1 X126.75 Y35.68 E1067.856
G1 X134.44 Y43.37 E1068.2
G1 X142.13 Y51.06 E1068.543
G1 X149.82 Y58.75 E1068.887
G1 X157.51 Y66.43 E1069.23
G1 X165.2 Y74.12 E1069.574
G0 X165.2 Y74.69 F10800
G1 X157.43 Y66.92 E1069.921 F12000
G1 X149.66 Y59.15 E1070.268
G1 X141.89 Y51.38 E1070.616
G1 X134.12 Y43.61 E1070.963
G1 X126.35 Y35.84 E1071.31
G1 X118.58 Y28.07 E1071.657
G1 X110.81 Y20.3 E1072.004
G0 X110.24 F10800
G1 X118.09 Y28.15 E1072.355 F12000
G1 X125.95 Y36 E1072.706
G1 X133.8 Y43.85 E1073.057
G1 X141.65 Y51.7 E1073.408
G1 X149.5 Y59.55 E1073.758
G1 X157.35 Y67.4 E1074.109
G1 X165.2 Y75.26 E1074.46
G0 X165.2 Y75.82 F10800
G1 X157.27 Y67.89 E1074.815 F12000
G1 X149.34 Y59.96 E1075.169
G1 X141.4 Y52.03 E1075.523
G1 X133.47 Y44.09 E1075.878
G1 X125.54 Y36.16 E1076.232
G1 X117.61 Y28.23 E1076.587
G1 X109.68 Y20.3 E1076.941
G0 X109.11 F10800
G1 X117.12 Y28.31 E1077.299 F12000
G1 X125.14 Y36.32 E1077.657
G1 X133.15 Y44.34 E1078.015
G1 X141.16 Y52.35 E1078.373
G1 X149.17 Y60.36 E1078.731
G1 X157.19 Y68.37 E1079.089
G1 X165.2 Y76.39 E1079.447
G0 X165.2 Y76.95 F10800
G1 X158.12 Y69.87 E1079.764 F12000
G1 X151.04 Y62.79 E1080.08
G1 X143.95 Y55.71 E1080.397
G1 X136.87 Y48.63 E1080.713
G1 X129.79 Y41.54 E1081.029
G1 X122.71 Y34.46 E1081.346
G1 X115.63 Y27.38 E1081.662
G1 X108.55 Y20.3 E1081.979
G0 X107.98 F10800
G1 X115.13 Y27.45 E1082.298 F12000
G1 X122.29 Y34.6 E1082.618
G1 X129.44 Y41.76 E1082.938
G1 X136.59 Y48.91 E1083.257
G1 X143.74 Y56.06 E1083.577
G1 X150.89 Y63.21 E1083.896
G1 X158.05 Y70.36 E1084.216
G1 X165.2 Y77.52 E1084.536
G0 X165.2 Y78.08 F10800
G1 X157.98 Y70.86 E1084.858 F12000
G1 X150.75 Y63.64 E1085.181
G1 X143.53 Y56.41 E1085.504
G1 X136.31 Y49.19 E1085.827
G1 X129.08 Y41.97 E1086.149
G1 X121.86 Y34.75 E1086.472
G1 X114.64 Y27.52 E1086.795
G1 X107.42 Y20.3 E1087.118
G0 X106.85 F10800
G1 X114.14 Y27.59 E1087.444 F12000
G1 X121.44 Y34.89 E1087.769
G1 X128.73 Y42.18 E1088.095
G1 X136.02 Y49.47 E1088.421
G1 X143.32 Y56.77 E1088.747
G1 X150.61 Y64.06 E1089.073
G1 X157.91 Y71.36 E1089.399
G1 X165.2 Y78.65 E1089.725
G0 X165.2 Y79.22 F10800
G1 X157.83 Y71.85 E1090.054 F12000
G1 X150.47 Y64.49 E1090.383
G1 X143.11 Y57.12 E1090.712
G1 X135.74 Y49.76 E1091.041
G1 X128.38 Y42.39 E1091.37
G1 X121.01 Y35.03 E1091.699
G1 X113.65 Y27.66 E1092.028
G1 X106.28 Y20.3 E1092.358
G0 X105.72 F10800
G1 X113.15 Y27.74 E1092.69 F12000
G1 X120.59 Y35.17 E1093.022
G1 X128.02 Y42.61 E1093.354
G1 X135.46 Y50.04 E1093.687
G1 X142.89 Y57.48 E1094.019
G1 X150.33 Y64.91 E1094.351
G1 X157.76 Y72.35 E1094.683
G1 X165.2 Y79.78 E1095.015
G0 X165.2 Y80.35 F10800
G1 X157.69 Y72.84 E1095.351 F12000
G1 X150.19 Y65.33 E1095.686
G1 X142.68 Y57.83 E1096.022
G1 X135.18 Y50.32 E1096.357
G1 X127.67 Y42.82 E1096.692
G1 X120.16 Y35.31 E1097.028
G1 X112.66 Y27.81 E1097.363
G1 X105.15 Y20.3 E1097.699
G0 X104.59 F10800
G1 X112.16 Y27.88 E1098.037 F12000
G1 X119.74 Y35.45 E1098.376
G1 X127.32 Y43.03 E1098.714
G1 X134.89 Y50.61 E1099.053
G1 X142.47 Y58.18 E1099.391
G1 X150.05 Y65.76 E1099.73
G1 X157.62 Y73.34 E1100.069
G1 X165.2 Y80.91 E1100.407
G0 X165.2 Y81.48 F10800
G1 X157.55 Y73.83 E1100.749 F12000
G1 X149.9 Y66.18 E1101.09
G1 X142.26 Y58.54 E1101.432
G1 X134.61 Y50.89 E1101.774
G1 X126.96 Y43.24 E1102.116
G1 X119.32 Y35.59 E1102.457
G1 X111.67 Y27.95 E1102.799
G1 X104.02 Y20.3 E1103.141
G0 X103.46 F10800
G1 X111.17 Y28.02 E1103.486 F12000
G1 X118.89 Y35.74 E1103.831
G1 X126.61 Y43.45 E1104.175
G1 X134.33 Y51.17 E1104.52
G1 X142.05 Y58.89 E1104.865
G1 X149.76 Y66.61 E1105.21
G1 X157.48 Y74.33 E1105.555
G1 X165.2 Y82.04 E1105.9
G0 X165.2 Y82.61 F10800
G1 X157.41 Y74.82 E1106.248 F12000
G1 X149.62 Y67.03 E1106.596
G1 X141.83 Y59.24 E1106.944
G1 X134.04 Y51.45 E1107.292
G1 X126.26 Y43.67 E1107.64
G1 X118.47 Y35.88 E1107.988
G1 X110.68 Y28.09 E1108.336
G1 X102.89 Y20.3 E1108.684
G0 X102.32 F10800
G1 X110.18 Y28.16 E1109.035 F12000
G1 X118.04 Y36.02 E1109.386
G1 X125.9 Y43.88 E1109.738
G1 X133.76 Y51.74 E1110.089
G1 X141.62 Y59.6 E1110.44
G1 X149.48 Y67.46 E1110.791
G1 X157.34 Y75.31 E1111.142
G1 X165.2 Y83.17 E1111.494
G0 X165.2 Y83.74 F10800
G1 X157.27 Y75.81 E1111.848 F12000
G1 X149.34 Y67.88 E1112.202
G1 X141.41 Y59.95 E1112.557
G1 X133.48 Y52.02 E1112.911
G1 X125.55 Y44.09 E1113.265
G1 X117.62 Y36.16 E1113.62
G1 X109.69 Y28.23 E1113.974
G1 X101.76 Y20.3 E1114.328
G0 X101.19 F10800
G1 X108.3 Y27.41 E1114.646 F12000
G1 X115.42 Y34.52 E1114.964
G1 X122.53 Y41.64 E1115.282
G1 X129.64 Y48.75 E1115.6
G1 X136.75 Y55.86 E1115.917
G1 X143.86 Y62.97 E1116.235
G1 X150.98 Y70.08 E1116.553
G1 X158.09 Y77.19 E1116.871
G1 X165.2 Y84.31 E1117.189
G0 X165.2 Y84.87 F10800
G1 X158.02 Y77.7 E1117.509 F12000
G1 X150.85 Y70.52 E1117.83
G1 X143.68 Y63.35 E1118.15
G1 X136.5 Y56.17 E1118.471
G1 X129.33 Y49 E1118.792
G1 X122.15 Y41.82 E1119.112
G1 X114.98 Y34.65 E1119.433
G1 X107.8 Y27.47 E1119.753
G1 X100.63 Y20.3 E1120.074
G0 X100.06 F10800
G1 X107.3 Y27.54 E1120.397 F12000
G1 X114.54 Y34.77 E1120.721
G1 X121.77 Y42.01 E1121.044
G1 X129.01 Y49.25 E1121.368
G1 X136.25 Y56.49 E1121.691
G1 X143.49 Y63.72 E1122.014
G1 X150.72 Y70.96 E1122.338
G1 X157.96 Y78.2 E1122.661
G1 X165.2 Y85.44 E1122.985
G0 X165.2 Y86 F10800
G1 X157.9 Y78.7 E1123.311 F12000
G1 X150.6 Y71.4 E1123.637
G1 X143.3 Y64.1 E1123.963
G1 X136 Y56.8 E1124.289
G1 X128.7 Y49.5 E1124.616
G1 X121.4 Y42.2 E1124.942
G1 X114.1 Y34.9 E1125.268
G1 X106.8 Y27.6 E1125.594
G1 X99.5 Y20.3 E1125.921
G0 X98.93 F10800
G1 X106.29 Y27.66 E1126.25 F12000
G1 X113.66 Y35.03 E1126.579
G1 X121.02 Y42.39 E1126.908
G1 X128.38 Y49.75 E1127.237
G1 X135.75 Y57.12 E1127.566
G1 X143.11 Y64.48 E1127.895
G1 X150.47 Y71.84 E1128.224
G1 X157.84 Y79.2 E1128.553
G1 X165.2 Y86.57 E1128.882
G0 X165.2 Y87.13 F10800
G1 X157.77 Y79.71 E1129.214 F12000
G1 X150.35 Y72.28 E1129.545
G1 X142.92 Y64.86 E1129.877
G1 X135.49 Y57.43 E1130.209
G1 X128.07 Y50 E1130.541
G1 X120.64 Y42.58 E1130.873
G1 X113.22 Y35.15 E1131.205
G1 X105.79 Y27.73 E1131.536
G1 X98.36 Y20.3 E1131.868
G0 X97.8 F10800
G1 X105.29 Y27.79 E1132.203 F12000
G1 X112.78 Y35.28 E1132.538
G1 X120.27 Y42.77 E1132.872
G1 X127.75 Y50.26 E1133.207
G1 X135.24 Y57.74 E1133.541
G1 X142.73 Y65.23 E1133.876
G1 X150.22 Y72.72 E1134.211
G1 X157.71 Y80.21 E1134.545
G1 X165.2 Y87.7 E1134.88
G0 X165.2 Y88.27 F10800
G1 X157.65 Y80.71 E1135.217 F12000
G1 X150.1 Y73.16 E1135.555
G1 X142.54 Y65.61 E1135.892
G1 X134.99 Y58.06 E1136.23
G1 X127.44 Y50.51 E1136.567
G1 X119.89 Y42.96 E1136.905
G1 X112.34 Y35.4 E1137.242
G1 X104.78 Y27.85 E1137.58
G1 X97.23 Y20.3 E1137.917
G0 X96.67 F10800
G1 X104.28 Y27.91 E1138.257 F12000
G1 X111.9 Y35.53 E1138.598
G1 X119.51 Y43.14 E1138.938
G1 X127.13 Y50.76 E1139.278
G1 X134.74 Y58.37 E1139.618
G1 X142.36 Y65.99 E1139.959
G1 X149.97 Y73.6 E1140.299
G1 X157.58 Y81.22 E1140.639
G1 X165.2 Y88.83 E1140.979
G0 X165.2 Y89.4 F10800
G1 X157.52 Y81.72 E1141.323 F12000
G1 X149.84 Y74.04 E1141.666
G1 X142.17 Y66.36 E1142.009
G1 X134.49 Y58.69 E1142.352
G1 X126.81 Y51.01 E1142.695
G1 X119.13 Y43.33 E1143.038
G1 X111.46 Y35.65 E1143.381
G1 X103.78 Y27.98 E1143.724
G1 X96.1 Y20.3 E1144.067
G0 X95.54 F10800
G1 X103.28 Y28.04 E1144.413 F12000
G1 X111.02 Y35.78 E1144.759
G1 X118.76 Y43.52 E1145.105
G1 X126.5 Y51.26 E1145.451
G1 X134.24 Y59 E1145.796
G1 X141.98 Y66.74 E1146.142
G1 X149.72 Y74.48 E1146.488
G1 X157.46 Y82.22 E1146.834
G1 X165.2 Y89.96 E1147.18
G0 X165.2 Y90.53 F10800
G1 X157.4 Y82.72 E1147.529 F12000
G1 X149.59 Y74.92 E1147.877
G1 X141.79 Y67.12 E1148.226
G1 X133.99 Y59.32 E1148.575
G1 X126.18 Y51.51 E1148.923
G1 X118.38 Y43.71 E1149.272
G1 X110.58 Y35.91 E1149.621
G1 X102.77 Y28.1 E1149.969
G1 X94.97 Y20.3 E1150.318
G0 X94.41 F10800
G1 X101.48 Y27.38 E1150.634 F12000
G1 X108.56 Y34.46 E1150.951
G1 X115.64 Y41.54 E1151.267
G1 X122.72 Y48.62 E1151.583
G1 X129.8 Y55.7 E1151.9
G1 X136.88 Y62.78 E1152.216
G1 X143.96 Y69.86 E1152.533
G1 X151.04 Y76.94 E1152.849
G1 X158.12 Y84.01 E1153.165
G1 X165.2 Y91.09 E1153.482
G0 X165.2 Y91.66 F10800
G1 X158.11 Y84.57 E1153.798 F12000
G1 X151.02 Y77.48 E1154.115
G1 X143.93 Y70.39 E1154.432
G1 X136.84 Y63.3 E1154.749
G1 X129.75 Y56.21 E1155.066
G1 X122.66 Y49.12 E1155.382
G1 X115.57 Y42.03 E1155.699
G1 X108.48 Y34.94 E1156.016
G1 X101.39 Y27.85 E1156.333
G1 X94.3 Y20.76 E1156.65
G0 X94.3 Y21.33 F10800
G1 X101.39 Y28.42 E1156.967 F12000
G1 X108.48 Y35.51 E1157.283
G1 X115.57 Y42.6 E1157.6
G1 X122.66 Y49.69 E1157.917
G1 X129.75 Y56.78 E1158.234
G1 X136.84 Y63.87 E1158.551
G1 X143.93 Y70.96 E1158.867
G1 X151.02 Y78.05 E1159.184
G1 X158.11 Y85.14 E1159.501
G1 X165.2 Y92.23 E1159.818
G0 X165.2 Y92.79 F10800
G1 X158.11 Y85.7 E1160.135 F12000
G1 X151.02 Y78.61 E1160.452
G1 X143.93 Y71.52 E1160.768
G1 X136.84 Y64.43 E1161.085
G1 X129.75 Y57.34 E1161.402
G1 X122.66 Y50.25 E1161.719
G1 X115.57 Y43.16 E1162.036
G1 X108.48 Y36.07 E1162.352
G1 X101.39 Y28.98 E1162.669
G1 X94.3 Y21.89 E1162.986
G0 X94.3 Y22.46 F10800
G1 X101.39 Y29.55 E1163.303 F12000
G1 X108.48 Y36.64 E1163.62
G1 X115.57 Y43.73 E1163.937
G1 X122.66 Y50.82 E1164.253
G1 X129.75 Y57.91 E1164.57
G1 X136.84 Y65 E1164.887
G1 X143.93 Y72.09 E1165.204
G1 X151.02 Y79.18 E1165.521
G1 X158.11 Y86.27 E1165.837
G1 X165.2 Y93.36 E1166.154
G0 X165.2 Y93.92 F10800
G1 X158.11 Y86.83 E1166.471 F12000
G1 X151.02 Y79.74 E1166.788
G1 X143.93 Y72.65 E1167.105
G1 X136.84 Y65.56 E1167.422
G1 X129.75 Y58.47 E1167.738
G1 X122.66 Y51.38 E1168.055
G1 X115.57 Y44.29 E1168.372
G1 X108.48 Y37.2 E1168.689
G1 X101.39 Y30.11 E1169.006
G1 X94.3 Y23.02 E1169.322
G0 X94.3 Y23.59 F10800
G1 X101.39 Y30.68 E1169.639 F12000
G1 X108.48 Y37.77 E1169.956
G1 X115.57 Y44.86 E1170.273
G1 X122.66 Y51.95 E1170.59
G1 X129.75 Y59.04 E1170.907
G1 X136.84 Y66.13 E1171.223
G1 X143.93 Y73.22 E1171.54
G1 X151.02 Y80.31 E1171.857
G1 X158.11 Y87.4 E1172.174
G1 X165.2 Y94.49 E1172.491
G0 X165.2 Y95.05 F10800
G1 X158.11 Y87.96 E1172.807 F12000
G1 X151.02 Y80.87 E1173.124
G1 X143.93 Y73.78 E1173.441
G1 X136.84 Y66.69 E1173.758
G1 X129.75 Y59.6 E1174.075
G1 X122.66 Y52.51 E1174.392
G1 X115.57 Y45.42 E1174.708
G1 X108.48 Y38.33 E1175.025
G1 X101.39 Y31.24 E1175.342
G1 X94.3 Y24.15 E1175.659
G0 X94.3 Y24.72 F10800
G1 X101.39 Y31.81 E1175.976 F12000
G1 X108.48 Y38.9 E1176.292
G1 X115.57 Y45.99 E1176.609
G1 X122.66 Y53.08 E1176.926
G1 X129.75 Y60.17 E1177.243
G1 X136.84 Y67.26 E1177.56
G1 X143.93 Y74.35 E1177.877
G1 X151.02 Y81.44 E1178.193
G1 X158.11 Y88.53 E1178.51
G1 X165.2 Y95.62 E1178.827
G0 X165.2 Y96.19 F10800
G1 X158.11 Y89.1 E1179.144 F12000
G1 X151.02 Y82.01 E1179.461
G1 X143.93 Y74.92 E1179.777
G1 X136.84 Y67.83 E1180.094
G1 X129.75 Y60.74 E1180.411
G1 X122.66 Y53.65 E1180.728
G1 X115.57 Y46.56 E1181.045
G1 X108.48 Y39.47 E1181.361
G1 X101.39 Y32.38 E1181.678
G1 X94.3 Y25.29 E1181.995
G0 X94.3 Y25.85 F10800
G1 X101.39 Y32.94 E1182.312 F12000
G1 X108.48 Y40.03 E1182.629
G1 X115.57 Y47.12 E1182.946
G1 X122.66 Y54.21 E1183.262
G1 X129.75 Y61.3 E1183.579
G1 X136.84 Y68.39 E1183.896
G1 X143.93 Y75.48 E1184.213
G1 X151.02 Y82.57 E1184.53
G1 X158.11 Y89.66 E1184.846
G1 X165.2 Y96.75 E1185.163
G0 X165.2 Y97.32 F10800
G1 X158.11 Y90.23 E1185.48 F12000
G1 X151.02 Y83.14 E1185.797
G1 X143.93 Y76.05 E1186.114
G1 X136.84 Y68.96 E1186.431
G1 X129.75 Y61.87 E1186.747
G1 X122.66 Y54.78 E1187.064
G1 X115.57 Y47.69 E1187.381
G1 X108.48 Y40.6 E1187.698
G1 X101.39 Y33.51 E1188.015
G1 X94.3 Y26.42 E1188.331
G0 X94.3 Y26.98 F10800
G1 X101.39 Y34.07 E1188.648 F12000
G1 X108.48 Y41.16 E1188.965
G1 X115.57 Y48.25 E1189.282
G1 X122.66 Y55.34 E1189.599
G1 X129.75 Y62.43 E1189.916
G1 X136.84 Y69.52 E1190.232
G1 X143.93 Y76.61 E1190.549
G1 X151.02 Y83.7 E1190.866
G1 X158.11 Y90.79 E1191.183
G1 X165.2 Y97.88 E1191.5
G0 X165.2 Y98.45 F10800
G1 X158.11 Y91.36 E1191.816 F12000
G1 X151.02 Y84.27 E1192.133
G1 X143.93 Y77.18 E1192.45
G1 X136.84 Y70.09 E1192.767
G1 X129.75 Y63 E1193.084
G1 X122.66 Y55.91 E1193.401
G1 X115.57 Y48.82 E1193.717
G1 X108.48 Y41.73 E1194.034
G1 X101.39 Y34.64 E1194.351
G1 X94.3 Y27.55 E1194.668
G0 X94.3 Y28.11 F10800
G1 X101.39 Y35.2 E1194.985 F12000
G1 X108.48 Y42.29 E1195.301
G1 X115.57 Y49.38 E1195.618
G1 X122.66 Y56.47 E1195.935
G1 X129.75 Y63.56 E1196.252
G1 X136.84 Y70.65 E1196.569
G1 X143.93 Y77.74 E1196.886
G1 X151.02 Y84.83 E1197.202
G1 X158.11 Y91.92 E1197.519
G1 X165.2 Y99.01 E1197.836
G0 X165.2 Y99.58 F10800
G1 X158.11 Y92.49 E1198.153 F12000
G1 X151.02 Y85.4 E1198.47
G1 X143.93 Y78.31 E1198.786
G1 X136.84 Y71.22 E1199.103
G1 X129.75 Y64.13 E1199.42
G1 X122.66 Y57.04 E1199.737
G1 X115.57 Y49.95 E1200.054
G1 X108.48 Y42.86 E1200.371
G1 X101.39 Y35.77 E1200.687
G1 X94.3 Y28.68 E1201.004
G0 X94.3 Y29.25 F10800
G1 X101.39 Y36.34 E1201.321 F12000
G1 X108.48 Y43.43 E1201.638
G1 X115.57 Y50.52 E1201.955
G1 X122.66 Y57.61 E1202.271
G1 X129.75 Y64.7 E1202.588
G1 X136.84 Y71.79 E1202.905
G1 X143.93 Y78.88 E1203.222
G1 X151.02 Y85.97 E1203.539
G1 X158.11 Y93.06 E1203.856
G1 X165.2 Y100.15 E1204.172
G0 X165.2 Y100.71 F10800
G1 X158.11 Y93.62 E1204.489 F12000
G1 X151.02 Y86.53 E1204.806
G1 X143.93 Y79.44 E1205.123
G1 X136.84 Y72.35 E1205.44
G1 X129.75 Y65.26 E1205.756
G1 X122.66 Y58.17 E1206.073
G1 X115.57 Y51.08 E1206.39
G1 X108.48 Y43.99 E1206.707
G1 X101.39 Y36.9 E1207.024
G1 X94.3 Y29.81 E1207.341
G0 X94.3 Y30.38 F10800
G1 X101.39 Y37.47 E1207.657 F12000
G1 X108.48 Y44.56 E1207.974
G1 X115.57 Y51.65 E1208.291
G1 X122.66 Y58.74 E1208.608
G1 X129.75 Y65.83 E1208.925
G1 X136.84 Y72.92 E1209.241
G1 X143.93 Y80.01 E1209.558
G1 X151.02 Y87.1 E1209.875
G1 X158.11 Y94.19 E1210.192
G1 X165.2 Y101.28 E1210.509
G0 X165.2 Y101.84 F10800
G1 X158.11 Y94.75 E1210.826 F12000
G1 X151.02 Y87.66 E1211.142
G1 X143.93 Y80.57 E1211.459
G1 X136.84 Y73.48 E1211.776
G1 X129.75 Y66.39 E1212.093
G1 X122.66 Y59.3 E1212.41
G1 X115.57 Y52.21 E1212.726
G1 X108.48 Y45.12 E1213.043
G1 X101.39 Y38.03 E1213.36
G1 X94.3 Y30.94 E1213.677
G0 X94.3 Y31.51 F10800
G1 X101.39 Y38.6 E1213.994 F12000
G1 X108.48 Y45.69 E1214.311
G1 X115.57 Y52.78 E1214.627
G1 X122.66 Y59.87 E1214.944
G1 X129.75 Y66.96 E1215.261
G1 X136.84 Y74.05 E1215.578
G1 X143.93 Y81.14 E1215.895
G1 X151.02 Y88.23 E1216.211
G1 X158.11 Y95.32 E1216.528
G1 X165.2 Y102.41 E1216.845
G0 X165.2 Y102.97 F10800
G1 X158.11 Y95.88 E1217.162 F12000
G1 X151.02 Y88.79 E1217.479
G1 X143.93 Y81.7 E1217.796
G1 X136.84 Y74.61 E1218.112
G1 X129.75 Y67.52 E1218.429
G1 X122.66 Y60.43 E1218.746
G1 X115.57 Y53.34 E1219.063
G1 X108.48 Y46.25 E1219.38
G1 X101.39 Y39.16 E1219.696
G1 X94.3 Y32.07 E1220.013
G0 X94.3 Y32.64 F10800
G1 X101.39 Y39.73 E1220.33 F12000
G1 X108.48 Y46.82 E1220.647
G1 X115.57 Y53.91 E1220.964
G1 X122.66 Y61 E1221.281
G1 X129.75 Y68.09 E1221.597
G1 X136.84 Y75.18 E1221.914
G1 X143.93 Y82.27 E1222.231
G1 X151.02 Y89.36 E1222.548
G1 X158.11 Y96.45 E1222.865
G1 X165.2 Y103.54 E1223.181
G0 X165.2 Y104.11 F10800
G1 X158.11 Y97.02 E1223.498 F12000
G1 X151.02 Y89.93 E1223.815
G1 X143.93 Y82.84 E1224.132
G1 X136.84 Y75.75 E1224.449
G1 X129.75 Y68.66 E1224.766
G1 X122.66 Y61.57 E1225.082
G1 X115.57 Y54.48 E1225.399
G1 X108.48 Y47.39 E1225.716
G1 X101.39 Y40.3 E1226.033
G1 X94.3 Y33.21 E1226.35
G0 X94.3 Y33.77 F10800
G1 X101.39 Y40.86 E1226.666 F12000
G1 X108.48 Y47.95 E1226.983
G1 X115.57 Y55.04 E1227.3
G1 X122.66 Y62.13 E1227.617
G1 X129.75 Y69.22 E1227.934
G1 X136.84 Y76.31 E1228.251
G1 X143.93 Y83.4 E1228.567
G1 X151.02 Y90.49 E1228.884
G1 X158.11 Y97.58 E1229.201
G1 X165.2 Y104.67 E1229.518
G0 X165.2 Y105.24 F10800
G1 X158.11 Y98.15 E1229.835 F12000
G1 X151.02 Y91.06 E1230.151
G1 X143.93 Y83.97 E1230.468
G1 X136.84 Y76.88 E1230.785
G1 X129.75 Y69.79 E1231.102
G1 X122.66 Y62.7 E1231.419
G1 X115.57 Y55.61 E1231.736
G1 X108.48 Y48.52 E1232.052
G1 X101.39 Y41.43 E1232.369
G1 X94.3 Y34.34 E1232.686
G0 X94.3 Y34.9 F10800
G1 X101.39 Y41.99 E1233.003 F12000
G1 X108.48 Y49.08 E1233.32
G1 X115.57 Y56.17 E1233.636
G1 X122.66 Y63.26 E1233.953
G1 X129.75 Y70.35 E1234.27
G1 X136.84 Y77.44 E1234.587
G1 X143.93 Y84.53 E1234.904
G1 X151.02 Y91.62 E1235.22
G1 X158.11 Y98.71 E1235.537
G1 X165.2 Y105.8 E1235.854
G0 X165.2 Y106.37 F10800
G1 X158.11 Y99.28 E1236.171 F12000
G1 X151.02 Y92.19 E1236.488
G1 X143.93 Y85.1 E1236.805
G1 X136.84 Y78.01 E1237.121
G1 X129.75 Y70.92 E1237.438
G1 X122.66 Y63.83 E1237.755
G1 X115.57 Y56.74 E1238.072
G1 X108.48 Y49.65 E1238.389
G1 X101.39 Y42.56 E1238.705
G1 X94.3 Y35.47 E1239.022
G0 X94.3 Y36.03 F10800
G1 X101.39 Y43.12 E1239.339 F12000
G1 X108.48 Y50.21 E1239.656
G1 X115.57 Y57.3 E1239.973
G1 X122.66 Y64.39 E1240.29
G1 X129.75 Y71.48 E1240.606
G1 X136.84 Y78.57 E1240.923
G1 X143.93 Y85.66 E1241.24
G1 X151.02 Y92.75 E1241.557
G1 X158.11 Y99.84 E1241.874
G1 X165.2 Y106.93 E1242.19
G0 X165.2 Y107.5 F10800
G1 X158.11 Y100.41 E1242.507 F12000
G1 X151.02 Y93.32 E1242.824
G1 X143.93 Y86.23 E1243.141
G1 X136.84 Y79.14 E1243.458
G1 X129.75 Y72.05 E1243.775
G1 X122.66 Y64.96 E1244.091
G1 X115.57 Y57.87 E1244.408
G1 X108.48 Y50.78 E1244.725
G1 X101.39 Y43.69 E1245.042
G1 X94.3 Y36.6 E1245.359
G0 X94.3 Y37.16 F10800
G1 X101.39 Y44.25 E1245.675 F12000
G1 X108.48 Y51.34 E1245.992
G1 X115.57 Y58.43 E1246.309
G1 X122.66 Y65.52 E1246.626
G1 X129.75 Y72.61 E1246.943
G1 X136.84 Y79.7 E1247.26
G1 X143.93 Y86.79 E1247.576
G1 X151.02 Y93.88 E1247.893
G1 X158.11 Y100.97 E1248.21
G1 X165.2 Y108.07 E1248.527
G0 X165.2 Y108.63 F10800
G1 X158.11 Y101.54 E1248.844 F12000
G1 X151.02 Y94.45 E1249.16
G1 X143.93 Y87.36 E1249.477
G1 X136.84 Y80.27 E1249.794
G1 X129.75 Y73.18 E1250.111
G1 X122.66 Y66.09 E1250.428
G1 X115.57 Y59 E1250.745
G1 X108.48 Y51.91 E1251.061
G1 X101.39 Y44.82 E1251.378
G1 X94.3 Y37.73 E1251.695
G0 X94.3 Y38.3 F10800
G1 X101.39 Y45.39 E1252.012 F12000
G1 X108.48 Y52.48 E1252.329
G1 X115.57 Y59.57 E1252.645
G1 X122.66 Y66.66 E1252.962
G1 X129.75 Y73.75 E1253.279
G1 X136.84 Y80.84 E1253.596
G1 X143.93 Y87.93 E1253.913
G1 X151.02 Y95.02 E1254.23
G1 X158.11 Y102.11 E1254.546
G1 X165.2 Y109.2 E1254.863
G0 X165.2 Y109.76 F10800
G1 X158.11 Y102.67 E1255.18 F12000
G1 X151.02 Y95.58 E1255.497
G1 X143.93 Y88.49 E1255.814
G1 X136.84 Y81.4 E1256.13
G1 X129.75 Y74.31 E1256.447
G1 X122.66 Y67.22 E1256.764
G1 X115.57 Y60.13 E1257.081
G1 X108.48 Y53.04 E1257.398
G1 X101.39 Y45.95 E1257.715
G1 X94.3 Y38.86 E1258.031
G0 X94.3 Y39.43 F10800
G1 X101.39 Y46.52 E1258.348 F12000
G1 X108.48 Y53.61 E1258.665
G1 X115.57 Y60.7 E1258.982
G1 X122.66 Y67.79 E1259.299
G1 X129.75 Y74.88 E1259.615
G1 X136.84 Y81.97 E1259.932
G1 X143.93 Y89.06 E1260.249
G1 X151.02 Y96.15 E1260.566
G1 X158.11 Y103.24 E1260.883
G1 X165.2 Y110.33 E1261.2
G0 X165.2 Y110.89 F10800
G1 X158.11 Y103.8 E1261.516 F12000
G1 X151.02 Y96.71 E1261.833
G1 X143.93 Y89.62 E1262.15
G1 X136.84 Y82.53 E1262.467
G1 X129.75 Y75.44 E1262.784
G1 X122.66 Y68.35 E1263.1
G1 X115.57 Y61.26 E1263.417
G1 X108.48 Y54.17 E1263.734
G1 X101.39 Y47.08 E1264.051
G1 X94.3 Y39.99 E1264.368
G0 X94.3 Y40.56 F10800
G1 X101.39 Y47.65 E1264.685 F12000
G1 X108.48 Y54.74 E1265.001
G1 X115.57 Y61.83 E1265.318
G1 X122.66 Y68.92 E1265.635
G1 X129.75 Y76.01 E1265.952
G1 X136.84 Y83.1 E1266.269
G1 X143.93 Y90.19 E1266.585
G1 X151.02 Y97.28 E1266.902
G1 X158.11 Y104.37 E1267.219
G1 X165.2 Y111.46 E1267.536
G0 X165.2 Y112.02 F10800
G1 X158.11 Y104.93 E1267.853 F12000
G1 X151.02 Y97.84 E1268.17
G1 X143.93 Y90.75 E1268.486
G1 X136.84 Y83.66 E1268.803
G1 X129.75 Y76.57 E1269.12
G1 X122.66 Y69.48 E1269.437
G1 X115.57 Y62.39 E1269.754
G1 X108.48 Y55.3 E1270.07
G1 X101.39 Y48.21 E1270.387
G1 X94.3 Y41.12 E1270.704
G0 X94.3 Y41.69 F10800
G1 X101.39 Y48.78 E1271.021 F12000
G1 X108.48 Y55.87 E1271.338
G1 X115.57 Y62.96 E1271.655
G1 X122.66 Y70.05 E1271.971
G1 X129.75 Y77.14 E1272.288
G1 X136.84 Y84.23 E1272.605
G1 X143.93 Y91.32 E1272.922
G1 X151.02 Y98.41 E1273.239
G1 X158.11 Y105.5 E1273.555
G1 X165.2 Y112.59 E1273.872
G0 X165.2 Y113.16 F10800
G1 X158.11 Y106.07 E1274.189 F12000
G1 X151.02 Y98.98 E1274.506
G1 X143.93 Y91.89 E1274.823
G1 X136.84 Y84.8 E1275.14
G1 X129.75 Y77.71 E1275.456
G1 X122.66 Y70.62 E1275.773
G1 X115.57 Y63.53 E1276.09
G1 X108.48 Y56.44 E1276.407
G1 X101.39 Y49.35 E1276.724
G1 X94.3 Y42.26 E1277.04
G0 X94.3 Y42.82 F10800
G1 X101.39 Y49.91 E1277.357 F12000
G1 X108.48 Y57 E1277.674
G1 X115.57 Y64.09 E1277.991
G1 X122.66 Y71.18 E1278.308
G1 X129.75 Y78.27 E1278.625
G1 X136.84 Y85.36 E1278.941
G1 X143.93 Y92.45 E1279.258
G1 X151.02 Y99.54 E1279.575
G1 X158.11 Y106.63 E1279.892
G1 X165.2 Y113.72 E1280.209
G0 X165.2 Y114.29 F10800
G1 X158.11 Y107.2 E1280.525 F12000
G1 X151.02 Y100.11 E1280.842
G1 X143.93 Y93.02 E1281.159
G1 X136.84 Y85.93 E1281.476
G1 X129.75 Y78.84 E1281.793
G1 X122.66 Y71.75 E1282.11
G1 X115.57 Y64.66 E1282.426
G1 X108.48 Y57.57 E1282.743
G1 X101.39 Y50.48 E1283.06
G1 X94.3 Y43.39 E1283.377
G0 X94.3 Y43.95 F10800
G1 X101.39 Y51.04 E1283.694 F12000
G1 X108.48 Y58.13 E1284.01
G1 X115.57 Y65.22 E1284.327
G1 X122.66 Y72.31 E1284.644
G1 X129.75 Y79.4 E1284.961
G1 X136.84 Y86.49 E1285.278
G1 X143.93 Y93.58 E1285.595
G1 X151.02 Y100.67 E1285.911
G1 X158.11 Y107.76 E1286.228
G1 X165.2 Y114.85 E1286.545
G0 X165.2 Y115.42 F10800
G1 X158.11 Y108.33 E1286.862 F12000
G1 X151.02 Y101.24 E1287.179
G1 X143.93 Y94.15 E1287.495
G1 X136.84 Y87.06 E1287.812
G1 X129.75 Y79.97 E1288.129
G1 X122.66 Y72.88 E1288.446
G1 X115.57 Y65.79 E1288.763
G1 X108.48 Y58.7 E1289.08
G1 X101.39 Y51.61 E1289.396
G1 X94.3 Y44.52 E1289.713
G0 X94.3 Y45.08 F10800
G1 X102.15 Y52.93 E1290.064 F12000
G1 X109.99 Y60.78 E1290.414
G1 X117.84 Y68.62 E1290.765
G1 X125.68 Y76.47 E1291.116
G1 X133.53 Y84.32 E1291.466
G1 X141.38 Y92.16 E1291.817
G1 X149.22 Y100.01 E1292.167
G1 X157.07 Y107.85 E1292.518
G1 X164.91 Y115.7 E1292.869
G0 X164.35 F10800
G1 X156.57 Y107.92 E1293.216 F12000
G1 X148.78 Y100.13 E1293.564
G1 X141 Y92.35 E1293.912
G1 X133.22 Y84.57 E1294.26
G1 X125.43 Y76.78 E1294.608
G1 X117.65 Y69 E1294.955
G1 X109.87 Y61.22 E1295.303
G1 X102.08 Y53.43 E1295.651
G1 X94.3 Y45.65 E1295.999
G0 X94.3 Y46.22 F10800
G1 X102.02 Y53.94 E1296.344 F12000
G1 X109.74 Y61.66 E1296.689
G1 X117.46 Y69.38 E1297.034
G1 X125.18 Y77.1 E1297.379
G1 X132.9 Y84.82 E1297.724
G1 X140.62 Y92.54 E1298.069
G1 X148.34 Y100.26 E1298.414
G1 X156.06 Y107.98 E1298.759
G1 X163.78 Y115.7 E1299.104
G0 X163.22 F10800
G1 X155.56 Y108.04 E1299.446 F12000
G1 X147.9 Y100.38 E1299.788
G1 X140.24 Y92.73 E1300.13
G1 X132.59 Y85.07 E1300.472
G1 X124.93 Y77.41 E1300.815
G1 X117.27 Y69.75 E1301.157
G1 X109.61 Y62.1 E1301.499
G1 X101.96 Y54.44 E1301.841
G1 X94.3 Y46.78 E1302.183
G0 X94.3 Y47.35 F10800
G1 X101.89 Y54.94 E1302.523 F12000
G1 X109.49 Y62.54 E1302.862
G1 X117.08 Y70.13 E1303.201
G1 X124.68 Y77.73 E1303.541
G1 X132.27 Y85.32 E1303.88
G1 X139.87 Y92.92 E1304.22
G1 X147.46 Y100.51 E1304.559
G1 X155.06 Y108.11 E1304.898
G1 X162.65 Y115.7 E1305.238
G0 X162.09 F10800
G1 X154.55 Y108.17 E1305.574 F12000
G1 X147.02 Y100.64 E1305.911
G1 X139.49 Y93.1 E1306.247
G1 X131.96 Y85.57 E1306.584
G1 X124.43 Y78.04 E1306.921
G1 X116.89 Y70.51 E1307.257
G1 X109.36 Y62.98 E1307.594
G1 X101.83 Y55.44 E1307.93
G1 X94.3 Y47.91 E1308.267
G0 X94.3 Y48.48 F10800
G1 X101.77 Y55.95 E1308.601 F12000
G1 X109.24 Y63.42 E1308.934
G1 X116.71 Y70.89 E1309.268
G1 X124.18 Y78.35 E1309.602
G1 X131.64 Y85.82 E1309.936
G1 X139.11 Y93.29 E1310.269
G1 X146.58 Y100.76 E1310.603
G1 X154.05 Y108.23 E1310.937
G1 X161.52 Y115.7 E1311.271
G0 X160.96 F10800
G1 X153.55 Y108.29 E1311.602 F12000
G1 X146.14 Y100.89 E1311.933
G1 X138.74 Y93.48 E1312.263
G1 X131.33 Y86.08 E1312.594
G1 X123.92 Y78.67 E1312.925
G1 X116.52 Y71.26 E1313.256
G1 X109.11 Y63.86 E1313.587
G1 X101.71 Y56.45 E1313.918
G1 X94.3 Y49.04 E1314.249
G0 X94.3 Y49.61 F10800
G1 X101.64 Y56.95 E1314.577 F12000
G1 X108.99 Y64.3 E1314.905
G1 X116.33 Y71.64 E1315.234
G1 X123.67 Y78.98 E1315.562
G1 X131.02 Y86.33 E1315.89
G1 X138.36 Y93.67 E1316.218
G1 X145.7 Y101.01 E1316.546
G1 X153.05 Y108.36 E1316.874
G1 X160.39 Y115.7 E1317.202
G0 X159.82 F10800
G1 X152.54 Y108.42 E1317.528 F12000
G1 X145.26 Y101.14 E1317.853
G1 X137.98 Y93.86 E1318.178
G1 X130.7 Y86.58 E1318.504
G1 X123.42 Y79.3 E1318.829
G1 X116.14 Y72.02 E1319.154
G1 X108.86 Y64.74 E1319.48
G1 X101.58 Y57.46 E1319.805
G1 X94.3 Y50.18 E1320.13
G0 X94.3 Y50.74 F10800
G1 X101.52 Y57.96 E1320.453 F12000
G1 X108.73 Y65.18 E1320.775
G1 X115.95 Y72.39 E1321.098
G1 X123.17 Y79.61 E1321.42
G1 X130.39 Y86.83 E1321.743
G1 X137.61 Y94.05 E1322.065
G1 X144.82 Y101.26 E1322.388
G1 X152.04 Y108.48 E1322.711
G1 X159.26 Y115.7 E1323.033
G0 X158.69 F10800
G1 X151.54 Y108.55 E1323.353 F12000
G1 X144.38 Y101.39 E1323.672
G1 X137.23 Y94.24 E1323.992
G1 X130.07 Y87.08 E1324.312
G1 X122.92 Y79.93 E1324.632
G1 X115.76 Y72.77 E1324.951
G1 X108.61 Y65.62 E1325.271
G1 X101.45 Y58.46 E1325.591
G1 X94.3 Y51.31 E1325.91
G0 X94.3 Y51.87 F10800
G1 X101.39 Y58.96 E1326.227 F12000
G1 X108.48 Y66.06 E1326.544
G1 X115.57 Y73.15 E1326.861
G1 X122.67 Y80.24 E1327.178
G1 X129.76 Y87.33 E1327.495
G1 X136.85 Y94.42 E1327.812
G1 X143.94 Y101.52 E1328.129
G1 X151.03 Y108.61 E1328.446
G1 X158.13 Y115.7 E1328.763
G0 X157.56 F10800
G1 X149.65 Y107.79 E1329.116 F12000
G1 X141.75 Y99.88 E1329.469
G1 X133.84 Y91.98 E1329.823
G1 X125.93 Y84.07 E1330.176
G1 X118.02 Y76.16 E1330.529
G1 X110.11 Y68.25 E1330.883
G1 X102.21 Y60.35 E1331.236
G1 X94.3 Y52.44 E1331.59
G0 X94.3 Y53 F10800
G1 X102.14 Y60.84 E1331.94 F12000
G1 X109.97 Y68.68 E1332.29
G1 X117.81 Y76.52 E1332.64
G1 X125.65 Y84.35 E1332.99
G1 X133.48 Y92.19 E1333.34
G1 X141.32 Y100.03 E1333.691
G1 X149.16 Y107.86 E1334.041
G1 X157 Y115.7 E1334.391
G0 X156.43 F10800
G1 X148.66 Y107.93 E1334.738 F12000
G1 X140.9 Y100.17 E1335.085
G1 X133.13 Y92.4 E1335.432
G1 X125.36 Y84.63 E1335.779
G1 X117.6 Y76.87 E1336.126
G1 X109.83 Y69.1 E1336.473
G1 X102.07 Y61.34 E1336.82
G1 X94.3 Y53.57 E1337.167
G0 X94.3 Y54.14 F10800
G1 X101.99 Y61.83 E1337.511 F12000
G1 X109.69 Y69.53 E1337.855
G1 X117.39 Y77.22 E1338.199
G1 X125.08 Y84.92 E1338.543
G1 X132.78 Y92.61 E1338.887
G1 X140.47 Y100.31 E1339.231
G1 X148.17 Y108 E1339.575
G1 X155.86 Y115.7 E1339.918
G0 X155.3 F10800
G1 X147.67 Y108.08 E1340.259 F12000
G1 X140.05 Y100.45 E1340.6
G1 X132.42 Y92.83 E1340.941
G1 X124.8 Y85.2 E1341.281
G1 X117.17 Y77.58 E1341.622
G1 X109.55 Y69.95 E1341.963
G1 X101.92 Y62.33 E1342.303
G1 X94.3 Y54.7 E1342.644
G0 X94.3 Y55.27 F10800
G1 X101.85 Y62.82 E1342.982 F12000
G1 X109.41 Y70.37 E1343.319
G1 X116.96 Y77.93 E1343.657
G1 X124.52 Y85.48 E1343.994
G1 X132.07 Y93.04 E1344.332
G1 X139.62 Y100.59 E1344.67
G1 X147.18 Y108.15 E1345.007
G1 X154.73 Y115.7 E1345.345
G0 X154.17 F10800
G1 X146.68 Y108.22 E1345.679 F12000
G1 X139.2 Y100.73 E1346.013
G1 X131.72 Y93.25 E1346.348
G1 X124.23 Y85.77 E1346.682
G1 X116.75 Y78.28 E1347.017
G1 X109.27 Y70.8 E1347.351
G1 X101.78 Y63.32 E1347.685
G1 X94.3 Y55.83 E1348.02
G0 X94.3 Y56.4 F10800
G1 X101.71 Y63.81 E1348.351 F12000
G1 X109.12 Y71.22 E1348.682
G1 X116.54 Y78.64 E1349.014
G1 X123.95 Y86.05 E1349.345
G1 X131.36 Y93.46 E1349.676
G1 X138.78 Y100.87 E1350.007
G1 X146.19 Y108.29 E1350.339
G1 X153.6 Y115.7 E1350.67
G0 X153.04 F10800
G1 X145.69 Y108.36 E1350.998 F12000
G1 X138.35 Y101.02 E1351.326
G1 X131.01 Y93.67 E1351.654
G1 X123.67 Y86.33 E1351.982
G1 X116.33 Y78.99 E1352.31
G1 X108.98 Y71.65 E1352.638
G1 X101.64 Y64.31 E1352.966
G1 X94.3 Y56.96 E1353.294
G0 X94.3 Y57.53 F10800
G1 X101.57 Y64.8 E1353.619 F12000
G1 X108.84 Y72.07 E1353.944
G1 X116.11 Y79.34 E1354.269
G1 X123.38 Y86.61 E1354.594
G1 X130.66 Y93.89 E1354.919
G1 X137.93 Y101.16 E1355.244
G1 X145.2 Y108.43 E1355.569
G1 X152.47 Y115.7 E1355.894
G0 X151.9 F10800
G1 X144.7 Y108.5 E1356.216 F12000
G1 X137.5 Y101.3 E1356.537
G1 X130.3 Y94.1 E1356.859
G1 X123.1 Y86.9 E1357.181
G1 X115.9 Y79.7 E1357.503
G1 X108.7 Y72.5 E1357.824
G1 X101.5 Y65.3 E1358.146
G1 X94.3 Y58.1 E1358.468
G0 X94.3 Y58.66 F10800
G1 X101.43 Y65.79 E1358.786 F12000
G1 X108.56 Y72.92 E1359.105
G1 X115.69 Y80.05 E1359.424
G1 X122.82 Y87.18 E1359.742
G1 X129.95 Y94.31 E1360.061
G1 X137.08 Y101.44 E1360.379
G1 X144.21 Y108.57 E1360.698
G1 X151.34 Y115.7 E1361.017
G0 X150.77 F10800
G1 X142.7 Y107.63 E1361.377 F12000
G1 X134.64 Y99.56 E1361.738
G1 X126.57 Y91.5 E1362.098
G1 X118.5 Y83.43 E1362.459
G1 X110.43 Y75.36 E1362.819
G1 X102.37 Y67.29 E1363.18
G1 X94.3 Y59.23 E1363.54
G0 X94.3 Y59.79 F10800
G1 X102.29 Y67.78 E1363.897 F12000
G1 X110.27 Y75.77 E1364.254
G1 X118.26 Y83.75 E1364.611
G1 X126.25 Y91.74 E1364.968
G1 X134.23 Y99.73 E1365.325
G1 X142.22 Y107.71 E1365.682
G1 X150.21 Y115.7 E1366.038
G0 X149.64 F10800
G1 X141.74 Y107.79 E1366.392 F12000
G1 X133.83 Y99.89 E1366.745
G1 X125.92 Y91.98 E1367.098
G1 X118.02 Y84.08 E1367.452
G1 X110.11 Y76.17 E1367.805
G1 X102.21 Y68.26 E1368.158
G1 X94.3 Y60.36 E1368.511
G0 X94.3 Y60.92 F10800
G1 X102.12 Y68.75 E1368.861 F12000
G1 X109.95 Y76.57 E1369.211
G1 X117.77 Y84.4 E1369.56
G1 X125.6 Y92.22 E1369.91
G1 X133.42 Y100.05 E1370.26
G1 X141.25 Y107.87 E1370.609
G1 X149.08 Y115.7 E1370.959
G0 X148.51 F10800
G1 X140.77 Y107.96 E1371.305 F12000
G1 X133.02 Y100.21 E1371.651
G1 X125.28 Y92.47 E1371.997
G1 X117.53 Y84.72 E1372.343
G1 X109.79 Y76.98 E1372.689
G1 X102.04 Y69.23 E1373.035
G1 X94.3 Y61.49 E1373.382
G0 X94.3 Y62.05 F10800
G1 X101.96 Y69.72 E1373.724 F12000
G1 X109.63 Y77.38 E1374.066
G1 X117.29 Y85.05 E1374.409
G1 X124.95 Y92.71 E1374.751
G1 X132.62 Y100.37 E1375.094
G1 X140.28 Y108.04 E1375.436
G1 X147.94 Y115.7 E1375.779
G0 X147.38 F10800
G1 X139.8 Y108.12 E1376.118 F12000
G1 X132.21 Y100.53 E1376.456
G1 X124.63 Y92.95 E1376.795
G1 X117.05 Y85.37 E1377.134
G1 X109.46 Y77.79 E1377.473
G1 X101.88 Y70.2 E1377.812
G1 X94.3 Y62.62 E1378.151
G0 X94.3 Y63.19 F10800
G1 X101.8 Y70.69 E1378.486 F12000
G1 X109.3 Y78.19 E1378.821
G1 X116.81 Y85.69 E1379.156
G1 X124.31 Y93.19 E1379.491
G1 X131.81 Y100.7 E1379.827
G1 X139.31 Y108.2 E1380.162
G1 X146.81 Y115.7 E1380.497
G0 X146.25 F10800
G1 X138.83 Y108.28 E1380.829 F12000
G1 X131.4 Y100.86 E1381.16
G1 X123.98 Y93.44 E1381.492
G1 X116.56 Y86.02 E1381.824
G1 X109.14 Y78.59 E1382.155
G1 X101.72 Y71.17 E1382.487
G1 X94.3 Y63.75 E1382.818
G0 X94.3 Y64.32 F10800
G1 X101.64 Y71.66 E1383.146 F12000
G1 X108.98 Y79 E1383.474
G1 X116.32 Y86.34 E1383.802
G1 X123.66 Y93.68 E1384.13
G1 X131 Y101.02 E1384.458
G1 X138.34 Y108.36 E1384.786
G1 X145.68 Y115.7 E1385.114
G0 X145.12 F10800
G1 X137.86 Y108.44 E1385.439 F12000
G1 X130.6 Y101.18 E1385.763
G1 X123.34 Y93.92 E1386.088
G1 X116.08 Y86.66 E1386.412
G1 X108.82 Y79.4 E1386.736
G1 X101.56 Y72.14 E1387.061
G1 X94.3 Y64.88 E1387.385
G0 X94.3 Y65.45 F10800
G1 X101.48 Y72.63 E1387.706 F12000
G1 X108.66 Y79.81 E1388.027
G1 X115.84 Y86.99 E1388.348
G1 X123.01 Y94.16 E1388.668
G1 X130.19 Y101.34 E1388.989
G1 X137.37 Y108.52 E1389.31
G1 X144.55 Y115.7 E1389.631
G0 X143.98 F10800
G1 X136.89 Y108.6 E1389.948 F12000
G1 X129.79 Y101.5 E1390.265
G1 X122.69 Y94.41 E1390.582
G1 X115.59 Y87.31 E1390.899
G1 X108.49 Y80.21 E1391.217
G1 X101.4 Y73.11 E1391.534
G1 X94.3 Y66.01 E1391.851
G0 X94.3 Y66.58 F10800
G1 X102.49 Y74.77 E1392.217 F12000
G1 X110.67 Y82.95 E1392.583
G1 X118.86 Y91.14 E1392.948
G1 X127.05 Y99.33 E1393.314
G1 X135.23 Y107.51 E1393.68
G1 X143.42 Y115.7 E1394.046
G0 X142.85 F10800
G1 X134.76 Y107.61 E1394.407 F12000
G1 X126.67 Y99.52 E1394.769
G1 X118.58 Y91.42 E1395.131
G1 X110.48 Y83.33 E1395.492
G1 X102.39 Y75.24 E1395.854
G1 X94.3 Y67.15 E1396.215
G0 X94.3 Y67.71 F10800
G1 X102.3 Y75.71 E1396.573 F12000
G1 X110.3 Y83.71 E1396.93
G1 X118.29 Y91.71 E1397.288
G1 X126.29 Y99.7 E1397.645
G1 X134.29 Y107.7 E1398.002
G1 X142.29 Y115.7 E1398.36
G0 X141.72 F10800
G1 X133.82 Y107.8 E1398.713 F12000
G1 X125.91 Y99.89 E1399.066
G1 X118.01 Y91.99 E1399.419
G1 X110.11 Y84.09 E1399.772
G1 X102.2 Y76.18 E1400.126
G1 X94.3 Y68.28 E1400.479
G0 X94.3 Y68.84 F10800
G1 X102.11 Y76.65 E1400.828 F12000
G1 X109.92 Y84.46 E1401.177
G1 X117.73 Y92.27 E1401.526
G1 X125.54 Y100.08 E1401.875
G1 X133.35 Y107.89 E1402.224
G1 X141.16 Y115.7 E1402.573
G0 X140.59 F10800
G1 X132.87 Y107.98 E1402.917 F12000
G1 X125.16 Y100.27 E1403.262
G1 X117.44 Y92.55 E1403.607
G1 X109.73 Y84.84 E1403.952
G1 X102.01 Y77.12 E1404.296
G1 X94.3 Y69.41 E1404.641
G0 X94.3 Y69.98 F10800
G1 X101.92 Y77.6 E1404.982 F12000
G1 X109.54 Y85.22 E1405.322
G1 X117.16 Y92.84 E1405.663
G1 X124.78 Y100.46 E1406.003
G1 X132.4 Y108.08 E1406.344
G1 X140.02 Y115.7 E1406.684
G0 X139.46 F10800
G1 X131.93 Y108.17 E1407.021 F12000
G1 X124.41 Y100.65 E1407.357
G1 X116.88 Y93.12 E1407.693
G1 X109.35 Y85.59 E1408.03
G1 X101.83 Y78.07 E1408.366
G1 X94.3 Y70.54 E1408.702
G0 X94.3 Y71.11 F10800
G1 X101.73 Y78.54 E1409.034 F12000
G1 X109.16 Y85.97 E1409.367
G1 X116.6 Y93.4 E1409.699
G1 X124.03 Y100.84 E1410.031
G1 X131.46 Y108.27 E1410.363
G1 X138.89 Y115.7 E1410.695
G0 X138.33 F10800
G1 X130.99 Y108.36 E1411.023 F12000
G1 X123.65 Y101.02 E1411.351
G1 X116.31 Y93.69 E1411.679
G1 X108.98 Y86.35 E1412.007
G1 X101.64 Y79.01 E1412.335
G1 X94.3 Y71.67 E1412.662
G0 X94.3 Y72.24 F10800
G1 X101.54 Y79.48 E1412.986 F12000
G1 X108.79 Y86.73 E1413.31
G1 X116.03 Y93.97 E1413.634
G1 X123.27 Y101.21 E1413.957
G1 X130.52 Y108.46 E1414.281
G1 X137.76 Y115.7 E1414.605
G0 X137.2 F10800
G1 X130.05 Y108.55 E1414.924 F12000
G1 X122.9 Y101.4 E1415.244
G1 X115.75 Y94.25 E1415.563
G1 X108.6 Y87.1 E1415.882
G1 X101.45 Y79.95 E1416.202
G1 X94.3 Y72.8 E1416.521
G0 X94.3 Y73.37 F10800
G1 X102.77 Y81.84 E1416.9 F12000
G1 X111.23 Y90.3 E1417.278
G1 X119.7 Y98.77 E1417.656
G1 X128.16 Y107.23 E1418.035
G1 X136.63 Y115.7 E1418.413
G0 X136.07 F10800
G1 X127.71 Y107.35 E1418.786 F12000
G1 X119.36 Y98.99 E1419.16
G1 X111.01 Y90.64 E1419.533
G1 X102.65 Y82.29 E1419.906
G1 X94.3 Y73.94 E1420.279
G0 X94.3 Y74.5 F10800
G1 X102.54 Y82.74 E1420.648 F12000
G1 X110.78 Y90.98 E1421.016
G1 X119.02 Y99.22 E1421.384
G1 X127.26 Y107.46 E1421.752
G1 X135.5 Y115.7 E1422.12
G0 X134.93 F10800
G1 X126.81 Y107.57 E1422.483 F12000
G1 X118.68 Y99.45 E1422.847
G1 X110.55 Y91.32 E1423.21
G1 X102.43 Y83.19 E1423.573
G1 X94.3 Y75.07 E1423.936
G0 X94.3 Y75.63 F10800
G1 X102.31 Y83.65 E1424.294 F12000
G1 X110.33 Y91.66 E1424.652
G1 X118.34 Y99.67 E1425.01
G1 X126.35 Y107.69 E1425.368
G1 X134.37 Y115.7 E1425.727
G0 X133.8 F10800
G1 X125.9 Y107.8 E1426.08 F12000
G1 X118 Y99.9 E1426.433
G1 X110.1 Y92 E1426.786
G1 X102.2 Y84.1 E1427.139
G1 X94.3 Y76.2 E1427.492
G0 X94.3 Y76.76 F10800
G1 X102.09 Y84.55 E1427.84 F12000
G1 X109.87 Y92.34 E1428.188
G1 X117.66 Y100.13 E1428.536
G1 X125.45 Y107.91 E1428.884
G1 X133.24 Y115.7 E1429.232
G0 X132.67 F10800
G1 X125 Y108.03 E1429.575 F12000
G1 X117.32 Y100.35 E1429.917
G1 X109.65 Y92.68 E1430.26
G1 X101.97 Y85 E1430.603
G1 X94.3 Y77.33 E1430.946
G0 X94.3 Y77.89 F10800
G1 X101.86 Y85.46 E1431.284 F12000
G1 X109.42 Y93.02 E1431.622
G1 X116.98 Y100.58 E1431.96
G1 X124.54 Y108.14 E1432.298
G1 X132.11 Y115.7 E1432.636
G0 X131.54 F10800
G1 X124.09 Y108.25 E1432.968 F12000
G1 X116.64 Y100.8 E1433.301
G1 X109.2 Y93.36 E1433.634
G1 X101.75 Y85.91 E1433.967
G1 X94.3 Y78.46 E1434.3
G0 X94.3 Y79.03 F10800
G1 X101.63 Y86.36 E1434.627 F12000
G1 X108.97 Y93.7 E1434.955
G1 X116.3 Y101.03 E1435.283
G1 X123.64 Y108.37 E1435.611
G1 X130.97 Y115.7 E1435.938
G0 X130.41 F10800
G1 X123.19 Y108.48 E1436.261 F12000
G1 X115.96 Y101.26 E1436.584
G1 X108.74 Y94.03 E1436.907
G1 X101.52 Y86.81 E1437.229
G1 X94.3 Y79.59 E1437.552
G0 X94.3 Y80.16 F10800
G1 X101.41 Y87.27 E1437.87 F12000
G1 X108.52 Y94.37 E1438.187
G1 X115.62 Y101.48 E1438.505
G1 X122.73 Y108.59 E1438.823
G1 X129.84 Y115.7 E1439.14
G0 X129.28 Y115.7 F10800
G1 X120.53 Y106.96 E1439.531 F12000
G1 X111.79 Y98.21 E1439.922
G1 X103.04 Y89.47 E1440.312
G1 X94.3 Y80.72 E1440.703
G0 X94.3 Y81.29 F10800
G1 X102.9 Y89.89 E1441.088 F12000
G1 X111.5 Y98.49 E1441.472
G1 X120.11 Y107.1 E1441.856
G1 X128.71 Y115.7 E1442.241
G0 X128.14 Y115.7 F10800
G1 X119.68 Y107.24 E1442.619 F12000
G1 X111.22 Y98.78 E1442.997
G1 X102.76 Y90.32 E1443.375
G1 X94.3 Y81.85 E1443.753
G0 X94.3 Y82.42 F10800
G1 X102.62 Y90.74 E1444.125 F12000
G1 X110.94 Y99.06 E1444.497
G1 X119.26 Y107.38 E1444.868
G1 X127.58 Y115.7 E1445.24
G0 X127.01 Y115.7 F10800
G1 X118.83 Y107.52 E1445.606 F12000
G1 X110.66 Y99.34 E1445.971
G1 X102.48 Y91.16 E1446.337
G1 X94.3 Y82.99 E1446.702
G0 X94.3 Y83.55 F10800
G1 X102.34 Y91.59 E1447.061 F12000
G1 X110.37 Y99.63 E1447.42
G1 X118.41 Y107.66 E1447.779
G1 X126.45 Y115.7 E1448.139
G0 X125.88 Y115.7 F10800
G1 X117.99 Y107.8 E1448.491 F12000
G1 X110.09 Y99.91 E1448.844
G1 X102.19 Y92.01 E1449.197
G1 X94.3 Y84.12 E1449.55
G0 X94.3 Y84.68 F10800
G1 X102.05 Y92.44 E1449.896 F12000
G1 X109.81 Y100.19 E1450.243
G1 X117.56 Y107.95 E1450.589
G1 X125.32 Y115.7 E1450.936
G0 X124.75 Y115.7 F10800
G1 X117.14 Y108.09 E1451.276 F12000
G1 X109.52 Y100.47 E1451.616
G1 X101.91 Y92.86 E1451.956
G1 X94.3 Y85.25 E1452.297
G0 X94.3 Y85.81 F10800
G1 X101.77 Y93.29 E1452.63 F12000
G1 X109.24 Y100.76 E1452.964
G1 X116.71 Y108.23 E1453.298
G1 X124.18 Y115.7 E1453.632
G0 X123.62 Y115.7 F10800
G1 X116.29 Y108.37 E1453.959 F12000
G1 X108.96 Y101.04 E1454.287
G1 X101.63 Y93.71 E1454.615
G1 X94.3 Y86.38 E1454.942
G0 X94.3 Y86.95 F10800
G1 X101.49 Y94.13 E1455.263 F12000
G1 X108.68 Y101.32 E1455.585
G1 X115.86 Y108.51 E1455.906
G1 X123.05 Y115.7 E1456.227
G0 X122.49 Y115.7 F10800
G1 X113.09 Y106.3 E1456.647 F12000
G1 X103.7 Y96.91 E1457.067
G1 X94.3 Y87.51 E1457.487
G0 X94.3 Y88.08 F10800
G1 X103.51 Y97.28 E1457.898 F12000
G1 X112.71 Y106.49 E1458.309
G1 X121.92 Y115.7 E1458.721
G0 X121.36 Y115.7 F10800
G1 X112.34 Y106.68 E1459.124 F12000
G1 X103.32 Y97.66 E1459.527
G1 X94.3 Y88.64 E1459.93
G0 X94.3 Y89.21 F10800
G1 X103.13 Y98.04 E1460.324 F12000
G1 X111.96 Y106.87 E1460.719
G1 X120.79 Y115.7 E1461.114
G0 X120.23 Y115.7 F10800
G1 X111.58 Y107.06 E1461.5 F12000
G1 X102.94 Y98.42 E1461.886
G1 X94.3 Y89.77 E1462.272
G0 X94.3 Y90.34 F10800
G1 X102.75 Y98.79 E1462.65 F12000
G1 X111.21 Y107.25 E1463.028
G1 X119.66 Y115.7 E1463.405
G0 X119.09 Y115.7 F10800
G1 X110.83 Y107.43 E1463.775 F12000
G1 X102.56 Y99.17 E1464.144
G1 X94.3 Y90.91 E1464.513
G0 X94.3 Y91.47 F10800
G1 X102.38 Y99.55 E1464.874 F12000
G1 X110.45 Y107.62 E1465.235
G1 X118.53 Y115.7 E1465.596
G0 X117.96 Y115.7 F10800
G1 X110.07 Y107.81 E1465.948 F12000
G1 X102.19 Y99.92 E1466.301
G1 X94.3 Y92.04 E1466.653
G0 X94.3 Y92.6 F10800
G1 X102 Y100.3 E1466.997 F12000
G1 X109.7 Y108 E1467.341
G1 X117.4 Y115.7 E1467.685
G0 X116.83 Y115.7 F10800
G1 X109.32 Y108.19 E1468.021 F12000
G1 X101.81 Y100.68 E1468.357
G1 X94.3 Y93.17 E1468.692
G0 X94.3 Y93.73 F10800
G1 X101.62 Y101.06 E1469.019 F12000
G1 X108.94 Y108.38 E1469.347
G1 X116.27 Y115.7 E1469.674
G0 X115.7 Y115.7 F10800
G1 X108.57 Y108.57 E1469.992 F12000
G1 X101.43 Y101.43 E1470.311
G1 X94.3 Y94.3 E1470.63
G0 X94.3 Y94.87 F10800
G1 X104.72 Y105.28 E1471.095 F12000
G1 X115.13 Y115.7 E1471.561
G0 X114.57 Y115.7 F10800
G1 X104.43 Y105.57 E1472.014 F12000
G1 X94.3 Y95.43 E1472.467
G0 X94.3 Y96 F10800
G1 X104.15 Y105.85 E1472.907 F12000
G1 X114 Y115.7 E1473.347
G0 X113.44 Y115.7 F10800
G1 X103.87 Y106.13 E1473.775 F12000
G1 X94.3 Y96.56 E1474.202
G0 X94.3 Y97.13 F10800
G1 X103.59 Y106.41 E1474.617 F12000
G1 X112.87 Y115.7 E1475.032
G0 X112.31 Y115.7 F10800
G1 X103.3 Y106.7 E1475.434 F12000
G1 X94.3 Y97.69 E1475.837
G0 X94.3 Y98.26 F10800
G1 X103.02 Y106.98 E1476.226 F12000
G1 X111.74 Y115.7 E1476.616
G0 X111.17 Y115.7 F10800
G1 X102.74 Y107.26 E1476.993 F12000
G1 X94.3 Y98.83 E1477.37
G0 X94.3 Y99.39 F10800
G1 X102.45 Y107.54 E1477.734 F12000
G1 X110.61 Y115.7 E1478.099
G0 X110.04 Y115.7 F10800
G1 X102.17 Y107.83 E1478.451 F12000
G1 X94.3 Y99.96 E1478.802
G0 X94.3 Y100.52 F10800
G1 X101.89 Y108.11 E1479.141 F12000
G1 X109.48 Y115.7 E1479.48
G0 X108.91 Y115.7 F10800
G1 X101.61 Y108.39 E1479.807 F12000
G1 X94.3 Y101.09 E1480.133
G0 X94.3 Y101.65 F10800
G1 X108.35 Y115.7 E1480.761 F12000
G0 X107.78 F10800
G1 X94.3 Y102.22 E1481.363 F12000
G0 Y102.79 F10800
G1 X107.21 Y115.7 E1481.941 F12000
G0 X106.65 F10800
G1 X94.3 Y103.35 E1482.492 F12000
G0 Y103.92 F10800
G1 X106.08 Y115.7 E1483.019 F12000
G0 X105.52 F10800
G1 X94.3 Y104.48 E1483.52 F12000
G0 Y105.05 F10800
G1 X104.95 Y115.7 E1483.996 F12000
G0 X104.39 F10800
G1 X94.3 Y105.61 E1484.447 F12000
G0 Y106.18 F10800
G1 X103.82 Y115.7 E1484.872 F12000
G0 X103.25 F10800
G1 X94.3 Y106.74 E1485.272 F12000
G0 Y107.31 F10800
G1 X102.69 Y115.7 E1485.647 F12000
G0 X102.12 F10800
G1 X94.3 Y107.88 E1485.997 F12000
G0 Y108.44 F10800
G1 X101.56 Y115.7 E1486.321 F12000
G0 X100.99 F10800
G1 X94.3 Y109.01 E1486.62 F12000
G0 Y109.57 F10800
G1 X100.43 Y115.7 E1486.894 F12000
G0 X99.86 F10800
G1 X94.3 Y110.14 E1487.142 F12000
G0 Y110.7 F10800
G1 X99.29 Y115.7 E1487.366 F12000
G0 X98.73 F10800
G1 X94.3 Y111.27 E1487.564 F12000
G0 Y111.84 F10800
G1 X98.16 Y115.7 E1487.736 F12000
G0 X97.6 F10800
G1 X94.3 Y112.4 E1487.884 F12000
G0 Y112.97 F10800
G1 X97.03 Y115.7 E1488.006 F12000
G0 X96.47 F10800
G1 X94.3 Y113.53 E1488.103 F12000
G0 Y114.1 F10800
G1 X95.9 Y115.7 E1488.174 F12000
G0 X95.33 F10800
G1 X94.3 Y114.66 E1488.22 F12000
G0 Y115.23 F10800
G1 X94.77 Y115.7 E1488.241 F12000
; Layer Change GCode
; LAYER:2
; LAYER_HEIGHT:0.2
; TYPE:FILL
G1 E1487.441 F2100
G0 Z1
G0 Z1.2 F10800
G0 X101.2 Y108.64
G0 X107.63 Y101.57
G0 X114.06 Y94.51
G0 X120.49 Y87.44
G0 X126.92 Y80.38
G0 X133.35 Y73.32
G0 X139.78 Y66.25
G0 X146.21 Y59.19
G0 X152.64 Y52.13
G0 X159.07 Y45.06
G0 X165.5 Y38
; TYPE:WALL-INNER
G0 Z0.6
G1 E1488.241 F2100
G1 Y42.88 E1488.395 F2700
G1 Y47.75 E1488.549
G1 Y52.63 E1488.703
G1 Y57.5 E1488.857
G1 Y62.38 E1489.011
G1 Y67.25 E1489.166
G1 Y72.13 E1489.32
G1 Y77 E1489.474
G1 Y81.88 E1489.628
G1 Y86.75 E1489.782
G1 Y91.63 E1489.936
G1 Y96.5 E1490.09
G1 Y101.38 E1490.244
G1 Y106.25 E1490.398
G1 Y111.13 E1490.552
G1 Y116 E1490.706
G1 X160.73 E1490.856
G1 X155.97 E1491.007
G1 X151.2 E1491.158
G1 X146.43 E1491.308
G1 X141.67 E1491.459
G1 X136.9 E1491.61
G1 X132.13 E1491.76
G1 X127.37 E1491.911
G1 X122.6 E1492.061
G1 X117.83 E1492.212
G1 X113.07 E1492.363
G1 X108.3 E1492.513
G1 X103.53 E1492.664
G1 X98.77 E1492.814
G1 X94 E1492.965
G1 Y111.2 E1493.117
G1 Y106.4 E1493.268
G1 Y101.6 E1493.42
G1 Y96.8 E1493.572
G1 Y92 E1493.723
G1 Y87.2 E1493.875
G1 Y82.4 E1494.027
G1 Y77.6 E1494.178
G1 Y72.8 E1494.33
G1 Y68 E1494.482
G1 Y63.2 E1494.633
G1 Y58.4 E1494.785
G1 Y53.6 E1494.937
G1 Y48.8 E1495.088
G1 Y44 E1495.24
G1 Y39.2 E1495.392
G1 Y34.4 E1495.543
G1 Y29.6 E1495.695
G1 Y24.8 E1495.847
G1 Y20 E1495.998
G1 X98.93 E1496.154
G1 X103.85 E1496.31
G1 X108.78 E1496.465
G1 X113.7 E1496.621
G1 X118.63 E1496.776
G1 X123.55 E1496.932
G1 X128.48 E1497.088
G1 X133.4 E1497.243
G1 X138.33 E1497.399
G1 X143.25 E1497.555
G1 X148.18 E1497.71
G1 X153.1 E1497.866
G1 X158.03 E1498.021
G1 X162.95 E1498.177
G1 X167.88 E1498.333
G1 X172.8 E1498.488
G1 X177.73 E1498.644
G1 X182.65 E1498.799
G1 X187.58 E1498.955
G1 X192.5 E1499.111
G1 Y24.5 E1499.253
G1 Y29 E1499.395
G1 Y33.5 E1499.537
G1 Y38 E1499.679
G1 X188.02 E1499.821
G1 X183.54 E1499.963
G1 X179.06 E1500.104
G1 X174.58 E1500.246
G1 X170.1 E1500.387
G1 X165.62 E1500.529
G0 X165.5
G0 X165.9 Y38.4 F10800
G1 Y43.28 E1500.683 F2700
G1 Y48.15 E1500.837
G1 Y53.03 E1500.991
G1 Y57.9 E1501.145
G1 Y62.78 E1501.299
G1 Y67.65 E1501.453
G1 Y72.53 E1501.607
G1 Y77.4 E1501.761
G1 Y82.28 E1501.915
G1 Y87.15 E1502.069
G1 Y92.03 E1502.223
G1 Y96.9 E1502.377
G1 Y101.78 E1502.531
G1 Y106.65 E1502.685
G1 Y111.53 E1502.839
G1 Y116.4 E1502.993
G1 X161.08 E1503.146
G1 X156.26 E1503.298
G1 X151.44 E1503.45
G1 X146.62 E1503.603
G1 X141.8 E1503.755
G1 X136.98 E1503.907
G1 X132.16 E1504.059
G1 X127.34 E1504.212
G1 X122.52 E1504.364
G1 X117.7 E1504.516
G1 X112.88 E1504.669
G1 X108.06 E1504.821
G1 X103.24 E1504.973
G1 X98.42 E1505.126
G1 X93.6 E1505.278
G1 Y111.56 E1505.431
G1 Y106.72 E1505.584
G1 Y101.88 E1505.737
G1 Y97.04 E1505.89
G1 Y92.2 E1506.042
G1 Y87.36 E1506.195
G1 Y82.52 E1506.348
G1 Y77.68 E1506.501
G1 Y72.84 E1506.654
G1 Y68 E1506.807
G1 Y63.16 E1506.96
G1 Y58.32 E1507.113
G1 Y53.48 E1507.266
G1 Y48.64 E1507.419
G1 Y43.8 E1507.572
G1 Y38.96 E1507.725
G1 Y34.12 E1507.878
G1 Y29.28 E1508.031
G1 Y24.44 E1508.184
G1 Y19.6 E1508.336
G1 X98.57 E1508.493
G1 X103.53 E1508.65
G1 X108.5 E1508.807
G1 X113.46 E1508.964
G1 X118.43 E1509.121
G1 X123.39 E1509.278
G1 X128.36 E1509.435
G1 X133.32 E1509.591
G1 X138.29 E1509.748
G1 X143.25 E1509.905
G1 X148.22 E1510.062
G1 X153.18 E1510.219
G1 X158.15 E1510.376
G1 X163.11 E1510.533
G1 X168.08 E1510.69
G1 X173.04 E1510.847
G1 X178.01 E1511.003
G1 X182.97 E1511.16
G1 X187.94 E1511.317
G1 X192.9 E1511.474
G1 Y24.3 E1511.623
G1 Y29 E1511.771
G1 Y33.7 E1511.92
G1 Y38.4 E1512.068
G1 X188.42 E1512.21
G1 X183.94 E1512.351
G1 X179.46 E1512.493
G1 X174.98 E1512.634
G1 X170.5 E1512.776
G1 X166.02 E1512.917
G0 X165.9
G0 X166.3 Y38.8 F10800
; TYPE:WALL-OUTER
G1 Y43.68 E1513.071 F2100
G1 Y48.55 E1513.225
G1 Y53.43 E1513.379
G1 Y58.3 E1513.534
G1 Y63.18 E1513.688
G1 Y68.05 E1513.842
G1 Y72.93 E1513.996
G1 Y77.8 E1514.15
G1 Y82.68 E1514.304
G1 Y87.55 E1514.458
G1 Y92.43 E1514.612
G1 Y97.3 E1514.766
G1 Y102.18 E1514.92
G1 Y107.05 E1515.074
G1 Y111.93 E1515.228
G1 Y116.8 E1515.382
G1 X161.43 E1515.536
G1 X156.55 E1515.69
G1 X151.68 E1515.844
G1 X146.81 E1515.998
G1 X141.93 E1516.152
G1 X137.06 E1516.306
G1 X132.19 E1516.46
G1 X127.31 E1516.614
G1 X122.44 E1516.768
G1 X117.57 E1516.922
G1 X112.69 E1517.076
G1 X107.82 E1517.23
G1 X102.95 E1517.384
G1 X98.07 E1517.538
G1 X93.2 E1517.692
G1 Y111.92 E1517.846
G1 Y107.04 E1518
G1 Y102.16 E1518.154
G1 Y97.28 E1518.308
G1 Y92.4 E1518.463
G1 Y87.52 E1518.617
G1 Y82.64 E1518.771
G1 Y77.76 E1518.925
G1 Y72.88 E1519.079
G1 Y68 E1519.234
G1 Y63.12 E1519.388
G1 Y58.24 E1519.542
G1 Y53.36 E1519.696
G1 Y48.48 E1519.85
G1 Y43.6 E1520.005
G1 Y38.72 E1520.159
G1 Y33.84 E1520.313
G1 Y28.96 E1520.467
G1 Y24.08 E1520.621
G1 Y19.2 E1520.776
G1 X97.97 E1520.926
G1 X102.73 E1521.077
G1 X107.5 E1521.227
G1 X112.27 E1521.378
G1 X117.03 E1521.529
G1 X121.8 E1521.679
G1 X126.57 E1521.83
G1 X131.33 E1521.98
G1 X136.1 E1522.131
G1 X140.87 E1522.282
G1 X145.63 E1522.432
G1 X150.4 E1522.583
G1 X155.17 E1522.734
G1 X159.93 E1522.884
G1 X164.7 E1523.035
G1 X169.47 E1523.185
G1 X174.23 E1523.336
G1 X179 E1523.487
G1 X183.77 E1523.637
G1 X188.53 E1523.788
G1 X193.3 E1523.938
G1 Y24.1 E1524.093
G1 Y29 E1524.248
G1 Y33.9 E1524.403
G1 Y38.8 E1524.558
G1 X188.82 E1524.699
G1 X184.34 E1524.841
G1 X179.86 E1524.982
G1 X175.38 E1525.124
G1 X170.9 E1525.266
G1 X166.42 E1525.407
G0 X166.3
G0 Y41.8
G0 X165.5 Y38 F10800
G1 E1524.607 F2100
G0 Z1.2
G0 X156.63 Y35.79 F10800
G0 X147.76 Y33.58
G0 X138.89 Y31.36
G0 X130.02 Y29.15
G0 X121.15 Y26.94
G0 X112.27 Y24.73
G0 X103.4 Y22.51
G0 X94.53 Y20.3
; TYPE:FILL
G0 Z0.6
G1 E1525.407 F2100
G1 X94.3 Y20.54 E1525.418 F12000
G0 Y21.1 F10800
G1 X95.1 Y20.3 E1525.453 F12000
G0 X95.67 F10800
G1 X94.3 Y21.67 E1525.514 F12000
G0 Y22.23 F10800
G1 X96.23 Y20.3 E1525.601 F12000
G0 X96.8 F10800
G1 X94.3 Y22.8 E1525.712 F12000
G0 Y23.36 F10800
G1 X97.36 Y20.3 E1525.849 F12000
G0 X97.93 F10800
G1 X94.3 Y23.93 E1526.011 F12000
G0 Y24.49 F10800
G1 X98.49 Y20.3 E1526.199 F12000
G0 X99.06 F10800
G1 X94.3 Y25.06 E1526.411 F12000
G0 Y25.63 F10800
G1 X99.62 Y20.3 E1526.649 F12000
G0 X100.19 F10800
G1 X94.3 Y26.19 E1526.913 F12000
G0 Y26.76 F10800
G1 X100.76 Y20.3 E1527.201 F12000
G0 X101.32 F10800
G1 X94.3 Y27.32 E1527.515 F12000
G0 Y27.89 F10800
G1 X101.89 Y20.3 E1527.854 F12000
G0 X102.45 F10800
G1 X94.3 Y28.45 E1528.218 F12000
G0 Y29.02 F10800
G1 X103.02 Y20.3 E1528.608 F12000
G0 X103.58 F10800
G1 X94.3 Y29.59 E1529.023 F12000
G0 Y30.15 F10800
G1 X104.15 Y20.3 E1529.463 F12000
G0 X104.72 F10800
G1 X94.3 Y30.72 E1529.929 F12000
G0 Y31.28 F10800
G1 X105.28 Y20.3 E1530.419 F12000
G0 X105.85 F10800
G1 X94.3 Y31.85 E1530.935 F12000
G0 Y32.41 F10800
G1 X106.41 Y20.3 E1531.477 F12000
G0 X106.98 F10800
G1 X94.3 Y32.98 E1532.043 F12000
G0 Y33.55 F10800
G1 X107.54 Y20.3 E1532.635 F12000
G0 X108.11 F10800
G1 X94.3 Y34.11 E1533.252 F12000
G0 Y34.68 F10800
G1 X101.49 Y27.49 E1533.574 F12000
G1 X108.68 Y20.3 E1533.895
G0 X109.24 F10800
G1 X101.77 Y27.77 E1534.229 F12000
G1 X94.3 Y35.24 E1534.562
G0 X94.3 Y35.81 F10800
G1 X102.05 Y28.05 E1534.909 F12000
G1 X109.81 Y20.3 E1535.255
G0 X110.37 F10800
G1 X102.34 Y28.34 E1535.615 F12000
G1 X94.3 Y36.37 E1535.974
G0 X94.3 Y36.94 F10800
G1 X102.62 Y28.62 E1536.345 F12000
G1 X110.94 Y20.3 E1536.717
G0 X111.5 F10800
G1 X102.9 Y28.9 E1537.102 F12000
G1 X94.3 Y37.51 E1537.486
G0 X94.3 Y38.07 F10800
G1 X103.18 Y29.19 E1537.883 F12000
G1 X112.07 Y20.3 E1538.28
G0 X112.64 F10800
G1 X103.47 Y29.47 E1538.69 F12000
G1 X94.3 Y38.64 E1539.099
G0 X94.3 Y39.2 F10800
G1 X103.75 Y29.75 E1539.522 F12000
G1 X113.2 Y20.3 E1539.944
G0 X113.77 F10800
G1 X104.03 Y30.03 E1540.379 F12000
G1 X94.3 Y39.77 E1540.814
G0 X94.3 Y40.33 F10800
G1 X104.32 Y30.32 E1541.262 F12000
G1 X114.33 Y20.3 E1541.709
G0 X114.9 F10800
G1 X104.6 Y30.6 E1542.169 F12000
G1 X94.3 Y40.9 E1542.63
G0 X94.3 Y41.47 F10800
G1 X104.88 Y30.88 E1543.103 F12000
G1 X115.46 Y20.3 E1543.575
G0 X116.03 F10800
G1 X108.79 Y27.54 E1543.899 F12000
G1 X101.54 Y34.79 E1544.223
G1 X94.3 Y42.03 E1544.546
G0 X94.3 Y42.6 F10800
G1 X101.73 Y35.16 E1544.879 F12000
G1 X109.16 Y27.73 E1545.211
G1 X116.6 Y20.3 E1545.543
G0 X117.16 F10800
G1 X109.54 Y27.92 E1545.883 F12000
G1 X101.92 Y35.54 E1546.224
G1 X94.3 Y43.16 E1546.564
G0 X94.3 Y43.73 F10800
G1 X102.11 Y35.92 E1546.913 F12000
G1 X109.92 Y28.11 E1547.262
G1 X117.73 Y20.3 E1547.611
G0 X118.29 F10800
G1 X110.29 Y28.3 E1547.969 F12000
G1 X102.3 Y36.3 E1548.326
G1 X94.3 Y44.29 E1548.683
G0 X94.3 Y44.86 F10800
G1 X102.49 Y36.67 E1549.049 F12000
G1 X110.67 Y28.49 E1549.415
G1 X118.86 Y20.3 E1549.781
G0 X119.42 F10800
G1 X111.05 Y28.68 E1550.155 F12000
G1 X102.67 Y37.05 E1550.529
G1 X94.3 Y45.43 E1550.903
G0 X94.3 Y45.99 F10800
G1 X102.86 Y37.43 E1551.286 F12000
G1 X111.43 Y28.86 E1551.669
G1 X119.99 Y20.3 E1552.051
G0 X120.56 F10800
G1 X111.8 Y29.05 E1552.442 F12000
G1 X103.05 Y37.8 E1552.834
G1 X94.3 Y46.56 E1553.225
G0 X94.3 Y47.12 F10800
G1 X103.24 Y38.18 E1553.624 F12000
G1 X112.18 Y29.24 E1554.024
G1 X121.12 Y20.3 E1554.423
G0 X121.69 F10800
G1 X112.56 Y29.43 E1554.831 F12000
G1 X103.43 Y38.56 E1555.239
G1 X94.3 Y47.69 E1555.647
G0 X94.3 Y48.25 F10800
G1 X103.62 Y38.94 E1556.063 F12000
G1 X112.93 Y29.62 E1556.48
G1 X122.25 Y20.3 E1556.896
G0 X122.82 F10800
G1 X115.69 Y27.43 E1557.215 F12000
G1 X108.56 Y34.56 E1557.533
G1 X101.43 Y41.69 E1557.852
G1 X94.3 Y48.82 E1558.17
G0 X94.3 Y49.39 F10800
G1 X101.57 Y42.11 E1558.495 F12000
G1 X108.84 Y34.84 E1558.82
G1 X116.11 Y27.57 E1559.145
G1 X123.38 Y20.3 E1559.47
G0 X123.95 F10800
G1 X116.54 Y27.71 E1559.801 F12000
G1 X109.12 Y35.13 E1560.133
G1 X101.71 Y42.54 E1560.464
G1 X94.3 Y49.95 E1560.795
G0 X94.3 Y50.52 F10800
G1 X101.85 Y42.96 E1561.133 F12000
G1 X109.41 Y35.41 E1561.47
G1 X116.96 Y27.85 E1561.808
G1 X124.52 Y20.3 E1562.145
G0 X125.08 F10800
G1 X117.38 Y28 E1562.489 F12000
G1 X109.69 Y35.69 E1562.833
G1 X101.99 Y43.39 E1563.177
G1 X94.3 Y51.08 E1563.521
G0 X94.3 Y51.65 F10800
G1 X102.14 Y43.81 E1563.871 F12000
G1 X109.97 Y35.97 E1564.221
G1 X117.81 Y28.14 E1564.571
G1 X125.65 Y20.3 E1564.921
G0 X126.21 F10800
G1 X118.23 Y28.28 E1565.278 F12000
G1 X110.26 Y36.26 E1565.634
G1 X102.28 Y44.23 E1565.991
G1 X94.3 Y52.21 E1566.347
G0 X94.3 Y52.78 F10800
G1 X102.42 Y44.66 E1566.71 F12000
G1 X110.54 Y36.54 E1567.073
G1 X118.66 Y28.42 E1567.436
G1 X126.78 Y20.3 E1567.799
G0 X127.34 F10800
G1 X119.08 Y28.56 E1568.168 F12000
G1 X110.82 Y36.82 E1568.537
G1 X102.56 Y45.08 E1568.906
G1 X94.3 Y53.34 E1569.275
G0 X94.3 Y53.91 F10800
G1 X102.7 Y45.51 E1569.651 F12000
G1 X111.1 Y37.11 E1570.026
G1 X119.51 Y28.7 E1570.402
G1 X127.91 Y20.3 E1570.777
G0 X128.47 F10800
G1 X119.93 Y28.84 E1571.159 F12000
G1 X111.39 Y37.39 E1571.541
G1 X102.84 Y45.93 E1571.923
G1 X94.3 Y54.48 E1572.304
G0 X94.3 Y55.04 F10800
G1 X102.98 Y46.36 E1572.692 F12000
G1 X111.67 Y37.67 E1573.081
G1 X120.35 Y28.99 E1573.469
G1 X129.04 Y20.3 E1573.857
G0 X129.61 F10800
G1 X120.78 Y29.13 E1574.251 F12000
G1 X111.95 Y37.95 E1574.646
G1 X103.13 Y46.78 E1575.04
G1 X94.3 Y55.61 E1575.434
G0 X94.3 Y56.17 F10800
G1 X101.47 Y49 E1575.755 F12000
G1 X108.65 Y41.82 E1576.076
G1 X115.82 Y34.65 E1576.396
G1 X123 Y27.47 E1576.717
G1 X130.17 Y20.3 E1577.037
G0 X130.74 F10800
G1 X123.45 Y27.59 E1577.363 F12000
G1 X116.16 Y34.88 E1577.689
G1 X108.87 Y42.16 E1578.014
G1 X101.59 Y49.45 E1578.34
G1 X94.3 Y56.74 E1578.666
G0 X94.3 Y57.3 F10800
G1 X101.7 Y49.9 E1578.996 F12000
G1 X109.1 Y42.5 E1579.327
G1 X116.5 Y35.1 E1579.658
G1 X123.9 Y27.7 E1579.988
G1 X131.3 Y20.3 E1580.319
G0 X131.87 F10800
G1 X124.36 Y27.81 E1580.655 F12000
G1 X116.84 Y35.33 E1580.991
G1 X109.33 Y42.84 E1581.326
G1 X101.81 Y50.36 E1581.662
G1 X94.3 Y57.87 E1581.998
G0 X94.3 Y58.44 F10800
G1 X101.93 Y50.81 E1582.339 F12000
G1 X109.55 Y43.18 E1582.68
G1 X117.18 Y35.55 E1583.02
G1 X124.81 Y27.93 E1583.361
G1 X132.43 Y20.3 E1583.702
G0 X133 F10800
G1 X125.26 Y28.04 E1584.048 F12000
G1 X117.52 Y35.78 E1584.394
G1 X109.78 Y43.52 E1584.74
G1 X102.04 Y51.26 E1585.086
G1 X94.3 Y59 E1585.431
G0 X94.3 Y59.57 F10800
G1 X102.15 Y51.71 E1585.782 F12000
G1 X110.01 Y43.86 E1586.133
G1 X117.86 Y36.01 E1586.484
G1 X125.71 Y28.15 E1586.835
G1 X133.57 Y20.3 E1587.186
G0 X134.13 F10800
G1 X126.16 Y28.27 E1587.542 F12000
G1 X118.2 Y36.23 E1587.898
G1 X110.23 Y44.2 E1588.254
G1 X102.27 Y52.17 E1588.61
G1 X94.3 Y60.13 E1588.966
G0 X94.3 Y60.7 F10800
G1 X102.38 Y52.62 E1589.327 F12000
G1 X110.46 Y44.54 E1589.688
G1 X118.54 Y36.46 E1590.049
G1 X126.62 Y28.38 E1590.41
G1 X134.7 Y20.3 E1590.771
G0 X135.26 F10800
G1 X127.07 Y28.49 E1591.137 F12000
G1 X118.88 Y36.69 E1591.503
G1 X110.68 Y44.88 E1591.869
G1 X102.49 Y53.07 E1592.236
G1 X94.3 Y61.26 E1592.602
G0 X94.3 Y61.83 F10800
G1 X102.6 Y53.52 E1592.973 F12000
G1 X110.91 Y45.22 E1593.344
G1 X119.22 Y36.91 E1593.715
G1 X127.52 Y28.61 E1594.086
G1 X135.83 Y20.3 E1594.457
G0 X136.39 F10800
G1 X127.98 Y28.72 E1594.834 F12000
G1 X119.56 Y37.14 E1595.21
G1 X111.14 Y45.56 E1595.586
G1 X102.72 Y53.98 E1595.962
G1 X94.3 Y62.4 E1596.338
G0 X94.3 Y62.96 F10800
G1 X101.41 Y55.85 E1596.656 F12000
G1 X108.52 Y48.74 E1596.974
G1 X115.63 Y41.63 E1597.292
G1 X122.74 Y34.52 E1597.609
G1 X129.85 Y27.41 E1597.927
G1 X136.96 Y20.3 E1598.245
G0 X137.53 F10800
G1 X130.32 Y27.5 E1598.567 F12000
G1 X123.12 Y34.71 E1598.889
G1 X115.91 Y41.91 E1599.211
G1 X108.71 Y49.12 E1599.532
G1 X101.5 Y56.32 E1599.854
G1 X94.3 Y63.53 E1600.176
G0 X94.3 Y64.09 F10800
G1 X101.6 Y56.79 E1600.502 F12000
G1 X108.9 Y49.49 E1600.829
G1 X116.2 Y42.2 E1601.155
G1 X123.49 Y34.9 E1601.481
G1 X130.79 Y27.6 E1601.807
G1 X138.09 Y20.3 E1602.133
G0 X138.66 F10800
G1 X131.26 Y27.69 E1602.464 F12000
G1 X123.87 Y35.09 E1602.794
G1 X116.48 Y42.48 E1603.124
G1 X109.09 Y49.87 E1603.455
G1 X101.69 Y57.27 E1603.785
G1 X94.3 Y64.66 E1604.115
G0 X94.3 Y65.22 F10800
G1 X101.79 Y57.74 E1604.45 F12000
G1 X109.27 Y50.25 E1604.784
G1 X116.76 Y42.76 E1605.119
G1 X124.25 Y35.27 E1605.454
G1 X131.73 Y27.79 E1605.788
G1 X139.22 Y20.3 E1606.123
G0 X139.79 F10800
G1 X132.21 Y27.88 E1606.462 F12000
G1 X124.63 Y35.46 E1606.8
G1 X117.04 Y43.04 E1607.139
G1 X109.46 Y50.63 E1607.478
G1 X101.88 Y58.21 E1607.817
G1 X94.3 Y65.79 E1608.155
G0 X94.3 Y66.36 F10800
G1 X101.97 Y58.68 E1608.498 F12000
G1 X109.65 Y51 E1608.841
G1 X117.33 Y43.33 E1609.184
G1 X125 Y35.65 E1609.527
G1 X132.68 Y27.98 E1609.87
G1 X140.35 Y20.3 E1610.213
G0 X140.92 F10800
G1 X133.15 Y28.07 E1610.561 F12000
G1 X125.38 Y35.84 E1610.908
G1 X117.61 Y43.61 E1611.255
G1 X109.84 Y51.38 E1611.602
G1 X102.07 Y59.15 E1611.949
G1 X94.3 Y66.92 E1612.297
G0 X94.3 Y67.49 F10800
G1 X102.16 Y59.62 E1612.648 F12000
G1 X110.03 Y51.76 E1612.999
G1 X117.89 Y43.89 E1613.351
G1 X125.76 Y36.03 E1613.702
G1 X133.62 Y28.16 E1614.054
G1 X141.49 Y20.3 E1614.405
G0 X142.05 F10800
G1 X134.09 Y28.26 E1614.761 F12000
G1 X126.13 Y36.22 E1615.116
G1 X118.18 Y44.18 E1615.472
G1 X110.22 Y52.13 E1615.828
G1 X102.26 Y60.09 E1616.183
G1 X94.3 Y68.05 E1616.539
G0 X94.3 Y68.62 F10800
G1 X102.35 Y60.56 E1616.899 F12000
G1 X110.41 Y52.51 E1617.259
G1 X118.46 Y44.46 E1617.618
G1 X126.51 Y36.41 E1617.978
G1 X134.56 Y28.35 E1618.338
G1 X142.62 Y20.3 E1618.698
G0 X143.18 F10800
G1 X135.03 Y28.45 E1619.062 F12000
G1 X126.89 Y36.59 E1619.426
G1 X118.74 Y44.74 E1619.79
G1 X110.59 Y52.89 E1620.154
G1 X102.45 Y61.04 E1620.518
G1 X94.3 Y69.18 E1620.882
G0 X94.3 Y69.75 F10800
G1 X102.54 Y61.51 E1621.251 F12000
G1 X110.78 Y53.27 E1621.619
G1 X119.02 Y45.02 E1621.987
G1 X127.27 Y36.78 E1622.355
G1 X135.51 Y28.54 E1622.724
G1 X143.75 Y20.3 E1623.092
G0 X144.31 F10800
G1 X137.17 Y27.44 E1623.411 F12000
G1 X130.02 Y34.59 E1623.731
G1 X122.88 Y41.73 E1624.05
G1 X115.73 Y48.88 E1624.369
G1 X108.59 Y56.02 E1624.688
G1 X101.44 Y63.17 E1625.008
G1 X94.3 Y70.31 E1625.327
G0 X94.3 Y70.88 F10800
G1 X101.52 Y63.65 E1625.65 F12000
G1 X108.75 Y56.43 E1625.973
G1 X115.98 Y49.2 E1626.296
G1 X123.2 Y41.98 E1626.618
G1 X130.43 Y34.75 E1626.941
G1 X137.65 Y27.53 E1627.264
G1 X144.88 Y20.3 E1627.587
G0 X145.45 F10800
G1 X138.14 Y27.61 E1627.914 F12000
G1 X130.83 Y34.91 E1628.24
G1 X123.53 Y42.22 E1628.567
G1 X116.22 Y49.53 E1628.893
G1 X108.91 Y56.83 E1629.22
G1 X101.61 Y64.14 E1629.546
G1 X94.3 Y71.45 E1629.873
G0 X94.3 Y72.01 F10800
G1 X101.69 Y64.62 E1630.203 F12000
G1 X109.07 Y57.24 E1630.533
G1 X116.46 Y49.85 E1630.863
G1 X123.85 Y42.46 E1631.193
G1 X131.24 Y35.07 E1631.523
G1 X138.62 Y27.69 E1631.853
G1 X146.01 Y20.3 E1632.183
G0 X146.58 F10800
G1 X139.11 Y27.77 E1632.517 F12000
G1 X131.64 Y35.24 E1632.851
G1 X124.17 Y42.7 E1633.184
G1 X116.7 Y50.17 E1633.518
G1 X109.24 Y57.64 E1633.852
G1 X101.77 Y65.11 E1634.186
G1 X94.3 Y72.58 E1634.519
G0 X94.3 Y73.14 F10800
G1 X101.85 Y65.59 E1634.857 F12000
G1 X109.4 Y58.05 E1635.194
G1 X116.95 Y50.5 E1635.531
G1 X124.5 Y42.95 E1635.869
G1 X132.04 Y35.4 E1636.206
G1 X139.59 Y27.85 E1636.543
G1 X147.14 Y20.3 E1636.881
G0 X147.71 F10800
G1 X140.08 Y27.93 E1637.221 F12000
G1 X132.45 Y35.56 E1637.562
G1 X124.82 Y43.19 E1637.903
G1 X117.19 Y50.82 E1638.244
G1 X109.56 Y58.45 E1638.585
G1 X101.93 Y66.08 E1638.926
G1 X94.3 Y73.71 E1639.267
G0 X94.3 Y74.27 F10800
G1 X102.01 Y66.56 E1639.612 F12000
G1 X109.72 Y58.85 E1639.956
G1 X117.43 Y51.14 E1640.301
G1 X125.14 Y43.43 E1640.645
G1 X132.85 Y35.72 E1640.99
G1 X140.56 Y28.01 E1641.334
G1 X148.27 Y20.3 E1641.679
G0 X148.84 F10800
G1 X141.05 Y28.09 E1642.027 F12000
G1 X133.26 Y35.88 E1642.375
G1 X125.46 Y43.67 E1642.723
G1 X117.67 Y51.47 E1643.072
G1 X109.88 Y59.26 E1643.42
G1 X102.09 Y67.05 E1643.768
G1 X94.3 Y74.84 E1644.116
G0 X94.3 Y75.41 F10800
G1 X102.17 Y67.53 E1644.468 F12000
G1 X110.04 Y59.66 E1644.82
G1 X117.92 Y51.79 E1645.171
G1 X125.79 Y43.92 E1645.523
G1 X133.66 Y36.04 E1645.875
G1 X141.53 Y28.17 E1646.227
G1 X149.41 Y20.3 E1646.578
G0 X149.97 F10800
G1 X142.02 Y28.25 E1646.934 F12000
G1 X134.06 Y36.21 E1647.289
G1 X126.11 Y44.16 E1647.645
G1 X118.16 Y52.11 E1648
G1 X110.21 Y60.07 E1648.355
G1 X102.25 Y68.02 E1648.711
G1 X94.3 Y75.97 E1649.066
G0 X94.3 Y76.54 F10800
G1 X102.33 Y68.5 E1649.425 F12000
G1 X110.37 Y60.47 E1649.784
G1 X118.4 Y52.44 E1650.143
G1 X126.43 Y44.4 E1650.502
G1 X134.47 Y36.37 E1650.861
