; Generated with MatterSlice 2.22.04
; filamentDiameter = 1.75
; extrusionWidth = 0.4
; firstLayerExtrusionWidth = 0.4
; layerThickness = 0.15
; firstLayerThickness = 0.3
; automatic settings before start_gcode
G21 ; set units to millimeters
M107 ; fan off
T0 ; set the active extruder to 0
; settings from start_gcode
M104 S220
M140 S60
G28 W       ; Home without mesh level
G0 Z5 F5000
M117 Heating
M109 S220
M190 S60
G80         ; Probe
; Priming Line
G0 Y-3 F10800
G92 E0.0
G1 X60 E9 F1000
G1 X100 E12.5
G92 E0.0
M117 Printing
; automatic settings after start_gcode
T0 ; set the active extruder to 0
G90 ; use absolute coordinates
G92 E0 ; reset the expected extruder position
M82 ; use absolute distance for extrusion
; Layer count: 333
; RAFT BASE
; Layer Change GCode
; LAYER:-3
; LAYER_HEIGHT:0.3
G0 X193.8 Y41.81 Z0.9 F10800
; TYPE:SUPPORT
G0 Z0.3
G0 F2100
G1 X165.42 Y123.8 E12.337 F1200
G1 X73.7 E25.378
G1 Y6.2 E42.099
G1 X193.8 E59.176
G1 Y41.81 E64.239
G0 X195 Y42.01 F10800
G1 X166.27 Y125 E76.726 F1200
G1 X72.5 E90.059
G1 Y5 E107.122
G1 X195 E124.54
G1 Y42.01 E129.802
G0 X189 Y41 F10800
G1 X162 E133.641 F1200
G1 Y119 E144.732
G1 X78.5 E156.604
G1 Y11 E171.96
G1 X189 E187.672
G1 Y41 E191.938
G0 X187.9 Y38.4 F10800
G1 X79.6 E207.336 F1200
G0 Y36.8 F10800
G1 X187.9 E222.735 F1200
G0 Y35.2 F10800
G1 X79.6 E238.134 F1200
G0 Y33.6 F10800
G1 X187.9 E253.533 F1200
G0 Y32 F10800
G1 X79.6 E268.932 F1200
G0 Y30.4 F10800
G1 X187.9 E284.331 F1200
G0 Y28.8 F10800
G1 X79.6 E299.73 F1200
G0 Y27.2 F10800
G1 X187.9 E315.128 F1200
G0 Y25.6 F10800
G1 X79.6 E330.527 F1200
G0 Y24 F10800
G1 X187.9 E345.926 F1200
G0 Y22.4 F10800
G1 X79.6 E361.325 F1200
G0 Y20.8 F10800
G1 X187.9 E376.724 F1200
G0 Y19.2 F10800
G1 X79.6 E392.123 F1200
G0 Y17.6 F10800
G1 X187.9 E407.522 F1200
G0 Y16 F10800
G1 X79.6 E422.921 F1200
G0 Y14.4 F10800
G1 X187.9 E438.319 F1200
G0 Y12.8 F10800
G1 X79.6 E453.718 F1200
G1 E452.918 F2100
G0 Z0.9
G0 Y40 F10800
G0 Z0.3
G1 E453.718 F2100
G1 X160.9 E465.278 F1200
G0 Y41.6 F10800
G1 X79.6 E476.838 F1200
G0 Y43.2 F10800
G1 X160.9 E488.398 F1200
G0 Y44.8 F10800
G1 X79.6 E499.957 F1200
G0 Y46.4 F10800
G1 X160.9 E511.517 F1200
G0 Y48 F10800
G1 X79.6 E523.077 F1200
G0 Y49.6 F10800
G1 X160.9 E534.637 F1200
G0 Y51.2 F10800
G1 X79.6 E546.197 F1200
G0 Y52.8 F10800
G1 X160.9 E557.757 F1200
G0 Y54.4 F10800
G1 X79.6 E569.316 F1200
G0 Y56 F10800
G1 X160.9 E580.876 F1200
G0 Y57.6 F10800
G1 X79.6 E592.436 F1200
G0 Y59.2 F10800
G1 X160.9 E603.996 F1200
G0 Y60.8 F10800
G1 X79.6 E615.556 F1200
G0 Y62.4 F10800
G1 X160.9 E627.115 F1200
G0 Y64 F10800
G1 X79.6 E638.675 F1200
G0 Y65.6 F10800
G1 X160.9 Y65.6 E650.235 F1200
G0 Y67.2 F10800
G1 X79.6 Y67.2 E661.795 F1200
G0 Y68.8 F10800
G1 X160.9 Y68.8 E673.355 F1200
G0 Y70.4 F10800
G1 X79.6 Y70.4 E684.914 F1200
G0 Y72 F10800
G1 X160.9 Y72 E696.474 F1200
G0 Y73.6 F10800
G1 X79.6 Y73.6 E708.034 F1200
G0 Y75.2 F10800
G1 X160.9 Y75.2 E719.594 F1200
G0 Y76.8 F10800
G1 X79.6 Y76.8 E731.154 F1200
G0 Y78.4 F10800
G1 X160.9 Y78.4 E742.713 F1200
G0 Y80 F10800
G1 X79.6 Y80 E754.273 F1200
G0 Y81.6 F10800
G1 X160.9 Y81.6 E765.833 F1200
G0 Y83.2 F10800
G1 X79.6 Y83.2 E777.393 F1200
G0 Y84.8 F10800
G1 X160.9 Y84.8 E788.953 F1200
G0 Y86.4 F10800
G1 X79.6 Y86.4 E800.513 F1200
G0 Y88 F10800
G1 X160.9 Y88 E812.072 F1200
G0 Y89.6 F10800
G1 X79.6 Y89.6 E823.632 F1200
G0 Y91.2 F10800
G1 X160.9 Y91.2 E835.192 F1200
G0 Y92.8 F10800
G1 X79.6 Y92.8 E846.752 F1200
G0 Y94.4 F10800
G1 X160.9 Y94.4 E858.312 F1200
G0 Y96 F10800
G1 X79.6 Y96 E869.871 F1200
G0 Y97.6 F10800
G1 X160.9 Y97.6 E881.431 F1200
G0 Y99.2 F10800
G1 X79.6 Y99.2 E892.991 F1200
G0 Y100.8 F10800
G1 X160.9 Y100.8 E904.551 F1200
G0 Y102.4 F10800
G1 X79.6 Y102.4 E916.111 F1200
G0 Y104 F10800
G1 X160.9 Y104 E927.67 F1200
G0 Y105.6 F10800
G1 X79.6 Y105.6 E939.23 F1200
G0 Y107.2 F10800
G1 X160.9 Y107.2 E950.79 F1200
G0 Y108.8 F10800
G1 X79.6 Y108.8 E962.35 F1200
G0 Y110.4 F10800
G1 X160.9 Y110.4 E973.91 F1200
G0 Y112 F10800
G1 X79.6 Y112 E985.469 F1200
G0 Y113.6 F10800
G1 X160.9 Y113.6 E997.029 F1200
G0 Y115.2 F10800
G1 X79.6 Y115.2 E1008.589 F1200
G0 Y116.8 F10800
G1 X160.9 Y116.8 E1020.149 F1200
; RAFT MIDDLE
; Layer Change GCode
; LAYER:-2
; LAYER_HEIGHT:0.25
G0 X162.1 Y116.84 Z0.55 F10800
; TYPE:SUPPORT
G1 X158.61 Y113.36 E1020.319 F2400
G1 X155.12 Y109.87 E1020.49
G1 X151.64 Y106.38 E1020.66
G1 X148.15 Y102.89 E1020.831
G1 X144.66 Y99.41 E1021.001
G1 X141.17 Y95.92 E1021.172
G1 X137.69 Y92.43 E1021.342
G1 X134.2 Y88.94 E1021.512
G1 X130.71 Y85.46 E1021.683
G1 X127.22 Y81.97 E1021.853
G1 X123.74 Y78.48 E1022.024
G1 X120.25 Y74.99 E1022.194
G1 X116.76 Y71.51 E1022.365
G1 X113.27 Y68.02 E1022.535
G1 X109.79 Y64.53 E1022.706
G1 X106.3 Y61.04 E1022.876
G1 X102.81 Y57.56 E1023.047
G1 X99.32 Y54.07 E1023.217
G1 X95.84 Y50.58 E1023.387
G1 X92.35 Y47.09 E1023.558
G1 X88.86 Y43.61 E1023.728
G1 X85.37 Y40.12 E1023.899
G1 X81.89 Y36.63 E1024.069
G1 X78.4 Y33.14 E1024.24
G0 X78.4 Y31.73 F10800
G1 X81.89 Y35.22 E1024.41 F2400
G1 X85.37 Y38.71 E1024.581
G1 X88.86 Y42.19 E1024.751
G1 X92.35 Y45.68 E1024.921
G1 X95.84 Y49.17 E1025.092
G1 X99.32 Y52.66 E1025.262
G1 X102.81 Y56.14 E1025.433
G1 X106.3 Y59.63 E1025.603
G1 X109.79 Y63.12 E1025.774
G1 X113.27 Y66.61 E1025.944
G1 X116.76 Y70.09 E1026.115
G1 X120.25 Y73.58 E1026.285
G1 X123.74 Y77.07 E1026.456
G1 X127.22 Y80.56 E1026.626
G1 X130.71 Y84.04 E1026.796
G1 X134.2 Y87.53 E1026.967
G1 X137.69 Y91.02 E1027.137
G1 X141.17 Y94.51 E1027.308
G1 X144.66 Y97.99 E1027.478
G1 X148.15 Y101.48 E1027.649
G1 X151.64 Y104.97 E1027.819
G1 X155.12 Y108.46 E1027.99
G1 X158.61 Y111.94 E1028.16
G1 X162.1 Y115.43 E1028.33
G0 X162.1 Y114.02 F10800
G1 X158.61 Y110.53 E1028.501 F2400
G1 X155.12 Y107.04 E1028.671
G1 X151.64 Y103.55 E1028.842
G1 X148.15 Y100.07 E1029.012
G1 X144.66 Y96.58 E1029.183
G1 X141.17 Y93.09 E1029.353
G1 X137.69 Y89.6 E1029.524
G1 X134.2 Y86.12 E1029.694
G1 X130.71 Y82.63 E1029.865
G1 X127.22 Y79.14 E1030.035
G1 X123.74 Y75.65 E1030.205
G1 X120.25 Y72.17 E1030.376
G1 X116.76 Y68.68 E1030.546
G1 X113.27 Y65.19 E1030.717
G1 X109.79 Y61.7 E1030.887
G1 X106.3 Y58.22 E1031.058
G1 X102.81 Y54.73 E1031.228
G1 X99.32 Y51.24 E1031.399
G1 X95.84 Y47.75 E1031.569
G1 X92.35 Y44.27 E1031.739
G1 X88.86 Y40.78 E1031.91
G1 X85.37 Y37.29 E1032.08
G1 X81.89 Y33.8 E1032.251
G1 X78.4 Y30.31 E1032.421
G0 X78.4 Y28.9 F10800
G1 X81.89 Y32.39 E1032.592 F2400
G1 X85.37 Y35.88 E1032.762
G1 X88.86 Y39.36 E1032.933
G1 X92.35 Y42.85 E1033.103
G1 X95.84 Y46.34 E1033.274
G1 X99.32 Y49.83 E1033.444
G1 X102.81 Y53.31 E1033.614
G1 X106.3 Y56.8 E1033.785
G1 X109.79 Y60.29 E1033.955
G1 X113.27 Y63.78 E1034.126
G1 X116.76 Y67.26 E1034.296
G1 X120.25 Y70.75 E1034.467
G1 X123.74 Y74.24 E1034.637
G1 X127.22 Y77.73 E1034.808
G1 X130.71 Y81.21 E1034.978
G1 X134.2 Y84.7 E1035.148
G1 X137.69 Y88.19 E1035.319
G1 X141.17 Y91.68 E1035.489
G1 X144.66 Y95.16 E1035.66
G1 X148.15 Y98.65 E1035.83
G1 X151.64 Y102.14 E1036.001
G1 X155.12 Y105.63 E1036.171
G1 X158.61 Y109.11 E1036.342
G1 X162.1 Y112.6 E1036.512
G0 X162.1 Y111.19 F10800
G1 X158.61 Y107.7 E1036.682 F2400
G1 X155.12 Y104.21 E1036.853
G1 X151.64 Y100.72 E1037.023
G1 X148.15 Y97.24 E1037.194
G1 X144.66 Y93.75 E1037.364
G1 X141.17 Y90.26 E1037.535
G1 X137.69 Y86.77 E1037.705
G1 X134.2 Y83.29 E1037.876
G1 X130.71 Y79.8 E1038.046
G1 X127.22 Y76.31 E1038.217
G1 X123.74 Y72.82 E1038.387
G1 X120.25 Y69.34 E1038.557
G1 X116.76 Y65.85 E1038.728
G1 X113.27 Y62.36 E1038.898
G1 X109.79 Y58.87 E1039.069
G1 X106.3 Y55.39 E1039.239
G1 X102.81 Y51.9 E1039.41
G1 X99.32 Y48.41 E1039.58
G1 X95.84 Y44.92 E1039.751
G1 X92.35 Y41.44 E1039.921
G1 X88.86 Y37.95 E1040.091
G1 X85.37 Y34.46 E1040.262
G1 X81.89 Y30.97 E1040.432
G1 X78.4 Y27.49 E1040.603
G0 X78.4 Y26.07 F10800
G1 X81.89 Y29.56 E1040.773 F2400
G1 X85.37 Y33.05 E1040.944
G1 X88.86 Y36.54 E1041.114
G1 X92.35 Y40.02 E1041.285
G1 X95.84 Y43.51 E1041.455
G1 X99.32 Y47 E1041.626
G1 X102.81 Y50.49 E1041.796
G1 X106.3 Y53.97 E1041.966
G1 X109.79 Y57.46 E1042.137
G1 X113.27 Y60.95 E1042.307
G1 X116.76 Y64.44 E1042.478
G1 X120.25 Y67.92 E1042.648
G1 X123.74 Y71.41 E1042.819
G1 X127.22 Y74.9 E1042.989
G1 X130.71 Y78.39 E1043.16
G1 X134.2 Y81.87 E1043.33
G1 X137.69 Y85.36 E1043.5
G1 X141.17 Y88.85 E1043.671
G1 X144.66 Y92.34 E1043.841
G1 X148.15 Y95.82 E1044.012
G1 X151.64 Y99.31 E1044.182
G1 X155.12 Y102.8 E1044.353
G1 X158.61 Y106.29 E1044.523
G1 X162.1 Y109.77 E1044.694
G0 X162.1 Y108.36 F10800
G1 X158.61 Y104.87 E1044.864 F2400
G1 X155.12 Y101.38 E1045.035
G1 X151.64 Y97.9 E1045.205
G1 X148.15 Y94.41 E1045.375
G1 X144.66 Y90.92 E1045.546
G1 X141.17 Y87.43 E1045.716
G1 X137.69 Y83.95 E1045.887
G1 X134.2 Y80.46 E1046.057
G1 X130.71 Y76.97 E1046.228
G1 X127.22 Y73.48 E1046.398
G1 X123.74 Y70 E1046.569
G1 X120.25 Y66.51 E1046.739
G1 X116.76 Y63.02 E1046.909
G1 X113.27 Y59.53 E1047.08
G1 X109.79 Y56.05 E1047.25
G1 X106.3 Y52.56 E1047.421
G1 X102.81 Y49.07 E1047.591
G1 X99.32 Y45.58 E1047.762
G1 X95.84 Y42.1 E1047.932
G1 X92.35 Y38.61 E1048.103
G1 X88.86 Y35.12 E1048.273
G1 X85.37 Y31.63 E1048.444
G1 X81.89 Y28.15 E1048.614
G1 X78.4 Y24.66 E1048.784
G0 X78.4 Y23.24 F10800
G1 X81.89 Y26.73 E1048.955 F2400
G1 X85.37 Y30.22 E1049.125
G1 X88.86 Y33.71 E1049.296
G1 X92.35 Y37.19 E1049.466
G1 X95.84 Y40.68 E1049.637
G1 X99.32 Y44.17 E1049.807
G1 X102.81 Y47.66 E1049.978
G1 X106.3 Y51.14 E1050.148
G1 X109.79 Y54.63 E1050.318
G1 X113.27 Y58.12 E1050.489
G1 X116.76 Y61.61 E1050.659
G1 X120.25 Y65.09 E1050.83
G1 X123.74 Y68.58 E1051
G1 X127.22 Y72.07 E1051.171
G1 X130.71 Y75.56 E1051.341
G1 X134.2 Y79.04 E1051.512
G1 X137.69 Y82.53 E1051.682
G1 X141.17 Y86.02 E1051.852
G1 X144.66 Y89.51 E1052.023
G1 X148.15 Y92.99 E1052.193
G1 X151.64 Y96.48 E1052.364
G1 X155.12 Y99.97 E1052.534
G1 X158.61 Y103.46 E1052.705
G1 X162.1 Y106.94 E1052.875
G0 X162.1 Y105.53 F10800
G1 X158.61 Y102.04 E1053.046 F2400
G1 X155.12 Y98.56 E1053.216
G1 X151.64 Y95.07 E1053.387
G1 X148.15 Y91.58 E1053.557
G1 X144.66 Y88.09 E1053.727
G1 X141.17 Y84.61 E1053.898
G1 X137.69 Y81.12 E1054.068
G1 X134.2 Y77.63 E1054.239
G1 X130.71 Y74.14 E1054.409
G1 X127.22 Y70.66 E1054.58
G1 X123.74 Y67.17 E1054.75
G1 X120.25 Y63.68 E1054.921
G1 X116.76 Y60.19 E1055.091
G1 X113.27 Y56.71 E1055.261
G1 X109.79 Y53.22 E1055.432
G1 X106.3 Y49.73 E1055.602
G1 X102.81 Y46.24 E1055.773
G1 X99.32 Y42.76 E1055.943
G1 X95.84 Y39.27 E1056.114
G1 X92.35 Y35.78 E1056.284
G1 X88.86 Y32.29 E1056.455
G1 X85.37 Y28.81 E1056.625
G1 X81.89 Y25.32 E1056.796
G1 X78.4 Y21.83 E1056.966
G0 X78.4 Y20.42 F10800
G1 X81.89 Y23.9 E1057.136 F2400
G1 X85.37 Y27.39 E1057.307
G1 X88.86 Y30.88 E1057.477
G1 X92.35 Y34.37 E1057.648
G1 X95.84 Y37.85 E1057.818
G1 X99.32 Y41.34 E1057.989
G1 X102.81 Y44.83 E1058.159
G1 X106.3 Y48.32 E1058.33
G1 X109.79 Y51.8 E1058.5
G1 X113.27 Y55.29 E1058.67
G1 X116.76 Y58.78 E1058.841
G1 X120.25 Y62.27 E1059.011
G1 X123.74 Y65.75 E1059.182
G1 X127.22 Y69.24 E1059.352
G1 X130.71 Y72.73 E1059.523
G1 X134.2 Y76.22 E1059.693
G1 X137.69 Y79.7 E1059.864
G1 X141.17 Y83.19 E1060.034
G1 X144.66 Y86.68 E1060.204
G1 X148.15 Y90.17 E1060.375
G1 X151.64 Y93.65 E1060.545
G1 X155.12 Y97.14 E1060.716
G1 X158.61 Y100.63 E1060.886
G1 X162.1 Y104.12 E1061.057
G0 X162.1 Y102.7 F10800
G1 X158.61 Y99.21 E1061.227 F2400
G1 X155.12 Y95.73 E1061.398
G1 X151.64 Y92.24 E1061.568
G1 X148.15 Y88.75 E1061.739
G1 X144.66 Y85.26 E1061.909
G1 X141.17 Y81.78 E1062.079
G1 X137.69 Y78.29 E1062.25
G1 X134.2 Y74.8 E1062.42
G1 X130.71 Y71.31 E1062.591
G1 X127.22 Y67.83 E1062.761
G1 X123.74 Y64.34 E1062.932
G1 X120.25 Y60.85 E1063.102
G1 X116.76 Y57.36 E1063.273
G1 X113.27 Y53.88 E1063.443
G1 X109.79 Y50.39 E1063.613
G1 X106.3 Y46.9 E1063.784
G1 X102.81 Y43.41 E1063.954
G1 X99.32 Y39.93 E1064.125
G1 X95.84 Y36.44 E1064.295
G1 X92.35 Y32.95 E1064.466
G1 X88.86 Y29.46 E1064.636
G1 X85.37 Y25.98 E1064.807
G1 X81.89 Y22.49 E1064.977
G1 X78.4 Y19 E1065.148
G0 X78.4 Y17.59 F10800
G1 X81.89 Y21.07 E1065.318 F2400
G1 X85.37 Y24.56 E1065.488
G1 X88.86 Y28.05 E1065.659
G1 X92.35 Y31.54 E1065.829
G1 X95.84 Y35.02 E1066
G1 X99.32 Y38.51 E1066.17
G1 X102.81 Y42 E1066.341
G1 X106.3 Y45.49 E1066.511
G1 X109.79 Y48.97 E1066.682
G1 X113.27 Y52.46 E1066.852
G1 X116.76 Y55.95 E1067.022
G1 X120.25 Y59.44 E1067.193
G1 X123.74 Y62.93 E1067.363
G1 X127.22 Y66.41 E1067.534
G1 X130.71 Y69.9 E1067.704
G1 X134.2 Y73.39 E1067.875
G1 X137.69 Y76.88 E1068.045
G1 X141.17 Y80.36 E1068.216
G1 X144.66 Y83.85 E1068.386
G1 X148.15 Y87.34 E1068.557
G1 X151.64 Y90.83 E1068.727
G1 X155.12 Y94.31 E1068.897
G1 X158.61 Y97.8 E1069.068
G1 X162.1 Y101.29 E1069.238
G0 X162.1 Y99.87 F10800
G1 X158.61 Y96.39 E1069.409 F2400
G1 X155.12 Y92.9 E1069.579
G1 X151.64 Y89.41 E1069.75
G1 X148.15 Y85.92 E1069.92
G1 X144.66 Y82.44 E1070.091
G1 X141.17 Y78.95 E1070.261
G1 X137.69 Y75.46 E1070.431
G1 X134.2 Y71.97 E1070.602
G1 X130.71 Y68.49 E1070.772
G1 X127.22 Y65 E1070.943
G1 X123.74 Y61.51 E1071.113
G1 X120.25 Y58.02 E1071.284
G1 X116.76 Y54.54 E1071.454
G1 X113.27 Y51.05 E1071.625
G1 X109.79 Y47.56 E1071.795
G1 X106.3 Y44.07 E1071.966
G1 X102.81 Y40.59 E1072.136
G1 X99.32 Y37.1 E1072.306
G1 X95.84 Y33.61 E1072.477
G1 X92.35 Y30.12 E1072.647
G1 X88.86 Y26.64 E1072.818
G1 X85.37 Y23.15 E1072.988
G1 X81.89 Y19.66 E1073.159
G1 X78.4 Y16.17 E1073.329
G0 X78.4 Y14.76 F10800
G1 X81.89 Y18.25 E1073.5 F2400
G1 X85.37 Y21.73 E1073.67
G1 X88.86 Y25.22 E1073.84
G1 X92.35 Y28.71 E1074.011
G1 X95.84 Y32.2 E1074.181
G1 X99.32 Y35.68 E1074.352
G1 X102.81 Y39.17 E1074.522
G1 X106.3 Y42.66 E1074.693
G1 X109.79 Y46.15 E1074.863
G1 X113.27 Y49.63 E1075.034
G1 X116.76 Y53.12 E1075.204
G1 X120.25 Y56.61 E1075.375
G1 X123.74 Y60.1 E1075.545
G1 X127.22 Y63.58 E1075.715
G1 X130.71 Y67.07 E1075.886
G1 X134.2 Y70.56 E1076.056
G1 X137.69 Y74.05 E1076.227
G1 X141.17 Y77.53 E1076.397
G1 X144.66 Y81.02 E1076.568
G1 X148.15 Y84.51 E1076.738
G1 X151.64 Y88 E1076.909
G1 X155.12 Y91.48 E1077.079
G1 X158.61 Y94.97 E1077.249
G1 X162.1 Y98.46 E1077.42
G0 X162.1 Y97.05 F10800
G1 X158.61 Y93.56 E1077.59 F2400
G1 X155.12 Y90.07 E1077.761
G1 X151.64 Y86.58 E1077.931
G1 X148.15 Y83.1 E1078.102
G1 X144.66 Y79.61 E1078.272
G1 X141.17 Y76.12 E1078.443
G1 X137.69 Y72.63 E1078.613
G1 X134.2 Y69.15 E1078.783
G1 X130.71 Y65.66 E1078.954
G1 X127.22 Y62.17 E1079.124
G1 X123.74 Y58.68 E1079.295
G1 X120.25 Y55.2 E1079.465
G1 X116.76 Y51.71 E1079.636
G1 X113.27 Y48.22 E1079.806
G1 X109.79 Y44.73 E1079.977
G1 X106.3 Y41.25 E1080.147
G1 X102.81 Y37.76 E1080.318
G1 X99.32 Y34.27 E1080.488
G1 X95.84 Y30.78 E1080.658
G1 X92.35 Y27.3 E1080.829
G1 X88.86 Y23.81 E1080.999
G1 X85.37 Y20.32 E1081.17
G1 X81.89 Y16.83 E1081.34
G1 X78.4 Y13.35 E1081.511
G0 X78.4 Y11.93 F10800
G1 X81.89 Y15.42 E1081.681 F2400
G1 X85.37 Y18.91 E1081.852
G1 X88.86 Y22.39 E1082.022
G1 X92.35 Y25.88 E1082.192
G1 X95.84 Y29.37 E1082.363
G1 X99.32 Y32.86 E1082.533
G1 X102.81 Y36.34 E1082.704
G1 X106.3 Y39.83 E1082.874
G1 X109.79 Y43.32 E1083.045
G1 X113.27 Y46.81 E1083.215
G1 X116.76 Y50.29 E1083.386
G1 X120.25 Y53.78 E1083.556
G1 X123.74 Y57.27 E1083.727
G1 X127.22 Y60.76 E1083.897
G1 X130.71 Y64.24 E1084.067
G1 X134.2 Y67.73 E1084.238
G1 X137.69 Y71.22 E1084.408
G1 X141.17 Y74.71 E1084.579
G1 X144.66 Y78.19 E1084.749
G1 X148.15 Y81.68 E1084.92
G1 X151.64 Y85.17 E1085.09
G1 X155.12 Y88.66 E1085.261
G1 X158.61 Y92.14 E1085.431
G1 X162.1 Y95.63 E1085.601
G0 X162.1 Y94.22 F10800
G1 X158.63 Y90.75 E1085.771 F2400
G1 X155.16 Y87.27 E1085.941
G1 X151.68 Y83.8 E1086.11
G1 X148.21 Y80.33 E1086.28
G1 X144.74 Y76.86 E1086.45
G1 X141.27 Y73.39 E1086.619
G1 X137.8 Y69.92 E1086.789
G1 X134.33 Y66.44 E1086.959
G1 X130.86 Y62.97 E1087.128
G1 X127.38 Y59.5 E1087.298
G1 X123.91 Y56.03 E1087.468
G1 X120.44 Y52.56 E1087.637
G1 X116.97 Y49.09 E1087.807
G1 X113.5 Y45.62 E1087.977
G1 X110.03 Y42.14 E1088.146
G1 X106.55 Y38.67 E1088.316
G1 X103.08 Y35.2 E1088.486
G1 X99.61 Y31.73 E1088.655
G1 X96.14 Y28.26 E1088.825
G1 X92.67 Y24.79 E1088.995
G1 X89.2 Y21.31 E1089.165
G1 X85.73 Y17.84 E1089.334
G1 X82.25 Y14.37 E1089.504
G1 X78.78 Y10.9 E1089.674
G0 X80.2 F10800
G1 X83.61 Y14.31 E1089.84 F2400
G1 X87.02 Y17.73 E1090.007
G1 X90.43 Y21.14 E1090.174
G1 X93.85 Y24.55 E1090.341
G1 X97.26 Y27.96 E1090.507
G1 X100.67 Y31.38 E1090.674
G1 X104.08 Y34.79 E1090.841
G1 X107.5 Y38.2 E1091.008
G1 X110.91 Y41.61 E1091.175
G1 X114.32 Y45.03 E1091.341
G1 X117.73 Y48.44 E1091.508
G1 X121.15 Y51.85 E1091.675
G1 X124.56 Y55.26 E1091.842
G1 X127.97 Y58.68 E1092.009
G1 X131.39 Y62.09 E1092.175
G1 X134.8 Y65.5 E1092.342
G1 X138.21 Y68.91 E1092.509
G1 X141.62 Y72.33 E1092.676
G1 X145.04 Y75.74 E1092.842
G1 X148.45 Y79.15 E1093.009
G1 X151.86 Y82.56 E1093.176
G1 X155.27 Y85.98 E1093.343
G1 X158.69 Y89.39 E1093.51
G1 X162.1 Y92.8 E1093.676
G0 X162.1 Y91.39 F10800
G1 X158.6 Y87.89 E1093.847 F2400
G1 X155.1 Y84.39 E1094.019
G1 X151.6 Y80.89 E1094.19
G1 X148.1 Y77.39 E1094.361
G1 X144.6 Y73.89 E1094.532
G1 X141.1 Y70.39 E1094.703
G1 X137.6 Y66.89 E1094.874
G1 X134.1 Y63.39 E1095.045
G1 X130.6 Y59.89 E1095.216
G1 X127.1 Y56.39 E1095.387
G1 X123.6 Y52.89 E1095.558
G1 X120.1 Y49.39 E1095.729
G1 X116.61 Y45.89 E1095.9
G1 X113.11 Y42.4 E1096.071
G1 X109.61 Y38.9 E1096.242
G1 X106.11 Y35.4 E1096.413
G1 X102.61 Y31.9 E1096.584
G1 X99.11 Y28.4 E1096.755
G1 X95.61 Y24.9 E1096.926
G1 X92.11 Y21.4 E1097.097
G1 X88.61 Y17.9 E1097.268
G1 X85.11 Y14.4 E1097.439
G1 X81.61 Y10.9 E1097.61
G0 X83.02 F10800
G1 X86.46 Y14.34 E1097.778 F2400
G1 X89.9 Y17.78 E1097.946
G1 X93.34 Y21.21 E1098.114
G1 X96.78 Y24.65 E1098.282
G1 X100.21 Y28.09 E1098.45
G1 X103.65 Y31.53 E1098.618
G1 X107.09 Y34.97 E1098.786
G1 X110.53 Y38.4 E1098.955
G1 X113.97 Y41.84 E1099.123
G1 X117.4 Y45.28 E1099.291
G1 X120.84 Y48.72 E1099.459
G1 X124.28 Y52.16 E1099.627
G1 X127.72 Y55.59 E1099.795
G1 X131.16 Y59.03 E1099.963
G1 X134.59 Y62.47 E1100.131
G1 X138.03 Y65.91 E1100.299
G1 X141.47 Y69.35 E1100.467
G1 X144.91 Y72.78 E1100.635
G1 X148.35 Y76.22 E1100.803
G1 X151.78 Y79.66 E1100.971
G1 X155.22 Y83.1 E1101.139
G1 X158.66 Y86.54 E1101.307
G1 X162.1 Y89.97 E1101.475
G0 X162.1 Y88.56 F10800
G1 X158.57 Y85.03 E1101.647 F2400
G1 X155.04 Y81.5 E1101.82
G1 X151.51 Y77.97 E1101.993
G1 X147.98 Y74.44 E1102.165
G1 X144.45 Y70.91 E1102.338
G1 X140.92 Y67.38 E1102.51
G1 X137.39 Y63.85 E1102.683
G1 X133.86 Y60.32 E1102.855
G1 X130.33 Y56.79 E1103.028
G1 X126.8 Y53.26 E1103.2
G1 X123.27 Y49.73 E1103.373
G1 X119.74 Y46.2 E1103.545
G1 X116.21 Y42.67 E1103.718
G1 X112.68 Y39.14 E1103.89
G1 X109.15 Y35.61 E1104.063
G1 X105.62 Y32.08 E1104.235
G1 X102.09 Y28.55 E1104.408
G1 X98.56 Y25.02 E1104.58
G1 X95.03 Y21.49 E1104.753
G1 X91.5 Y17.96 E1104.925
G1 X87.97 Y14.43 E1105.098
G1 X84.44 Y10.9 E1105.271
G0 X85.85 F10800
G1 X89.32 Y14.37 E1105.44 F2400
G1 X92.78 Y17.83 E1105.609
G1 X96.25 Y21.3 E1105.779
G1 X99.72 Y24.76 E1105.948
G1 X103.18 Y28.23 E1106.117
G1 X106.65 Y31.69 E1106.287
G1 X110.11 Y35.16 E1106.456
G1 X113.58 Y38.63 E1106.626
G1 X117.04 Y42.09 E1106.795
G1 X120.51 Y45.56 E1106.964
G1 X123.98 Y49.02 E1107.134
G1 X127.44 Y52.49 E1107.303
G1 X130.91 Y55.95 E1107.473
G1 X134.37 Y59.42 E1107.642
G1 X137.84 Y62.89 E1107.811
G1 X141.3 Y66.35 E1107.981
G1 X144.77 Y69.82 E1108.15
G1 X148.24 Y73.28 E1108.319
G1 X151.7 Y76.75 E1108.489
G1 X155.17 Y80.21 E1108.658
G1 X158.63 Y83.68 E1108.828
G1 X162.1 Y87.15 E1108.997
G0 X162.1 Y85.73 F10800
G1 X158.7 Y82.33 E1109.163 F2400
G1 X155.3 Y78.93 E1109.329
G1 X151.89 Y75.53 E1109.496
G1 X148.49 Y72.13 E1109.662
G1 X145.09 Y68.72 E1109.828
G1 X141.69 Y65.32 E1109.994
G1 X138.29 Y61.92 E1110.161
G1 X134.89 Y58.52 E1110.327
G1 X131.49 Y55.12 E1110.493
G1 X128.08 Y51.72 E1110.659
G1 X124.68 Y48.32 E1110.826
G1 X121.28 Y44.91 E1110.992
G1 X117.88 Y41.51 E1111.158
G1 X114.48 Y38.11 E1111.324
G1 X111.08 Y34.71 E1111.491
G1 X107.68 Y31.31 E1111.657
G1 X104.27 Y27.91 E1111.823
G1 X100.87 Y24.51 E1111.989
G1 X97.47 Y21.1 E1112.156
G1 X94.07 Y17.7 E1112.322
G1 X90.67 Y14.3 E1112.488
G1 X87.27 Y10.9 E1112.654
G0 X88.68 F10800
G1 X92.18 Y14.4 E1112.825 F2400
G1 X95.67 Y17.89 E1112.996
G1 X99.17 Y21.39 E1113.167
G1 X102.67 Y24.88 E1113.338
G1 X106.16 Y28.38 E1113.509
G1 X109.66 Y31.88 E1113.68
G1 X113.15 Y35.37 E1113.85
G1 X116.65 Y38.87 E1114.021
G1 X120.15 Y42.36 E1114.192
G1 X123.64 Y45.86 E1114.363
G1 X127.14 Y49.36 E1114.534
G1 X130.63 Y52.85 E1114.705
G1 X134.13 Y56.35 E1114.876
G1 X137.63 Y59.84 E1115.046
G1 X141.12 Y63.34 E1115.217
G1 X144.62 Y66.84 E1115.388
G1 X148.11 Y70.33 E1115.559
G1 X151.61 Y73.83 E1115.73
G1 X155.11 Y77.32 E1115.901
G1 X158.6 Y80.82 E1116.072
G1 X162.1 Y84.32 E1116.243
G0 X162.1 Y82.9 F10800
G1 X158.67 Y79.47 E1116.41 F2400
G1 X155.24 Y76.05 E1116.578
G1 X151.81 Y72.62 E1116.745
G1 X148.38 Y69.19 E1116.913
G1 X144.96 Y65.76 E1117.08
G1 X141.53 Y62.33 E1117.248
G1 X138.1 Y58.9 E1117.416
G1 X134.67 Y55.47 E1117.583
G1 X131.24 Y52.04 E1117.751
G1 X127.81 Y48.62 E1117.918
G1 X124.38 Y45.19 E1118.086
G1 X120.95 Y41.76 E1118.253
G1 X117.53 Y38.33 E1118.421
G1 X114.1 Y34.9 E1118.589
G1 X110.67 Y31.47 E1118.756
G1 X107.24 Y28.04 E1118.924
G1 X103.81 Y24.61 E1119.091
G1 X100.38 Y21.19 E1119.259
G1 X96.95 Y17.76 E1119.427
G1 X93.52 Y14.33 E1119.594
G1 X90.1 Y10.9 E1119.762
G0 X91.51 F10800
G1 X95.04 Y14.43 E1119.934 F2400
G1 X98.57 Y17.96 E1120.107
G1 X102.1 Y21.49 E1120.279
G1 X105.63 Y25.02 E1120.452
G1 X109.16 Y28.55 E1120.624
G1 X112.69 Y32.08 E1120.797
G1 X116.22 Y35.61 E1120.969
G1 X119.75 Y39.14 E1121.142
G1 X123.28 Y42.67 E1121.314
G1 X126.8 Y46.19 E1121.487
G1 X130.33 Y49.72 E1121.659
G1 X133.86 Y53.25 E1121.832
G1 X137.39 Y56.78 E1122.004
G1 X140.92 Y60.31 E1122.177
G1 X144.45 Y63.84 E1122.349
G1 X147.98 Y67.37 E1122.522
G1 X151.51 Y70.9 E1122.694
G1 X155.04 Y74.43 E1122.867
G1 X158.57 Y77.96 E1123.039
G1 X162.1 Y81.49 E1123.212
G0 X162.1 Y80.07 F10800
G1 X158.64 Y76.62 E1123.381 F2400
G1 X155.18 Y73.16 E1123.55
G1 X151.72 Y69.7 E1123.719
G1 X148.26 Y66.24 E1123.888
G1 X144.81 Y62.78 E1124.057
G1 X141.35 Y59.32 E1124.226
G1 X137.89 Y55.86 E1124.395
G1 X134.43 Y52.4 E1124.564
G1 X130.97 Y48.95 E1124.733
G1 X127.51 Y45.49 E1124.902
G1 X124.05 Y42.03 E1125.071
G1 X120.59 Y38.57 E1125.24
G1 X117.14 Y35.11 E1125.409
G1 X113.68 Y31.65 E1125.578
G1 X110.22 Y28.19 E1125.747
G1 X106.76 Y24.73 E1125.916
G1 X103.3 Y21.28 E1126.085
G1 X99.84 Y17.82 E1126.254
G1 X96.38 Y14.36 E1126.423
G1 X92.92 Y10.9 E1126.593
G0 X94.34 F10800
G1 X97.73 Y14.29 E1126.758 F2400
G1 X101.11 Y17.68 E1126.924
G1 X104.5 Y21.06 E1127.089
G1 X107.89 Y24.45 E1127.255
G1 X111.28 Y27.84 E1127.42
G1 X114.67 Y31.23 E1127.586
G1 X118.05 Y34.62 E1127.752
G1 X121.44 Y38 E1127.917
G1 X124.83 Y41.39 E1128.083
G1 X128.22 Y44.78 E1128.248
G1 X131.61 Y48.17 E1128.414
G1 X134.99 Y51.56 E1128.58
G1 X138.38 Y54.94 E1128.745
G1 X141.77 Y58.33 E1128.911
G1 X145.16 Y61.72 E1129.076
G1 X148.55 Y65.11 E1129.242
G1 X151.93 Y68.5 E1129.407
G1 X155.32 Y71.88 E1129.573
G1 X158.71 Y75.27 E1129.739
G1 X162.1 Y78.66 E1129.904
G0 X162.1 Y77.25 F10800
G1 X158.61 Y73.75 E1130.075 F2400
G1 X155.12 Y70.26 E1130.246
G1 X151.62 Y66.77 E1130.416
G1 X148.13 Y63.28 E1130.587
G1 X144.64 Y59.79 E1130.758
G1 X141.15 Y56.29 E1130.928
G1 X137.66 Y52.8 E1131.099
G1 X134.16 Y49.31 E1131.27
G1 X130.67 Y45.82 E1131.44
G1 X127.18 Y42.33 E1131.611
G1 X123.69 Y38.84 E1131.782
G1 X120.2 Y35.34 E1131.952
G1 X116.7 Y31.85 E1132.123
G1 X113.21 Y28.36 E1132.294
G1 X109.72 Y24.87 E1132.464
G1 X106.23 Y21.38 E1132.635
G1 X102.74 Y17.88 E1132.806
G1 X99.24 Y14.39 E1132.976
G1 X95.75 Y10.9 E1133.147
G0 X97.17 F10800
G1 X100.58 Y14.32 E1133.314 F2400
G1 X104 Y17.73 E1133.481
G1 X107.42 Y21.15 E1133.648
G1 X110.84 Y24.57 E1133.815
G1 X114.25 Y27.99 E1133.982
G1 X117.67 Y31.4 E1134.149
G1 X121.09 Y34.82 E1134.316
G1 X124.51 Y38.24 E1134.483
G1 X127.92 Y41.66 E1134.65
G1 X131.34 Y45.07 E1134.817
G1 X134.76 Y48.49 E1134.984
G1 X138.18 Y51.91 E1135.151
G1 X141.59 Y55.33 E1135.318
G1 X145.01 Y58.74 E1135.485
G1 X148.43 Y62.16 E1135.652
G1 X151.85 Y65.58 E1135.819
G1 X155.26 Y69 E1135.986
G1 X158.68 Y72.41 E1136.153
G1 X162.1 Y75.83 E1136.32
G0 X162.1 Y74.42 F10800
G1 X158.57 Y70.89 E1136.493 F2400
G1 X155.04 Y67.36 E1136.665
G1 X151.51 Y63.83 E1136.838
G1 X147.98 Y60.3 E1137.01
G1 X144.46 Y56.77 E1137.183
G1 X140.93 Y53.25 E1137.355
G1 X137.4 Y49.72 E1137.528
G1 X133.87 Y46.19 E1137.7
G1 X130.34 Y42.66 E1137.873
G1 X126.81 Y39.13 E1138.045
G1 X123.28 Y35.6 E1138.218
G1 X119.75 Y32.07 E1138.39
G1 X116.22 Y28.54 E1138.562
G1 X112.7 Y25.02 E1138.735
G1 X109.17 Y21.49 E1138.907
G1 X105.64 Y17.96 E1139.08
G1 X102.11 Y14.43 E1139.252
G1 X98.58 Y10.9 E1139.425
G0 X100 F10800
G1 X103.45 Y14.35 E1139.593 F2400
G1 X106.9 Y17.8 E1139.762
G1 X110.35 Y21.25 E1139.931
G1 X113.8 Y24.7 E1140.099
G1 X117.25 Y28.15 E1140.268
G1 X120.7 Y31.6 E1140.437
G1 X124.15 Y35.05 E1140.605
G1 X127.6 Y38.5 E1140.774
G1 X131.05 Y41.95 E1140.942
G1 X134.5 Y45.4 E1141.111
G1 X137.95 Y48.85 E1141.28
G1 X141.4 Y52.3 E1141.448
G1 X144.85 Y55.75 E1141.617
G1 X148.3 Y59.2 E1141.786
G1 X151.75 Y62.65 E1141.954
G1 X155.2 Y66.1 E1142.123
G1 X158.65 Y69.55 E1142.291
G1 X162.1 Y73 E1142.46
G0 X162.1 Y71.59 F10800
G1 X158.73 Y68.22 E1142.625 F2400
G1 X155.36 Y64.85 E1142.79
G1 X151.98 Y61.47 E1142.954
G1 X148.61 Y58.1 E1143.119
G1 X145.24 Y54.73 E1143.284
G1 X141.87 Y51.36 E1143.449
G1 X138.5 Y47.99 E1143.614
G1 X135.13 Y44.62 E1143.778
G1 X131.75 Y41.24 E1143.943
G1 X128.38 Y37.87 E1144.108
G1 X125.01 Y34.5 E1144.273
G1 X121.64 Y31.13 E1144.438
G1 X118.27 Y27.76 E1144.602
G1 X114.9 Y24.39 E1144.767
G1 X111.52 Y21.01 E1144.932
G1 X108.15 Y17.64 E1145.097
G1 X104.78 Y14.27 E1145.261
G1 X101.41 Y10.9 E1145.426
G0 X102.82 F10800
G1 X106.31 Y14.39 E1145.597 F2400
G1 X109.8 Y17.87 E1145.767
G1 X113.28 Y21.36 E1145.937
G1 X116.77 Y24.85 E1146.108
G1 X120.26 Y28.33 E1146.278
G1 X123.74 Y31.82 E1146.449
G1 X127.23 Y35.31 E1146.619
G1 X130.72 Y38.79 E1146.79
G1 X134.2 Y42.28 E1146.96
G1 X137.69 Y45.77 E1147.13
G1 X141.18 Y49.25 E1147.301
G1 X144.66 Y52.74 E1147.471
G1 X148.15 Y56.23 E1147.642
G1 X151.64 Y59.71 E1147.812
G1 X155.13 Y63.2 E1147.982
G1 X158.61 Y66.69 E1148.153
G1 X162.1 Y70.18 E1148.323
G0 X162.1 Y68.76 F10800
G1 X158.7 Y65.36 E1148.49 F2400
G1 X155.29 Y61.95 E1148.656
G1 X151.89 Y58.55 E1148.822
G1 X148.48 Y55.15 E1148.989
G1 X145.08 Y51.74 E1149.155
G1 X141.68 Y48.34 E1149.321
G1 X138.27 Y44.94 E1149.488
G1 X134.87 Y41.53 E1149.654
G1 X131.47 Y38.13 E1149.82
G1 X128.06 Y34.73 E1149.987
G1 X124.66 Y31.32 E1150.153
G1 X121.26 Y27.92 E1150.319
G1 X117.85 Y24.51 E1150.486
G1 X114.45 Y21.11 E1150.652
G1 X111.05 Y17.71 E1150.818
G1 X107.64 Y14.3 E1150.985
G1 X104.24 Y10.9 E1151.151
G0 X105.65 F10800
G1 X109.18 Y14.43 E1151.324 F2400
G1 X112.71 Y17.96 E1151.496
G1 X116.24 Y21.48 E1151.668
G1 X119.76 Y25.01 E1151.841
G1 X123.29 Y28.54 E1152.013
G1 X126.82 Y32.07 E1152.186
G1 X130.35 Y35.6 E1152.358
G1 X133.88 Y39.12 E1152.531
G1 X137.4 Y42.65 E1152.703
G1 X140.93 Y46.18 E1152.875
G1 X144.46 Y49.71 E1153.048
G1 X147.99 Y53.23 E1153.22
G1 X151.52 Y56.76 E1153.393
G1 X155.04 Y60.29 E1153.565
G1 X158.57 Y63.82 E1153.738
G1 X162.1 Y67.35 E1153.91
G0 X162.1 Y65.93 F10800
G1 X158.66 Y62.49 E1154.078 F2400
G1 X155.22 Y59.05 E1154.246
G1 X151.78 Y55.61 E1154.414
G1 X148.34 Y52.17 E1154.582
G1 X144.9 Y48.73 E1154.75
G1 X141.46 Y45.3 E1154.919
G1 X138.02 Y41.86 E1155.087
G1 X134.58 Y38.42 E1155.255
G1 X131.14 Y34.98 E1155.423
G1 X127.7 Y31.54 E1155.591
G1 X124.26 Y28.1 E1155.759
G1 X120.82 Y24.66 E1155.927
G1 X117.38 Y21.22 E1156.095
G1 X113.95 Y17.78 E1156.263
G1 X110.51 Y14.34 E1156.432
G1 X107.07 Y10.9 E1156.6
G0 X108.48 F10800
G1 X111.83 Y14.25 E1156.763 F2400
G1 X115.18 Y17.6 E1156.927
G1 X118.53 Y20.95 E1157.091
G1 X121.88 Y24.3 E1157.255
G1 X125.24 Y27.66 E1157.419
G1 X128.59 Y31.01 E1157.582
G1 X131.94 Y34.36 E1157.746
G1 X135.29 Y37.71 E1157.91
G1 X138.64 Y41.06 E1158.074
G1 X141.99 Y44.41 E1158.238
G1 X145.34 Y47.76 E1158.401
G1 X148.69 Y51.11 E1158.565
G1 X152.05 Y54.46 E1158.729
G1 X155.4 Y57.82 E1158.893
G1 X158.75 Y61.17 E1159.056
G1 X162.1 Y64.52 E1159.22
G0 X162.1 Y63.1 F10800
G1 X158.62 Y59.62 E1159.39 F2400
G1 X155.14 Y56.14 E1159.56
G1 X151.66 Y52.66 E1159.731
G1 X148.18 Y49.18 E1159.901
G1 X144.7 Y45.7 E1160.071
G1 X141.22 Y42.22 E1160.241
G1 X137.74 Y38.74 E1160.411
G1 X134.26 Y35.26 E1160.581
G1 X130.78 Y31.78 E1160.751
G1 X127.3 Y28.3 E1160.921
G1 X123.82 Y24.82 E1161.091
G1 X120.34 Y21.34 E1161.261
G1 X116.86 Y17.86 E1161.431
G1 X113.38 Y14.38 E1161.602
G1 X109.9 Y10.9 E1161.772
G0 X111.31 F10800
G1 X114.7 Y14.29 E1161.937 F2400
G1 X118.08 Y17.67 E1162.103
G1 X121.47 Y21.06 E1162.268
G1 X124.85 Y24.44 E1162.434
G1 X128.24 Y27.83 E1162.599
G1 X131.63 Y31.22 E1162.765
G1 X135.01 Y34.6 E1162.93
G1 X138.4 Y37.99 E1163.096
G1 X141.78 Y41.37 E1163.261
G1 X145.17 Y44.76 E1163.427
G1 X148.56 Y48.15 E1163.592
G1 X151.94 Y51.53 E1163.758
G1 X155.33 Y54.92 E1163.923
G1 X158.71 Y58.3 E1164.088
G1 X162.1 Y61.69 E1164.254
G0 X162.1 Y60.28 F10800
G1 X158.57 Y56.75 E1164.426 F2400
G1 X155.05 Y53.22 E1164.599
G1 X151.52 Y49.69 E1164.771
G1 X147.99 Y46.17 E1164.943
G1 X144.46 Y42.64 E1165.116
G1 X140.94 Y39.11 E1165.288
G1 X137.41 Y35.59 E1165.461
G1 X133.88 Y32.06 E1165.633
G1 X130.36 Y28.53 E1165.805
G1 X126.83 Y25.01 E1165.978
G1 X123.3 Y21.48 E1166.15
G1 X119.78 Y17.95 E1166.322
G1 X116.25 Y14.43 E1166.495
G1 X112.72 Y10.9 E1166.667
G0 X114.14 F10800
G1 X117.56 Y14.33 E1166.835 F2400
G1 X120.99 Y17.75 E1167.002
G1 X124.41 Y21.18 E1167.169
G1 X127.84 Y24.6 E1167.337
G1 X131.27 Y28.03 E1167.504
G1 X134.69 Y31.45 E1167.672
G1 X138.12 Y34.88 E1167.839
G1 X141.54 Y38.31 E1168.007
G1 X144.97 Y41.73 E1168.174
G1 X148.4 Y45.16 E1168.342
G1 X151.82 Y48.58 E1168.509
G1 X155.25 Y52.01 E1168.676
G1 X158.67 Y55.44 E1168.844
G1 X162.1 Y58.86 E1169.011
G0 X162.1 Y57.45 F10800
G1 X158.77 Y54.12 E1169.174 F2400
G1 X155.45 Y50.8 E1169.336
G1 X152.12 Y47.47 E1169.499
G1 X148.8 Y44.15 E1169.661
G1 X145.47 Y40.82 E1169.824
G1 X142.15 Y37.5 E1169.986
G1 X138.83 Y34.17 E1170.149
G1 X135.5 Y30.85 E1170.311
G1 X132.18 Y27.52 E1170.474
G1 X128.85 Y24.2 E1170.636
G1 X125.53 Y20.87 E1170.799
G1 X122.2 Y17.55 E1170.961
G1 X118.88 Y14.22 E1171.124
G1 X115.55 Y10.9 E1171.286
G0 X116.97 F10800
G1 X120.44 Y14.37 E1171.456 F2400
G1 X123.91 Y17.84 E1171.626
G1 X127.38 Y21.32 E1171.795
G1 X130.85 Y24.79 E1171.965
G1 X134.32 Y28.26 E1172.135
G1 X137.8 Y31.73 E1172.304
G1 X141.27 Y35.2 E1172.474
G1 X144.74 Y38.67 E1172.644
G1 X148.21 Y42.15 E1172.813
G1 X151.68 Y45.62 E1172.983
G1 X155.16 Y49.09 E1173.153
G1 X158.63 Y52.56 E1173.322
G1 X162.1 Y56.03 E1173.492
G0 X162.1 Y54.62 F10800
G1 X158.74 Y51.26 E1173.656 F2400
G1 X155.37 Y47.89 E1173.821
G1 X152.01 Y44.53 E1173.985
G1 X148.65 Y41.17 E1174.15
G1 X145.28 Y37.8 E1174.314
G1 X141.92 Y34.44 E1174.478
G1 X138.56 Y31.08 E1174.643
G1 X135.2 Y27.72 E1174.807
G1 X131.83 Y24.35 E1174.971
G1 X128.47 Y20.99 E1175.136
G1 X125.11 Y17.63 E1175.3
G1 X121.74 Y14.26 E1175.464
G1 X118.38 Y10.9 E1175.629
G0 X119.79 F10800
G1 X123.32 Y14.43 E1175.801 F2400
G1 X126.84 Y17.95 E1175.973
G1 X130.37 Y21.48 E1176.146
G1 X133.9 Y25 E1176.318
G1 X137.42 Y28.53 E1176.49
G1 X140.95 Y32.05 E1176.663
G1 X144.47 Y35.58 E1176.835
G1 X148 Y39.1 E1177.007
G1 X151.52 Y42.63 E1177.18
G1 X155.05 Y46.15 E1177.352
G1 X158.57 Y49.68 E1177.524
G1 X162.1 Y53.2 E1177.696
G0 X162.1 Y51.79 F10800
G1 X158.69 Y48.38 E1177.863 F2400
G1 X155.28 Y44.98 E1178.03
G1 X151.88 Y41.57 E1178.196
G1 X148.47 Y38.16 E1178.363
G1 X145.06 Y34.75 E1178.529
G1 X141.65 Y31.35 E1178.696
G1 X138.25 Y27.94 E1178.862
G1 X134.84 Y24.53 E1179.029
G1 X131.43 Y21.12 E1179.195
G1 X128.02 Y17.72 E1179.362
G1 X124.62 Y14.31 E1179.528
G1 X121.21 Y10.9 E1179.695
G0 X122.62 F10800
G1 X125.91 Y14.19 E1179.856 F2400
G1 X129.2 Y17.48 E1180.016
G1 X132.49 Y20.77 E1180.177
G1 X135.78 Y24.06 E1180.338
G1 X139.07 Y27.35 E1180.499
G1 X142.36 Y30.64 E1180.66
G1 X145.65 Y33.93 E1180.82
G1 X148.94 Y37.22 E1180.981
G1 X152.23 Y40.51 E1181.142
G1 X155.52 Y43.8 E1181.303
G1 X158.81 Y47.09 E1181.464
G1 X162.1 Y50.38 E1181.624
G0 X162.1 Y48.96 F10800
G1 X158.64 Y45.5 E1181.793 F2400
G1 X155.18 Y42.04 E1181.963
G1 X151.72 Y38.58 E1182.132
G1 X148.26 Y35.12 E1182.301
G1 X144.8 Y31.66 E1182.47
G1 X141.34 Y28.2 E1182.639
G1 X137.88 Y24.74 E1182.808
G1 X134.42 Y21.28 E1182.977
G1 X130.96 Y17.82 E1183.146
G1 X127.5 Y14.36 E1183.315
G1 X124.04 Y10.9 E1183.485
G0 X125.45 F10800
G1 X128.78 Y14.23 E1183.647 F2400
G1 X132.11 Y17.56 E1183.81
G1 X135.45 Y20.89 E1183.973
G1 X138.78 Y24.23 E1184.136
G1 X142.11 Y27.56 E1184.299
G1 X145.44 Y30.89 E1184.462
G1 X148.77 Y34.22 E1184.624
G1 X152.1 Y37.55 E1184.787
G1 X155.44 Y40.88 E1184.95
G1 X158.77 Y44.22 E1185.113
G1 X162.1 Y47.55 E1185.276
G0 X162.1 Y46.13 F10800
G1 X158.58 Y42.61 E1185.448 F2400
G1 X155.05 Y39.09 E1185.62
G1 X151.53 Y35.56 E1185.792
G1 X148.01 Y32.04 E1185.964
G1 X144.48 Y28.52 E1186.137
G1 X140.96 Y24.99 E1186.309
G1 X137.44 Y21.47 E1186.481
G1 X133.91 Y17.95 E1186.653
G1 X130.39 Y14.42 E1186.825
G1 X126.87 Y10.9 E1186.998
G0 X128.28 F10800
G1 X131.66 Y14.28 E1187.163 F2400
G1 X135.04 Y17.66 E1187.328
G1 X138.43 Y21.05 E1187.494
G1 X141.81 Y24.43 E1187.659
G1 X145.19 Y27.81 E1187.824
G1 X148.57 Y31.19 E1187.989
G1 X151.95 Y34.57 E1188.155
G1 X155.34 Y37.96 E1188.32
G1 X158.72 Y41.34 E1188.485
G1 X162.1 Y44.72 E1188.651
G0 X162.1 Y43.31 F10800
G1 X158.86 Y40.06 E1188.809 F2400
G1 X155.62 Y36.82 E1188.967
G1 X152.38 Y33.58 E1189.126
G1 X149.14 Y30.34 E1189.284
G1 X145.9 Y27.1 E1189.442
G1 X142.66 Y23.86 E1189.601
G1 X139.41 Y20.62 E1189.759
G1 X136.17 Y17.38 E1189.918
G1 X132.93 Y14.14 E1190.076
G1 X129.69 Y10.9 E1190.234
G0 X131.11 F10800
G1 X134.55 Y14.34 E1190.403 F2400
G1 X137.99 Y17.79 E1190.571
G1 X141.44 Y21.23 E1190.739
G1 X144.88 Y24.67 E1190.908
G1 X148.33 Y28.12 E1191.076
G1 X151.77 Y31.56 E1191.244
G1 X155.21 Y35 E1191.412
G1 X158.66 Y38.45 E1191.581
G1 X162.1 Y41.89 E1191.749
G0 X162.72 Y41.1 F10800
G1 X159.37 Y37.74 E1191.913 F2400
G1 X156.01 Y34.39 E1192.077
G1 X152.66 Y31.03 E1192.241
G1 X149.3 Y27.68 E1192.405
G1 X145.94 Y24.32 E1192.569
G1 X142.59 Y20.97 E1192.733
G1 X139.23 Y17.61 E1192.897
G1 X135.88 Y14.26 E1193.061
G1 X132.52 Y10.9 E1193.225
G0 X133.94 F10800
G1 X137.29 Y14.26 E1193.389 F2400
G1 X140.65 Y17.61 E1193.553
G1 X144 Y20.97 E1193.717
G1 X147.36 Y24.32 E1193.881
G1 X150.71 Y27.68 E1194.045
G1 X154.07 Y31.03 E1194.209
G1 X157.43 Y34.39 E1194.373
G1 X160.78 Y37.74 E1194.537
G1 X164.14 Y41.1 E1194.701
G0 X165.55 F10800
G1 X162.2 Y37.74 E1194.865 F2400
G1 X158.84 Y34.39 E1195.029
G1 X155.48 Y31.03 E1195.193
G1 X152.13 Y27.68 E1195.357
G1 X148.77 Y24.32 E1195.521
G1 X145.42 Y20.97 E1195.685
G1 X142.06 Y17.61 E1195.849
G1 X138.71 Y14.26 E1196.013
G1 X135.35 Y10.9 E1196.177
G0 X136.77 F10800
G1 X140.12 Y14.26 E1196.341 F2400
G1 X143.48 Y17.61 E1196.505
G1 X146.83 Y20.97 E1196.669
G1 X150.19 Y24.32 E1196.833
G1 X153.54 Y27.68 E1196.997
G1 X156.9 Y31.03 E1197.161
G1 X160.25 Y34.39 E1197.325
G1 X163.61 Y37.74 E1197.489
G1 X166.97 Y41.1 E1197.653
G0 X168.38 F10800
G1 X165.02 Y37.74 E1197.817 F2400
G1 X161.67 Y34.39 E1197.981
G1 X158.31 Y31.03 E1198.145
G1 X154.96 Y27.68 E1198.309
G1 X151.6 Y24.32 E1198.473
G1 X148.25 Y20.97 E1198.637
G1 X144.89 Y17.61 E1198.801
G1 X141.53 Y14.26 E1198.965
G1 X138.18 Y10.9 E1199.129
G0 X139.59 F10800
G1 X142.95 Y14.26 E1199.293 F2400
G1 X146.3 Y17.61 E1199.457
G1 X149.66 Y20.97 E1199.621
G1 X153.02 Y24.32 E1199.785
G1 X156.37 Y27.68 E1199.949
G1 X159.73 Y31.03 E1200.113
G1 X163.08 Y34.39 E1200.277
G1 X166.44 Y37.74 E1200.441
G1 X169.79 Y41.1 E1200.605
G0 X171.21 F10800
G1 X167.85 Y37.74 E1200.769 F2400
G1 X164.5 Y34.39 E1200.933
G1 X161.14 Y31.03 E1201.097
G1 X157.79 Y27.68 E1201.261
G1 X154.43 Y24.32 E1201.425
G1 X151.07 Y20.97 E1201.589
G1 X147.72 Y17.61 E1201.753
G1 X144.36 Y14.26 E1201.917
G1 X141.01 Y10.9 E1202.081
G0 X142.42 F10800
G1 X145.78 Y14.26 E1202.245 F2400
G1 X149.13 Y17.61 E1202.409
G1 X152.49 Y20.97 E1202.573
G1 X155.84 Y24.32 E1202.737
G1 X159.2 Y27.68 E1202.901
G1 X162.56 Y31.03 E1203.065
G1 X165.91 Y34.39 E1203.229
G1 X169.27 Y37.74 E1203.393
G1 X172.62 Y41.1 E1203.557
G0 X174.04 F10800
G1 X170.68 Y37.74 E1203.721 F2400
G1 X167.32 Y34.39 E1203.885
G1 X163.97 Y31.03 E1204.049
G1 X160.61 Y27.68 E1204.213
G1 X157.26 Y24.32 E1204.377
G1 X153.9 Y20.97 E1204.541
G1 X150.55 Y17.61 E1204.705
G1 X147.19 Y14.26 E1204.869
G1 X143.84 Y10.9 E1205.033
G0 X145.25 F10800
G1 X148.61 Y14.26 E1205.197 F2400
G1 X151.96 Y17.61 E1205.361
G1 X155.32 Y20.97 E1205.525
G1 X158.67 Y24.32 E1205.689
G1 X162.03 Y27.68 E1205.853
G1 X165.38 Y31.03 E1206.017
G1 X168.74 Y34.39 E1206.181
G1 X172.09 Y37.74 E1206.345
G1 X175.45 Y41.1 E1206.509
G0 X176.86 Y41.1 F10800
G1 X173.51 Y37.74 E1206.673 F2400
G1 X170.15 Y34.39 E1206.837
G1 X166.8 Y31.03 E1207.001
G1 X163.44 Y27.68 E1207.165
G1 X160.09 Y24.32 E1207.329
G1 X156.73 Y20.97 E1207.493
G1 X153.38 Y17.61 E1207.657
G1 X150.02 Y14.26 E1207.821
G1 X146.66 Y10.9 E1207.985
G0 X148.08 F10800
G1 X151.43 Y14.26 E1208.149 F2400
G1 X154.79 Y17.61 E1208.313
G1 X158.14 Y20.97 E1208.477
G1 X161.5 Y24.32 E1208.641
G1 X164.86 Y27.68 E1208.805
G1 X168.21 Y31.03 E1208.969
G1 X171.57 Y34.39 E1209.133
G1 X174.92 Y37.74 E1209.297
G1 X178.28 Y41.1 E1209.461
G0 X179.69 Y41.1 F10800
G1 X176.34 Y37.74 E1209.625 F2400
G1 X172.98 Y34.39 E1209.789
G1 X169.63 Y31.03 E1209.953
G1 X166.27 Y27.68 E1210.117
G1 X162.91 Y24.32 E1210.281
G1 X159.56 Y20.97 E1210.445
G1 X156.2 Y17.61 E1210.609
G1 X152.85 Y14.26 E1210.773
G1 X149.49 Y10.9 E1210.937
G0 X150.91 F10800
G1 X154.26 Y14.26 E1211.101 F2400
G1 X157.62 Y17.61 E1211.265
G1 X160.97 Y20.97 E1211.429
G1 X164.33 Y24.32 E1211.593
G1 X167.68 Y27.68 E1211.757
G1 X171.04 Y31.03 E1211.921
G1 X174.4 Y34.39 E1212.085
G1 X177.75 Y37.74 E1212.249
G1 X181.11 Y41.1 E1212.413
G0 X182.52 Y41.1 F10800
G1 X179.17 Y37.74 E1212.577 F2400
G1 X175.81 Y34.39 E1212.741
G1 X172.45 Y31.03 E1212.905
G1 X169.1 Y27.68 E1213.069
G1 X165.74 Y24.32 E1213.233
G1 X162.39 Y20.97 E1213.397
G1 X159.03 Y17.61 E1213.561
G1 X155.68 Y14.26 E1213.725
G1 X152.32 Y10.9 E1213.889
G0 X153.74 F10800
G1 X157.09 Y14.26 E1214.053 F2400
G1 X160.45 Y17.61 E1214.217
G1 X163.8 Y20.97 E1214.381
G1 X167.16 Y24.32 E1214.545
G1 X170.51 Y27.68 E1214.709
G1 X173.87 Y31.03 E1214.873
G1 X177.22 Y34.39 E1215.037
G1 X180.58 Y37.74 E1215.201
G1 X183.94 Y41.1 E1215.365
G0 X185.35 Y41.1 F10800
G1 X181.99 Y37.74 E1215.529 F2400
G1 X178.64 Y34.39 E1215.693
G1 X175.28 Y31.03 E1215.857
G1 X171.93 Y27.68 E1216.021
G1 X168.57 Y24.32 E1216.185
G1 X165.22 Y20.97 E1216.349
G1 X161.86 Y17.61 E1216.513
G1 X158.5 Y14.26 E1216.677
G1 X155.15 Y10.9 E1216.841
G0 X156.56 F10800
G1 X159.92 Y14.26 E1217.005 F2400
G1 X163.27 Y17.61 E1217.169
G1 X166.63 Y20.97 E1217.333
G1 X169.99 Y24.32 E1217.497
G1 X173.34 Y27.68 E1217.661
G1 X176.7 Y31.03 E1217.825
G1 X180.05 Y34.39 E1217.989
G1 X183.41 Y37.74 E1218.153
G1 X186.76 Y41.1 E1218.317
G0 X188.18 Y41.1 F10800
G1 X184.82 Y37.74 E1218.481 F2400
G1 X181.47 Y34.39 E1218.645
G1 X178.11 Y31.03 E1218.809
G1 X174.76 Y27.68 E1218.973
G1 X171.4 Y24.32 E1219.137
G1 X168.04 Y20.97 E1219.301
G1 X164.69 Y17.61 E1219.465
G1 X161.33 Y14.26 E1219.629
G1 X157.98 Y10.9 E1219.793
G0 X159.39 F10800
G1 X162.69 Y14.2 E1219.954 F2400
G1 X165.99 Y17.5 E1220.116
G1 X169.29 Y20.8 E1220.277
G1 X172.59 Y24.1 E1220.438
G1 X175.9 Y27.4 E1220.6
G1 X179.2 Y30.7 E1220.761
G1 X182.5 Y34 E1220.922
G1 X185.8 Y37.31 E1221.084
G1 X189.1 Y40.61 E1221.245
G0 X189.1 Y39.19 F10800
G1 X185.95 Y36.05 E1221.399 F2400
G1 X182.81 Y32.9 E1221.552
G1 X179.67 Y29.76 E1221.706
G1 X176.52 Y26.62 E1221.859
G1 X173.38 Y23.47 E1222.013
G1 X170.24 Y20.33 E1222.167
G1 X167.09 Y17.19 E1222.32
G1 X163.95 Y14.04 E1222.474
G1 X160.81 Y10.9 E1222.628
G0 X162.22 F10800
G1 X165.58 Y14.26 E1222.792 F2400
G1 X168.94 Y17.62 E1222.956
G1 X172.3 Y20.98 E1223.12
G1 X175.66 Y24.34 E1223.284
G1 X179.02 Y27.7 E1223.449
G1 X182.38 Y31.06 E1223.613
G1 X185.74 Y34.42 E1223.777
G1 X189.1 Y37.78 E1223.941
G0 X189.1 Y36.36 F10800
G1 X185.92 Y33.18 E1224.097 F2400
G1 X182.73 Y30 E1224.252
G1 X179.55 Y26.81 E1224.408
G1 X176.37 Y23.63 E1224.563
G1 X173.18 Y20.45 E1224.719
G1 X170 Y17.27 E1224.875
G1 X166.82 Y14.08 E1225.03
G1 X163.64 Y10.9 E1225.186
G0 X165.05 F10800
G1 X168.48 Y14.34 E1225.354 F2400
G1 X171.92 Y17.77 E1225.522
G1 X175.36 Y21.21 E1225.689
G1 X178.79 Y24.64 E1225.857
G1 X182.23 Y28.08 E1226.025
G1 X185.66 Y31.51 E1226.193
G1 X189.1 Y34.95 E1226.361
G0 X189.1 Y33.54 F10800
G1 X185.86 Y30.3 E1226.519 F2400
G1 X182.63 Y27.07 E1226.677
G1 X179.4 Y23.83 E1226.835
G1 X176.16 Y20.6 E1226.993
G1 X172.93 Y17.37 E1227.151
G1 X169.7 Y14.13 E1227.309
G1 X166.46 Y10.9 E1227.467
G0 X167.88 F10800
G1 X170.91 Y13.93 E1227.616 F2400
G1 X173.94 Y16.96 E1227.764
G1 X176.97 Y19.99 E1227.912
G1 X180 Y23.03 E1228.06
G1 X183.03 Y26.06 E1228.208
G1 X186.07 Y29.09 E1228.356
G1 X189.1 Y32.12 E1228.505
G0 X189.1 Y30.71 F10800
G1 X185.8 Y27.41 E1228.666 F2400
G1 X182.5 Y24.1 E1228.827
G1 X179.19 Y20.8 E1228.989
G1 X175.89 Y17.5 E1229.15
G1 X172.59 Y14.2 E1229.311
G1 X169.29 Y10.9 E1229.473
G0 X170.71 F10800
G1 X173.77 Y13.97 E1229.622 F2400
G1 X176.84 Y17.03 E1229.772
G1 X179.9 Y20.1 E1229.922
G1 X182.97 Y23.16 E1230.072
G1 X186.03 Y26.23 E1230.222
G1 X189.1 Y29.29 E1230.371
G0 X189.1 Y27.88 F10800
G1 X185.7 Y24.48 E1230.537 F2400
G1 X182.31 Y21.09 E1230.703
G1 X178.91 Y17.69 E1230.869
G1 X175.52 Y14.3 E1231.035
G1 X172.12 Y10.9 E1231.201
G0 X173.53 F10800
G1 X176.65 Y14.01 E1231.353 F2400
G1 X179.76 Y17.13 E1231.506
G1 X182.87 Y20.24 E1231.658
G1 X185.99 Y23.35 E1231.81
G1 X189.1 Y26.46 E1231.962
G0 X189.1 Y25.05 F10800
G1 X186.27 Y22.22 E1232.1 F2400
G1 X183.44 Y19.39 E1232.239
G1 X180.61 Y16.56 E1232.377
G1 X177.78 Y13.73 E1232.515
G1 X174.95 Y10.9 E1232.654
G0 X176.36 F10800
G1 X179.55 Y14.08 E1232.809 F2400
G1 X182.73 Y17.27 E1232.965
G1 X185.92 Y20.45 E1233.12
G1 X189.1 Y23.64 E1233.276
G0 X189.1 Y22.22 F10800
G1 X186.27 Y19.39 E1233.414 F2400
G1 X183.44 Y16.56 E1233.553
G1 X180.61 Y13.73 E1233.691
G1 X177.78 Y10.9 E1233.829
G0 X179.19 F10800
G1 X182.49 Y14.2 E1233.991 F2400
G1 X185.8 Y17.51 E1234.152
G1 X189.1 Y20.81 E1234.314
G0 X189.1 Y19.39 F10800
G1 X186.27 Y16.56 E1234.452 F2400
G1 X183.44 Y13.73 E1234.59
G1 X180.61 Y10.9 E1234.729
G0 X182.02 F10800
G1 X184.38 Y13.26 E1234.844 F2400
G1 X186.74 Y15.62 E1234.959
G1 X189.1 Y17.98 E1235.075
G0 X189.1 Y16.57 F10800
G1 X186.27 Y13.73 E1235.213 F2400
G1 X183.43 Y10.9 E1235.352
G0 X184.85 F10800
G1 X186.97 Y13.03 E1235.455 F2400
G1 X189.1 Y15.15 E1235.559
G0 X189.1 Y13.74 F10800
G1 X186.26 Y10.9 E1235.698 F2400
G0 X187.68 F10800
G1 X189.1 Y12.32 E1235.768 F2400
G0 Y10.91 F10800
G1 X189.09 Y10.9 E1235.768 F2400
G1 E1234.968 F2100
G0 Z1.15
G0 X186.84 Y19.85 F10800
G0 X184.59 Y28.79
G0 X182.34 Y37.74
G0 X180.09 Y46.69
G0 X177.84 Y55.63
G0 X175.59 Y64.58
G0 X173.35 Y73.53
G0 X171.1 Y82.47
G0 X168.85 Y91.42
G0 X166.6 Y100.37
G0 X164.35 Y109.31
G0 X162.1 Y118.26
G0 Z0.55
G1 E1235.768 F2100
G1 X158.61 Y114.77 E1235.938 F2400
G1 X155.12 Y111.28 E1236.109
G1 X151.64 Y107.8 E1236.279
G1 X148.15 Y104.31 E1236.45
G1 X144.66 Y100.82 E1236.62
G1 X141.17 Y97.33 E1236.791
G1 X137.69 Y93.85 E1236.961
G1 X134.2 Y90.36 E1237.132
G1 X130.71 Y86.87 E1237.302
G1 X127.22 Y83.38 E1237.472
G1 X123.74 Y79.9 E1237.643
G1 X120.25 Y76.41 E1237.813
G1 X116.76 Y72.92 E1237.984
G1 X113.27 Y69.43 E1238.154
G1 X109.79 Y65.95 E1238.325
G1 X106.3 Y62.46 E1238.495
G1 X102.81 Y58.97 E1238.666
G1 X99.32 Y55.48 E1238.836
G1 X95.84 Y52 E1239.006
G1 X92.35 Y48.51 E1239.177
G1 X88.86 Y45.02 E1239.347
G1 X85.37 Y41.53 E1239.518
G1 X81.89 Y38.05 E1239.688
G1 X78.4 Y34.56 E1239.859
G0 X78.4 Y35.97 F10800
G1 X81.86 Y39.44 E1240.028 F2400
G1 X85.33 Y42.9 E1240.197
G1 X88.79 Y46.36 E1240.367
G1 X92.25 Y49.83 E1240.536
G1 X95.72 Y53.29 E1240.705
G1 X99.18 Y56.75 E1240.874
G1 X102.64 Y60.22 E1241.044
G1 X106.11 Y63.68 E1241.213
G1 X109.57 Y67.15 E1241.382
G1 X113.04 Y70.61 E1241.552
G1 X116.5 Y74.07 E1241.721
G1 X119.96 Y77.54 E1241.89
G1 X123.43 Y81 E1242.059
G1 X126.89 Y84.46 E1242.229
G1 X130.35 Y87.93 E1242.398
G1 X133.82 Y91.39 E1242.567
G1 X137.28 Y94.85 E1242.737
G1 X140.74 Y98.32 E1242.906
G1 X144.21 Y101.78 E1243.075
G1 X147.67 Y105.25 E1243.244
G1 X151.14 Y108.71 E1243.414
G1 X154.6 Y112.17 E1243.583
G1 X158.06 Y115.64 E1243.752
G1 X161.53 Y119.1 E1243.922
G0 X160.11 F10800
G1 X156.71 Y115.7 E1244.088 F2400
G1 X153.3 Y112.29 E1244.254
G1 X149.9 Y108.89 E1244.421
G1 X146.49 Y105.48 E1244.587
G1 X143.09 Y102.08 E1244.754
G1 X139.68 Y98.67 E1244.92
G1 X136.28 Y95.27 E1245.086
G1 X132.87 Y91.86 E1245.253
G1 X129.47 Y88.46 E1245.419
G1 X126.06 Y85.05 E1245.586
G1 X122.66 Y81.65 E1245.752
G1 X119.26 Y78.24 E1245.918
G1 X115.85 Y74.84 E1246.085
G1 X112.45 Y71.43 E1246.251
G1 X109.04 Y68.03 E1246.418
G1 X105.64 Y64.62 E1246.584
G1 X102.23 Y61.22 E1246.75
G1 X98.83 Y57.81 E1246.917
G1 X95.42 Y54.41 E1247.083
G1 X92.02 Y51 E1247.25
G1 X88.61 Y47.6 E1247.416
G1 X85.21 Y44.2 E1247.582
G1 X81.8 Y40.79 E1247.749
G1 X78.4 Y37.39 E1247.915
G0 X78.4 Y38.8 F10800
G1 X81.89 Y42.29 E1248.086 F2400
G1 X85.38 Y45.78 E1248.256
G1 X88.87 Y49.27 E1248.427
G1 X92.36 Y52.77 E1248.598
G1 X95.86 Y56.26 E1248.768
G1 X99.35 Y59.75 E1248.939
G1 X102.84 Y63.24 E1249.11
G1 X106.33 Y66.73 E1249.28
G1 X109.82 Y70.22 E1249.451
G1 X113.31 Y73.71 E1249.622
G1 X116.8 Y77.2 E1249.792
G1 X120.29 Y80.7 E1249.963
G1 X123.79 Y84.19 E1250.133
G1 X127.28 Y87.68 E1250.304
G1 X130.77 Y91.17 E1250.475
G1 X134.26 Y94.66 E1250.645
G1 X137.75 Y98.15 E1250.816
G1 X141.24 Y101.64 E1250.987
G1 X144.73 Y105.13 E1251.157
G1 X148.22 Y108.63 E1251.328
G1 X151.72 Y112.12 E1251.498
G1 X155.21 Y115.61 E1251.669
G1 X158.7 Y119.1 E1251.84
G0 X157.28 F10800
G1 X153.85 Y115.67 E1252.007 F2400
G1 X150.42 Y112.24 E1252.175
G1 X146.99 Y108.81 E1252.343
G1 X143.56 Y105.38 E1252.51
G1 X140.13 Y101.95 E1252.678
G1 X136.7 Y98.52 E1252.846
G1 X133.27 Y95.09 E1253.013
G1 X129.85 Y91.66 E1253.181
G1 X126.42 Y88.23 E1253.348
G1 X122.99 Y84.8 E1253.516
G1 X119.56 Y81.37 E1253.684
G1 X116.13 Y77.94 E1253.851
G1 X112.7 Y74.51 E1254.019
G1 X109.27 Y71.08 E1254.187
G1 X105.84 Y67.65 E1254.354
G1 X102.41 Y64.22 E1254.522
G1 X98.98 Y60.79 E1254.689
G1 X95.55 Y57.36 E1254.857
G1 X92.12 Y53.93 E1255.025
G1 X88.69 Y50.5 E1255.192
G1 X85.26 Y47.07 E1255.36
G1 X81.83 Y43.64 E1255.528
G1 X78.4 Y40.22 E1255.695
G0 X78.4 Y41.63 F10800
G1 X81.92 Y45.15 E1255.867 F2400
G1 X85.44 Y48.67 E1256.039
G1 X88.96 Y52.19 E1256.211
G1 X92.48 Y55.71 E1256.384
G1 X96.01 Y59.24 E1256.556
G1 X99.53 Y62.76 E1256.728
G1 X103.05 Y66.28 E1256.9
G1 X106.57 Y69.8 E1257.072
G1 X110.09 Y73.32 E1257.244
G1 X113.61 Y76.84 E1257.416
G1 X117.13 Y80.36 E1257.588
G1 X120.66 Y83.89 E1257.76
G1 X124.18 Y87.41 E1257.933
G1 X127.7 Y90.93 E1258.105
G1 X131.22 Y94.45 E1258.277
G1 X134.74 Y97.97 E1258.449
G1 X138.26 Y101.49 E1258.621
G1 X141.78 Y105.01 E1258.793
G1 X145.3 Y108.54 E1258.965
G1 X148.83 Y112.06 E1259.137
G1 X152.35 Y115.58 E1259.309
G1 X155.87 Y119.1 E1259.482
G0 X154.46 F10800
G1 X151 Y115.64 E1259.65 F2400
G1 X147.54 Y112.19 E1259.819
G1 X144.08 Y108.73 E1259.988
G1 X140.63 Y105.27 E1260.157
G1 X137.17 Y101.81 E1260.326
G1 X133.71 Y98.36 E1260.495
G1 X130.26 Y94.9 E1260.664
G1 X126.8 Y91.44 E1260.833
G1 X123.34 Y87.99 E1261.002
G1 X119.88 Y84.53 E1261.171
G1 X116.43 Y81.07 E1261.34
G1 X112.97 Y77.61 E1261.509
G1 X109.51 Y74.16 E1261.678
G1 X106.06 Y70.7 E1261.847
G1 X102.6 Y67.24 E1262.016
G1 X99.14 Y63.79 E1262.185
G1 X95.68 Y60.33 E1262.354
G1 X92.23 Y56.87 E1262.523
G1 X88.77 Y53.41 E1262.692
G1 X85.31 Y49.96 E1262.861
G1 X81.86 Y46.5 E1263.03
G1 X78.4 Y43.04 E1263.199
G0 X78.4 Y44.46 F10800
G1 X81.79 Y47.85 E1263.365 F2400
G1 X85.18 Y51.24 E1263.53
G1 X88.58 Y54.64 E1263.696
G1 X91.97 Y58.03 E1263.862
G1 X95.36 Y61.42 E1264.028
G1 X98.76 Y64.81 E1264.194
G1 X102.15 Y68.21 E1264.359
G1 X105.54 Y71.6 E1264.525
G1 X108.93 Y74.99 E1264.691
G1 X112.33 Y78.39 E1264.857
G1 X115.72 Y81.78 E1265.023
G1 X119.11 Y85.17 E1265.189
G1 X122.51 Y88.56 E1265.354
G1 X125.9 Y91.96 E1265.52
G1 X129.29 Y95.35 E1265.686
G1 X132.68 Y98.74 E1265.852
G1 X136.08 Y102.14 E1266.018
G1 X139.47 Y105.53 E1266.184
G1 X142.86 Y108.92 E1266.349
G1 X146.26 Y112.31 E1266.515
G1 X149.65 Y115.71 E1266.681
G1 X153.04 Y119.1 E1266.847
G0 X151.63 F10800
G1 X148.14 Y115.61 E1267.017 F2400
G1 X144.65 Y112.13 E1267.188
G1 X141.17 Y108.64 E1267.358
G1 X137.68 Y105.15 E1267.529
G1 X134.19 Y101.66 E1267.699
G1 X130.7 Y98.18 E1267.869
G1 X127.22 Y94.69 E1268.04
G1 X123.73 Y91.2 E1268.21
G1 X120.24 Y87.72 E1268.381
G1 X116.76 Y84.23 E1268.551
G1 X113.27 Y80.74 E1268.722
G1 X109.78 Y77.26 E1268.892
G1 X106.3 Y73.77 E1269.062
G1 X102.81 Y70.28 E1269.233
G1 X99.32 Y66.79 E1269.403
G1 X95.83 Y63.31 E1269.574
G1 X92.35 Y59.82 E1269.744
G1 X88.86 Y56.33 E1269.914
G1 X85.37 Y52.85 E1270.085
G1 X81.89 Y49.36 E1270.255
G1 X78.4 Y45.87 E1270.426
G0 X78.4 Y47.29 F10800
G1 X81.82 Y50.71 E1270.593 F2400
G1 X85.24 Y54.13 E1270.76
G1 X88.66 Y57.55 E1270.927
G1 X92.08 Y60.96 E1271.094
G1 X95.5 Y64.38 E1271.261
G1 X98.92 Y67.8 E1271.429
G1 X102.34 Y71.22 E1271.596
G1 X105.76 Y74.64 E1271.763
G1 X109.18 Y78.06 E1271.93
G1 X112.6 Y81.48 E1272.097
G1 X116.02 Y84.9 E1272.264
G1 X119.44 Y88.32 E1272.431
G1 X122.85 Y91.74 E1272.599
G1 X126.27 Y95.16 E1272.766
G1 X129.69 Y98.58 E1272.933
G1 X133.11 Y102 E1273.1
G1 X136.53 Y105.42 E1273.267
G1 X139.95 Y108.84 E1273.434
G1 X143.37 Y112.26 E1273.601
G1 X146.79 Y115.68 E1273.768
G1 X150.21 Y119.1 E1273.936
G0 X148.8 F10800
G1 X145.28 Y115.58 E1274.108 F2400
G1 X141.76 Y112.06 E1274.28
G1 X138.24 Y108.54 E1274.452
G1 X134.72 Y105.02 E1274.624
G1 X131.2 Y101.5 E1274.796
G1 X127.68 Y97.98 E1274.968
G1 X124.16 Y94.46 E1275.14
G1 X120.64 Y90.94 E1275.312
G1 X117.12 Y87.42 E1275.484
G1 X113.6 Y83.9 E1275.656
G1 X110.08 Y80.38 E1275.828
G1 X106.56 Y76.86 E1276
G1 X103.04 Y73.34 E1276.172
G1 X99.52 Y69.82 E1276.344
G1 X96 Y66.3 E1276.516
G1 X92.48 Y62.78 E1276.688
G1 X88.96 Y59.26 E1276.86
G1 X85.44 Y55.74 E1277.032
G1 X81.92 Y52.22 E1277.204
G1 X78.4 Y48.7 E1277.376
G0 X78.4 Y50.11 F10800
G1 X81.85 Y53.56 E1277.545 F2400
G1 X85.3 Y57.01 E1277.714
G1 X88.75 Y60.46 E1277.882
G1 X92.2 Y63.91 E1278.051
G1 X95.65 Y67.36 E1278.219
G1 X99.09 Y70.81 E1278.388
G1 X102.54 Y74.26 E1278.556
G1 X105.99 Y77.71 E1278.725
G1 X109.44 Y81.16 E1278.894
G1 X112.89 Y84.61 E1279.062
G1 X116.34 Y88.06 E1279.231
G1 X119.79 Y91.51 E1279.399
G1 X123.24 Y94.95 E1279.568
G1 X126.69 Y98.4 E1279.736
G1 X130.14 Y101.85 E1279.905
G1 X133.59 Y105.3 E1280.074
G1 X137.04 Y108.75 E1280.242
G1 X140.49 Y112.2 E1280.411
G1 X143.93 Y115.65 E1280.579
G1 X147.38 Y119.1 E1280.748
G0 X145.97 F10800
G1 X142.59 Y115.72 E1280.913 F2400
G1 X139.21 Y112.34 E1281.078
G1 X135.83 Y108.96 E1281.243
G1 X132.46 Y105.59 E1281.408
G1 X129.08 Y102.21 E1281.574
G1 X125.7 Y98.83 E1281.739
G1 X122.32 Y95.45 E1281.904
G1 X118.94 Y92.07 E1282.069
G1 X115.56 Y88.69 E1282.234
G1 X112.18 Y85.31 E1282.399
G1 X108.81 Y81.94 E1282.564
G1 X105.43 Y78.56 E1282.729
G1 X102.05 Y75.18 E1282.895
G1 X98.67 Y71.8 E1283.06
G1 X95.29 Y68.42 E1283.225
G1 X91.91 Y65.04 E1283.39
G1 X88.53 Y61.66 E1283.555
G1 X85.16 Y58.29 E1283.72
G1 X81.78 Y54.91 E1283.885
G1 X78.4 Y51.53 E1284.05
G0 X78.4 Y52.94 F10800
G1 X81.88 Y56.42 E1284.221 F2400
G1 X85.36 Y59.91 E1284.391
G1 X88.84 Y63.39 E1284.561
G1 X92.33 Y66.87 E1284.731
G1 X95.81 Y70.35 E1284.901
G1 X99.29 Y73.83 E1285.072
G1 X102.77 Y77.32 E1285.242
G1 X106.25 Y80.8 E1285.412
G1 X109.74 Y84.28 E1285.582
G1 X113.22 Y87.76 E1285.752
G1 X116.7 Y91.24 E1285.922
G1 X120.18 Y94.73 E1286.093
G1 X123.66 Y98.21 E1286.263
G1 X127.15 Y101.69 E1286.433
G1 X130.63 Y105.17 E1286.603
G1 X134.11 Y108.65 E1286.773
G1 X137.59 Y112.14 E1286.943
G1 X141.07 Y115.62 E1287.114
G1 X144.56 Y119.1 E1287.284
G0 X143.14 F10800
G1 X139.73 Y115.69 E1287.45 F2400
G1 X136.33 Y112.28 E1287.617
G1 X132.92 Y108.88 E1287.783
G1 X129.51 Y105.47 E1287.95
G1 X126.1 Y102.06 E1288.117
G1 X122.7 Y98.65 E1288.283
G1 X119.29 Y95.25 E1288.45
G1 X115.88 Y91.84 E1288.616
G1 X112.47 Y88.43 E1288.783
G1 X109.07 Y85.02 E1288.949
G1 X105.66 Y81.62 E1289.116
G1 X102.25 Y78.21 E1289.282
G1 X98.84 Y74.8 E1289.449
G1 X95.44 Y71.39 E1289.615
G1 X92.03 Y67.99 E1289.782
G1 X88.62 Y64.58 E1289.948
G1 X85.21 Y61.17 E1290.115
G1 X81.81 Y57.76 E1290.282
G1 X78.4 Y54.36 E1290.448
G0 X78.4 Y55.77 F10800
G1 X81.92 Y59.29 E1290.62 F2400
G1 X85.44 Y62.81 E1290.792
G1 X88.95 Y66.33 E1290.964
G1 X92.47 Y69.84 E1291.136
G1 X95.99 Y73.36 E1291.308
G1 X99.51 Y76.88 E1291.48
G1 X103.03 Y80.4 E1291.652
G1 X106.54 Y83.92 E1291.824
G1 X110.06 Y87.44 E1291.996
G1 X113.58 Y90.95 E1292.168
G1 X117.1 Y94.47 E1292.34
G1 X120.62 Y97.99 E1292.511
G1 X124.14 Y101.51 E1292.683
G1 X127.65 Y105.03 E1292.855
G1 X131.17 Y108.55 E1293.027
G1 X134.69 Y112.06 E1293.199
G1 X138.21 Y115.58 E1293.371
G1 X141.73 Y119.1 E1293.543
G0 X140.31 F10800
G1 X136.87 Y115.66 E1293.711 F2400
G1 X133.43 Y112.22 E1293.879
G1 X129.99 Y108.78 E1294.048
G1 X126.55 Y105.34 E1294.216
G1 X123.11 Y101.9 E1294.384
G1 X119.68 Y98.46 E1294.552
G1 X116.24 Y95.02 E1294.72
G1 X112.8 Y91.58 E1294.888
G1 X109.36 Y88.14 E1295.056
G1 X105.92 Y84.7 E1295.224
G1 X102.48 Y81.26 E1295.392
G1 X99.04 Y77.82 E1295.561
G1 X95.6 Y74.38 E1295.729
G1 X92.16 Y70.94 E1295.897
G1 X88.72 Y67.5 E1296.065
G1 X85.28 Y64.06 E1296.233
G1 X81.84 Y60.62 E1296.401
G1 X78.4 Y57.19 E1296.569
G0 X78.4 Y58.6 F10800
G1 X81.76 Y61.96 E1296.734 F2400
G1 X85.12 Y65.32 E1296.898
G1 X88.48 Y68.68 E1297.062
G1 X91.84 Y72.04 E1297.226
G1 X95.2 Y75.41 E1297.391
G1 X98.57 Y78.77 E1297.555
G1 X101.93 Y82.13 E1297.719
G1 X105.29 Y85.49 E1297.883
G1 X108.65 Y88.85 E1298.048
G1 X112.01 Y92.21 E1298.212
G1 X115.37 Y95.57 E1298.376
G1 X118.73 Y98.93 E1298.541
G1 X122.09 Y102.29 E1298.705
G1 X125.45 Y105.66 E1298.869
G1 X128.82 Y109.02 E1299.033
G1 X132.18 Y112.38 E1299.198
G1 X135.54 Y115.74 E1299.362
G1 X138.9 Y119.1 E1299.526
G0 X137.48 F10800
G1 X134.01 Y115.62 E1299.696 F2400
G1 X130.53 Y112.15 E1299.866
G1 X127.06 Y108.67 E1300.036
G1 X123.58 Y105.2 E1300.206
G1 X120.11 Y101.72 E1300.375
G1 X116.63 Y98.25 E1300.545
G1 X113.15 Y94.77 E1300.715
G1 X109.68 Y91.29 E1300.885
G1 X106.2 Y87.82 E1301.055
G1 X102.73 Y84.34 E1301.225
G1 X99.25 Y80.87 E1301.395
G1 X95.78 Y77.39 E1301.565
G1 X92.3 Y73.92 E1301.734
G1 X88.83 Y70.44 E1301.904
G1 X85.35 Y66.97 E1302.074
G1 X81.87 Y63.49 E1302.244
G1 X78.4 Y60.01 E1302.414
G0 X78.4 Y61.43 F10800
G1 X81.79 Y64.82 E1302.58 F2400
G1 X85.18 Y68.21 E1302.745
G1 X88.58 Y71.61 E1302.911
G1 X91.97 Y75 E1303.077
G1 X95.36 Y78.39 E1303.243
G1 X98.75 Y81.78 E1303.409
G1 X102.15 Y85.18 E1303.575
G1 X105.54 Y88.57 E1303.74
G1 X108.93 Y91.96 E1303.906
G1 X112.32 Y95.35 E1304.072
G1 X115.72 Y98.75 E1304.238
G1 X119.11 Y102.14 E1304.404
G1 X122.5 Y105.53 E1304.569
G1 X125.89 Y108.92 E1304.735
G1 X129.29 Y112.32 E1304.901
G1 X132.68 Y115.71 E1305.067
G1 X136.07 Y119.1 E1305.233
G0 X134.66 F10800
G1 X131.14 Y115.58 E1305.404 F2400
G1 X127.62 Y112.07 E1305.576
G1 X124.11 Y108.55 E1305.748
G1 X120.59 Y105.04 E1305.92
G1 X117.08 Y101.52 E1306.092
G1 X113.56 Y98 E1306.264
G1 X110.04 Y94.49 E1306.435
G1 X106.53 Y90.97 E1306.607
G1 X103.01 Y87.45 E1306.779
G1 X99.5 Y83.94 E1306.951
G1 X95.98 Y80.42 E1307.123
G1 X92.46 Y76.91 E1307.295
G1 X88.95 Y73.39 E1307.467
G1 X85.43 Y69.87 E1307.638
G1 X81.92 Y66.36 E1307.81
G1 X78.4 Y62.84 E1307.982
G0 X78.4 Y64.26 F10800
G1 X81.83 Y67.68 E1308.15 F2400
G1 X85.25 Y71.11 E1308.317
G1 X88.68 Y74.54 E1308.485
G1 X92.11 Y77.97 E1308.652
G1 X95.54 Y81.39 E1308.82
G1 X98.97 Y84.82 E1308.987
G1 X102.39 Y88.25 E1309.155
G1 X105.82 Y91.68 E1309.322
G1 X109.25 Y95.11 E1309.49
G1 X112.68 Y98.53 E1309.657
G1 X116.1 Y101.96 E1309.825
G1 X119.53 Y105.39 E1309.992
G1 X122.96 Y108.82 E1310.16
G1 X126.39 Y112.24 E1310.327
G1 X129.81 Y115.67 E1310.495
G1 X133.24 Y119.1 E1310.663
G0 X131.83 F10800
G1 X128.49 Y115.76 E1310.826 F2400
G1 X125.15 Y112.42 E1310.989
G1 X121.81 Y109.08 E1311.152
G1 X118.47 Y105.74 E1311.315
G1 X115.13 Y102.4 E1311.479
G1 X111.79 Y99.06 E1311.642
G1 X108.45 Y95.72 E1311.805
G1 X105.11 Y92.39 E1311.968
G1 X101.77 Y89.05 E1312.131
G1 X98.43 Y85.71 E1312.295
G1 X95.1 Y82.37 E1312.458
G1 X91.76 Y79.03 E1312.621
G1 X88.42 Y75.69 E1312.784
G1 X85.08 Y72.35 E1312.947
G1 X81.74 Y69.01 E1313.111
G1 X78.4 Y65.67 E1313.274
G0 X78.4 Y67.09 F10800
G1 X81.87 Y70.55 E1313.443 F2400
G1 X85.33 Y74.02 E1313.613
G1 X88.8 Y77.49 E1313.782
G1 X92.27 Y80.96 E1313.952
G1 X95.74 Y84.42 E1314.121
G1 X99.2 Y87.89 E1314.291
G1 X102.67 Y91.36 E1314.46
G1 X106.14 Y94.83 E1314.63
G1 X109.61 Y98.29 E1314.799
G1 X113.08 Y101.76 E1314.969
G1 X116.54 Y105.23 E1315.138
G1 X120.01 Y108.7 E1315.308
G1 X123.48 Y112.16 E1315.477
G1 X126.95 Y115.63 E1315.647
G1 X130.41 Y119.1 E1315.816
G0 X129 F10800
G1 X125.63 Y115.73 E1315.981 F2400
G1 X122.25 Y112.35 E1316.146
G1 X118.88 Y108.98 E1316.311
G1 X115.51 Y105.61 E1316.475
G1 X112.13 Y102.23 E1316.64
G1 X108.76 Y98.86 E1316.805
G1 X105.39 Y95.49 E1316.97
G1 X102.01 Y92.11 E1317.135
G1 X98.64 Y88.74 E1317.3
G1 X95.27 Y85.37 E1317.465
G1 X91.89 Y81.99 E1317.63
G1 X88.52 Y78.62 E1317.794
G1 X85.15 Y75.25 E1317.959
G1 X81.77 Y71.87 E1318.124
G1 X78.4 Y68.5 E1318.289
G0 X78.4 Y69.91 F10800
G1 X81.91 Y73.43 E1318.461 F2400
G1 X85.43 Y76.94 E1318.632
G1 X88.94 Y80.45 E1318.804
G1 X92.45 Y83.97 E1318.976
G1 X95.97 Y87.48 E1319.148
G1 X99.48 Y90.99 E1319.319
G1 X102.99 Y94.51 E1319.491
G1 X106.51 Y98.02 E1319.663
G1 X110.02 Y101.53 E1319.834
G1 X113.53 Y105.05 E1320.006
G1 X117.05 Y108.56 E1320.178
G1 X120.56 Y112.07 E1320.35
G1 X124.07 Y115.59 E1320.521
G1 X127.59 Y119.1 E1320.693
G0 X126.17 F10800
G1 X122.76 Y115.69 E1320.86 F2400
G1 X119.35 Y112.28 E1321.027
G1 X115.93 Y108.86 E1321.193
G1 X112.52 Y105.45 E1321.36
G1 X109.11 Y102.04 E1321.527
G1 X105.7 Y98.63 E1321.694
G1 X102.29 Y95.21 E1321.86
G1 X98.87 Y91.8 E1322.027
G1 X95.46 Y88.39 E1322.194
G1 X92.05 Y84.98 E1322.361
G1 X88.64 Y81.56 E1322.527
G1 X85.22 Y78.15 E1322.694
G1 X81.81 Y74.74 E1322.861
G1 X78.4 Y71.33 E1323.028
G0 X78.4 Y72.74 F10800
G1 X81.71 Y76.05 E1323.19 F2400
G1 X85.02 Y79.36 E1323.351
G1 X88.33 Y82.68 E1323.513
G1 X91.64 Y85.99 E1323.675
G1 X94.96 Y89.3 E1323.837
G1 X98.27 Y92.61 E1323.999
G1 X101.58 Y95.92 E1324.161
G1 X104.89 Y99.23 E1324.322
G1 X108.2 Y102.54 E1324.484
G1 X111.51 Y105.85 E1324.646
G1 X114.82 Y109.17 E1324.808
G1 X118.13 Y112.48 E1324.97
G1 X121.44 Y115.79 E1325.132
G1 X124.76 Y119.1 E1325.293
G0 X123.34 F10800
G1 X119.88 Y115.64 E1325.462 F2400
G1 X116.43 Y112.19 E1325.631
G1 X112.97 Y108.73 E1325.8
G1 X109.51 Y105.27 E1325.969
G1 X106.06 Y101.81 E1326.138
G1 X102.6 Y98.36 E1326.307
G1 X99.14 Y94.9 E1326.476
G1 X95.68 Y91.44 E1326.645
G1 X92.23 Y87.99 E1326.814
G1 X88.77 Y84.53 E1326.983
G1 X85.31 Y81.07 E1327.152
G1 X81.86 Y77.61 E1327.321
G1 X78.4 Y74.16 E1327.49
G0 X78.4 Y75.57 F10800
G1 X81.75 Y78.92 E1327.654 F2400
G1 X85.1 Y82.27 E1327.817
G1 X88.44 Y85.62 E1327.981
G1 X91.79 Y88.96 E1328.145
G1 X95.14 Y92.31 E1328.308
G1 X98.49 Y95.66 E1328.472
G1 X101.84 Y99.01 E1328.636
G1 X105.19 Y102.36 E1328.799
G1 X108.53 Y105.71 E1328.963
G1 X111.88 Y109.05 E1329.127
G1 X115.23 Y112.4 E1329.29
G1 X118.58 Y115.75 E1329.454
G1 X121.93 Y119.1 E1329.617
G0 X120.51 F10800
G1 X117 Y115.59 E1329.789 F2400
G1 X113.49 Y112.08 E1329.961
G1 X109.99 Y108.57 E1330.132
G1 X106.48 Y105.06 E1330.304
G1 X102.97 Y101.55 E1330.475
G1 X99.46 Y98.04 E1330.647
G1 X95.95 Y94.53 E1330.818
G1 X92.44 Y91.02 E1330.99
G1 X88.93 Y87.51 E1331.161
G1 X85.42 Y84 E1331.333
G1 X81.91 Y80.49 E1331.504
G1 X78.4 Y76.98 E1331.676
G0 X78.4 Y78.4 F10800
G1 X81.79 Y81.79 E1331.842 F2400
G1 X85.18 Y85.18 E1332.007
G1 X88.57 Y88.57 E1332.173
G1 X91.97 Y91.97 E1332.339
G1 X95.36 Y95.36 E1332.505
G1 X98.75 Y98.75 E1332.67
G1 X102.14 Y102.14 E1332.836
G1 X105.53 Y105.53 E1333.002
G1 X108.92 Y108.92 E1333.168
G1 X112.32 Y112.32 E1333.333
G1 X115.71 Y115.71 E1333.499
G1 X119.1 Y119.1 E1333.665
G0 X117.69 Y119.1 F10800
G1 X114.41 Y115.83 E1333.825 F2400
G1 X111.14 Y112.55 E1333.985
G1 X107.86 Y109.28 E1334.145
G1 X104.59 Y106 E1334.305
G1 X101.32 Y102.73 E1334.465
G1 X98.04 Y99.46 E1334.625
G1 X94.77 Y96.18 E1334.785
G1 X91.49 Y92.91 E1334.945
G1 X88.22 Y89.63 E1335.105
G1 X84.95 Y86.36 E1335.265
G1 X81.67 Y83.09 E1335.425
G1 X78.4 Y79.81 E1335.585
G0 X78.4 Y81.23 F10800
G1 X81.84 Y84.67 E1335.753 F2400
G1 X85.28 Y88.11 E1335.922
G1 X88.73 Y91.56 E1336.09
G1 X92.17 Y95 E1336.258
G1 X95.61 Y98.44 E1336.426
G1 X99.06 Y101.88 E1336.595
G1 X102.5 Y105.33 E1336.763
G1 X105.94 Y108.77 E1336.931
G1 X109.38 Y112.21 E1337.099
G1 X112.83 Y115.66 E1337.268
G1 X116.27 Y119.1 E1337.436
G0 X114.86 Y119.1 F10800
G1 X111.54 Y115.78 E1337.598 F2400
G1 X108.23 Y112.47 E1337.76
G1 X104.91 Y109.16 E1337.922
G1 X101.6 Y105.84 E1338.084
G1 X98.28 Y102.53 E1338.246
G1 X94.97 Y99.21 E1338.408
G1 X91.66 Y95.9 E1338.57
G1 X88.34 Y92.58 E1338.732
G1 X85.03 Y89.27 E1338.894
G1 X81.71 Y85.96 E1339.056
G1 X78.4 Y82.64 E1339.218
G0 X78.4 Y84.06 F10800
G1 X81.9 Y87.56 E1339.389 F2400
G1 X85.41 Y91.06 E1339.56
G1 X88.91 Y94.57 E1339.732
G1 X92.42 Y98.07 E1339.903
G1 X95.92 Y101.58 E1340.074
G1 X99.42 Y105.08 E1340.245
G1 X102.93 Y108.59 E1340.417
G1 X106.43 Y112.09 E1340.588
G1 X109.94 Y115.59 E1340.759
G1 X113.44 Y119.1 E1340.931
G0 X112.03 Y119.1 F10800
G1 X108.67 Y115.74 E1341.095 F2400
G1 X105.3 Y112.37 E1341.259
G1 X101.94 Y109.01 E1341.424
G1 X98.58 Y105.65 E1341.588
G1 X95.21 Y102.28 E1341.752
G1 X91.85 Y98.92 E1341.917
G1 X88.49 Y95.56 E1342.081
G1 X85.12 Y92.2 E1342.245
G1 X81.76 Y88.83 E1342.41
G1 X78.4 Y85.47 E1342.574
G0 X78.4 Y86.89 F10800
G1 X81.62 Y90.11 E1342.732 F2400
G1 X84.84 Y93.33 E1342.889
G1 X88.06 Y96.55 E1343.046
G1 X91.29 Y99.77 E1343.204
G1 X94.51 Y102.99 E1343.361
G1 X97.73 Y106.21 E1343.519
G1 X100.95 Y109.43 E1343.676
G1 X104.17 Y112.66 E1343.834
G1 X107.39 Y115.88 E1343.991
G1 X110.61 Y119.1 E1344.149
G0 X109.2 Y119.1 F10800
G1 X105.78 Y115.68 E1344.316 F2400
G1 X102.35 Y112.25 E1344.483
G1 X98.93 Y108.83 E1344.65
G1 X95.51 Y105.41 E1344.818
G1 X92.09 Y101.99 E1344.985
G1 X88.67 Y98.57 E1345.152
G1 X85.24 Y95.14 E1345.319
G1 X81.82 Y91.72 E1345.487
G1 X78.4 Y88.3 E1345.654
G0 X78.4 Y89.71 F10800
G1 X81.66 Y92.98 E1345.813 F2400
G1 X84.93 Y96.24 E1345.973
G1 X88.19 Y99.51 E1346.133
G1 X91.46 Y102.77 E1346.292
G1 X94.72 Y106.04 E1346.452
G1 X97.99 Y109.3 E1346.611
G1 X101.25 Y112.57 E1346.771
G1 X104.52 Y115.83 E1346.931
G1 X107.79 Y119.1 E1347.09
G0 X106.37 Y119.1 F10800
G1 X102.87 Y115.6 E1347.261 F2400
G1 X99.38 Y112.11 E1347.432
G1 X95.88 Y108.61 E1347.603
G1 X92.39 Y105.11 E1347.774
G1 X88.89 Y101.62 E1347.945
G1 X85.39 Y98.12 E1348.115
G1 X81.9 Y94.62 E1348.286
G1 X78.4 Y91.13 E1348.457
G0 X78.4 Y92.54 F10800
G1 X81.72 Y95.86 E1348.619 F2400
G1 X85.04 Y99.18 E1348.782
G1 X88.36 Y102.5 E1348.944
G1 X91.68 Y105.82 E1349.106
G1 X95 Y109.14 E1349.268
G1 X98.32 Y112.46 E1349.431
G1 X101.64 Y115.78 E1349.593
G1 X104.96 Y119.1 E1349.755
G0 X103.54 Y119.1 F10800
G1 X100.4 Y115.96 E1349.909 F2400
G1 X97.26 Y112.81 E1350.062
G1 X94.11 Y109.67 E1350.216
G1 X90.97 Y106.53 E1350.37
G1 X87.83 Y103.38 E1350.523
G1 X84.69 Y100.24 E1350.677
G1 X81.54 Y97.1 E1350.831
G1 X78.4 Y93.96 E1350.984
G0 X78.4 Y95.37 F10800
G1 X81.79 Y98.76 E1351.15 F2400
G1 X85.18 Y102.15 E1351.315
G1 X88.57 Y105.54 E1351.481
G1 X91.96 Y108.93 E1351.647
G1 X95.35 Y112.32 E1351.812
G1 X98.74 Y115.71 E1351.978
G1 X102.13 Y119.1 E1352.144
G0 X100.71 Y119.1 F10800
G1 X97.53 Y115.91 E1352.3 F2400
G1 X94.34 Y112.72 E1352.455
G1 X91.15 Y109.54 E1352.611
G1 X87.96 Y106.35 E1352.767
G1 X84.77 Y103.16 E1352.923
G1 X81.59 Y99.97 E1353.079
G1 X78.4 Y96.78 E1353.234
G0 X78.4 Y98.2 F10800
G1 X81.88 Y101.68 E1353.405 F2400
G1 X85.37 Y105.17 E1353.575
G1 X88.85 Y108.65 E1353.745
G1 X92.33 Y112.13 E1353.915
G1 X95.82 Y115.62 E1354.086
G1 X99.3 Y119.1 E1354.256
G0 X97.89 Y119.1 F10800
G1 X94.64 Y115.85 E1354.415 F2400
G1 X91.39 Y112.6 E1354.573
G1 X88.14 Y109.36 E1354.732
G1 X84.89 Y106.11 E1354.891
G1 X81.65 Y102.86 E1355.05
G1 X78.4 Y99.61 E1355.208
G0 X78.4 Y101.03 F10800
G1 X81.41 Y104.04 E1355.356 F2400
G1 X84.42 Y107.05 E1355.503
G1 X87.44 Y110.06 E1355.65
G1 X90.45 Y113.08 E1355.797
G1 X93.46 Y116.09 E1355.944
G1 X96.47 Y119.1 E1356.092
G0 X95.06 Y119.1 F10800
G1 X91.73 Y115.77 E1356.255 F2400
G1 X88.39 Y112.44 E1356.417
G1 X85.06 Y109.1 E1356.58
G1 X81.73 Y105.77 E1356.743
G1 X78.4 Y102.44 E1356.906
G0 X78.4 Y103.86 F10800
G1 X81.45 Y106.9 E1357.055 F2400
G1 X84.5 Y109.95 E1357.204
G1 X87.55 Y113 E1357.353
G1 X90.59 Y116.05 E1357.502
G1 X93.64 Y119.1 E1357.651
G0 X92.23 Y119.1 F10800
G1 X88.77 Y115.64 E1357.82 F2400
G1 X85.31 Y112.18 E1357.989
G1 X81.86 Y108.73 E1358.158
G1 X78.4 Y105.27 E1358.327
G0 X78.4 Y106.68 F10800
G1 X81.5 Y109.79 E1358.478 F2400
G1 X84.61 Y112.89 E1358.63
G1 X87.71 Y116 E1358.782
G1 X90.82 Y119.1 E1358.934
G0 X89.4 Y119.1 F10800
G1 X86.65 Y116.35 E1359.068 F2400
G1 X83.9 Y113.6 E1359.202
G1 X81.15 Y110.85 E1359.337
G1 X78.4 Y108.1 E1359.471
G0 X78.4 Y109.51 F10800
G1 X81.59 Y112.71 E1359.627 F2400
G1 X84.79 Y115.9 E1359.784
G1 X87.99 Y119.1 E1359.94
G0 X86.57 Y119.1 F10800
G1 X83.85 Y116.37 E1360.073 F2400
G1 X81.12 Y113.65 E1360.206
G1 X78.4 Y110.93 E1360.339
G0 X78.4 Y112.34 F10800
G1 X81.78 Y115.72 E1360.504 F2400
G1 X85.16 Y119.1 E1360.67
G0 X83.74 Y119.1 F10800
G1 X81.07 Y116.43 E1360.8 F2400
G1 X78.4 Y113.76 E1360.931
G0 X78.4 Y115.17 F10800
G1 X80.36 Y117.13 E1361.027 F2400
G1 X82.33 Y119.1 E1361.123
G0 X80.92 Y119.1 F10800
G1 X78.4 Y116.58 E1361.246 F2400
G0 Y118 F10800
G1 X79.5 Y119.1 E1361.3 F2400
; RAFT SURFACE
; Layer Change GCode
; LAYER:-1
; LAYER_HEIGHT:0.25
; TYPE:SUPPORT
G1 X79.51 Y114.18 Z0.561 E1361.494
G1 Y109.26 Z0.573 E1361.688
G1 Y104.34 Z0.584 E1361.882
G1 X79.52 Y99.43 Z0.595 E1362.077
G1 Y94.51 Z0.607 E1362.271
G1 X79.53 Y89.59 Z0.618 E1362.465
G1 Y84.67 Z0.63 E1362.659
G1 X79.54 Y79.75 Z0.641 E1362.854
G1 Y74.84 Z0.652 E1363.048
G1 X79.55 Y69.92 Z0.664 E1363.242
G1 Y65 Z0.675 E1363.436
G1 Y60.08 Z0.686 E1363.631
G1 X79.56 Y55.16 Z0.698 E1363.825
G1 Y50.24 Z0.709 E1364.019
G1 X79.57 Y45.33 Z0.72 E1364.213
G1 Y40.41 Z0.732 E1364.408
G1 X79.58 Y35.49 Z0.743 E1364.602
G1 Y30.57 Z0.755 E1364.796
G1 X79.59 Y25.65 Z0.766 E1364.99
G1 Y20.74 Z0.777 E1365.185
G1 X79.6 Y15.82 Z0.789 E1365.379
G1 Y10.9 Z0.8 E1365.573
G0 X80 Y10.9 F10800
G1 Y15.82 E1365.768 F2400
G1 Y20.74 E1365.962
G1 Y25.65 E1366.156
G1 Y30.57 E1366.35
G1 Y35.49 E1366.545
G1 Y40.41 E1366.739
G1 Y45.33 E1366.933
G1 Y50.24 E1367.127
G1 Y55.16 E1367.322
G1 Y60.08 E1367.516
G1 Y65 E1367.71
G1 Y69.92 E1367.904
G1 Y74.84 E1368.099
G1 Y79.75 E1368.293
G1 Y84.67 E1368.487
G1 Y89.59 E1368.681
G1 Y94.51 E1368.876
G1 Y99.43 E1369.07
G1 Y104.34 E1369.264
G1 Y109.26 E1369.458
G1 Y114.18 E1369.653
G1 Y119.1 E1369.847
G0 X80.4 Y119.1 F10800
G1 Y114.18 E1370.041 F2400
G1 Y109.26 E1370.235
G1 Y104.34 E1370.43
G1 Y99.43 E1370.624
G1 Y94.51 E1370.818
G1 Y89.59 E1371.012
G1 Y84.67 E1371.207
G1 Y79.75 E1371.401
G1 Y74.84 E1371.595
G1 Y69.92 E1371.789
G1 Y65 E1371.984
G1 Y60.08 E1372.178
G1 Y55.16 E1372.372
G1 Y50.24 E1372.566
G1 Y45.33 E1372.761
G1 Y40.41 E1372.955
G1 Y35.49 E1373.149
G1 Y30.57 E1373.343
G1 Y25.65 E1373.538
G1 Y20.74 E1373.732
G1 Y15.82 E1373.926
G1 Y10.9 E1374.12
G0 X80.8 Y10.9 F10800
G1 Y15.82 E1374.315 F2400
G1 Y20.74 E1374.509
G1 Y25.65 E1374.703
G1 Y30.57 E1374.897
G1 Y35.49 E1375.092
G1 Y40.41 E1375.286
G1 Y45.33 E1375.48
G1 Y50.24 E1375.674
G1 Y55.16 E1375.869
G1 Y60.08 E1376.063
G1 Y65 E1376.257
G1 Y69.92 E1376.451
G1 Y74.84 E1376.646
G1 Y79.75 E1376.84
G1 Y84.67 E1377.034
G1 Y89.59 E1377.228
G1 Y94.51 E1377.423
G1 Y99.43 E1377.617
G1 Y104.34 E1377.811
G1 Y109.26 E1378.005
G1 Y114.18 E1378.2
G1 Y119.1 E1378.394
G0 X81.2 Y119.1 F10800
G1 Y114.18 E1378.588 F2400
G1 Y109.26 E1378.782
G1 Y104.34 E1378.977
G1 Y99.43 E1379.171
G1 Y94.51 E1379.365
G1 Y89.59 E1379.559
G1 Y84.67 E1379.754
G1 Y79.75 E1379.948
G1 Y74.84 E1380.142
G1 Y69.92 E1380.336
G1 Y65 E1380.531
G1 Y60.08 E1380.725
G1 Y55.16 E1380.919
G1 Y50.24 E1381.113
G1 Y45.33 E1381.308
G1 Y40.41 E1381.502
G1 Y35.49 E1381.696
G1 Y30.57 E1381.89
G1 Y25.65 E1382.085
G1 Y20.74 E1382.279
G1 Y15.82 E1382.473
G1 Y10.9 E1382.667
G0 X81.6 Y10.9 F10800
G1 Y15.82 E1382.862 F2400
G1 Y20.74 E1383.056
G1 Y25.65 E1383.25
G1 Y30.57 E1383.444
G1 Y35.49 E1383.639
G1 Y40.41 E1383.833
G1 Y45.33 E1384.027
G1 Y50.24 E1384.221
G1 Y55.16 E1384.416
G1 Y60.08 E1384.61
G1 Y65 E1384.804
G1 Y69.92 E1384.998
G1 Y74.84 E1385.193
G1 Y79.75 E1385.387
G1 Y84.67 E1385.581
G1 Y89.59 E1385.775
G1 Y94.51 E1385.97
G1 Y99.43 E1386.164
G1 Y104.34 E1386.358
G1 Y109.26 E1386.552
G1 Y114.18 E1386.747
G1 Y119.1 E1386.941
G0 X82 Y119.1 F10800
G1 Y114.18 E1387.135 F2400
G1 Y109.26 E1387.329
G1 Y104.34 E1387.524
G1 Y99.43 E1387.718
G1 Y94.51 E1387.912
G1 Y89.59 E1388.106
G1 Y84.67 E1388.301
G1 Y79.75 E1388.495
G1 Y74.84 E1388.689
G1 Y69.92 E1388.883
G1 Y65 E1389.078
G1 Y60.08 E1389.272
G1 Y55.16 E1389.466
G1 Y50.24 E1389.66
G1 Y45.33 E1389.855
G1 Y40.41 E1390.049
G1 Y35.49 E1390.243
G1 Y30.57 E1390.437
G1 Y25.65 E1390.632
G1 Y20.74 E1390.826
G1 Y15.82 E1391.02
G1 Y10.9 E1391.214
G0 X82.4 Y10.9 F10800
G1 Y15.82 E1391.409 F2400
G1 Y20.74 E1391.603
G1 Y25.65 E1391.797
G1 Y30.57 E1391.991
G1 Y35.49 E1392.186
G1 Y40.41 E1392.38
G1 Y45.33 E1392.574
G1 Y50.24 E1392.768
G1 Y55.16 E1392.963
G1 Y60.08 E1393.157
G1 Y65 E1393.351
G1 Y69.92 E1393.545
G1 Y74.84 E1393.74
G1 Y79.75 E1393.934
G1 Y84.67 E1394.128
G1 Y89.59 E1394.322
G1 Y94.51 E1394.517
G1 Y99.43 E1394.711
G1 Y104.34 E1394.905
G1 Y109.26 E1395.099
G1 Y114.18 E1395.294
G1 Y119.1 E1395.488
G0 X82.8 Y119.1 F10800
G1 Y114.18 E1395.682 F2400
G1 Y109.26 E1395.876
G1 Y104.34 E1396.071
G1 Y99.43 E1396.265
G1 Y94.51 E1396.459
G1 Y89.59 E1396.653
G1 Y84.67 E1396.848
G1 Y79.75 E1397.042
G1 Y74.84 E1397.236
G1 Y69.92 E1397.43
G1 Y65 E1397.625
G1 Y60.08 E1397.819
G1 Y55.16 E1398.013
G1 Y50.24 E1398.207
G1 Y45.33 E1398.402
G1 Y40.41 E1398.596
G1 Y35.49 E1398.79
G1 Y30.57 E1398.984
G1 Y25.65 E1399.179
G1 Y20.74 E1399.373
G1 Y15.82 E1399.567
G1 Y10.9 E1399.761
G0 X83.2 Y10.9 F10800
G1 Y15.82 E1399.956 F2400
G1 Y20.74 E1400.15
G1 Y25.65 E1400.344
G1 Y30.57 E1400.538
G1 Y35.49 E1400.733
G1 Y40.41 E1400.927
G1 Y45.33 E1401.121
G1 Y50.24 E1401.315
G1 Y55.16 E1401.51
G1 Y60.08 E1401.704
G1 Y65 E1401.898
G1 Y69.92 E1402.092
G1 Y74.84 E1402.287
G1 Y79.75 E1402.481
G1 Y84.67 E1402.675
G1 Y89.59 E1402.869
G1 Y94.51 E1403.064
G1 Y99.43 E1403.258
G1 Y104.34 E1403.452
G1 Y109.26 E1403.646
G1 Y114.18 E1403.841
G1 Y119.1 E1404.035
G0 X83.6 Y119.1 F10800
G1 Y114.18 E1404.229 F2400
G1 Y109.26 E1404.423
G1 Y104.34 E1404.618
G1 Y99.43 E1404.812
G1 Y94.51 E1405.006
G1 Y89.59 E1405.2
G1 Y84.67 E1405.395
G1 Y79.75 E1405.589
G1 Y74.84 E1405.783
G1 Y69.92 E1405.977
G1 Y65 E1406.172
G1 Y60.08 E1406.366
G1 Y55.16 E1406.56
G1 Y50.24 E1406.754
G1 Y45.33 E1406.949
G1 Y40.41 E1407.143
G1 Y35.49 E1407.337
G1 Y30.57 E1407.531
G1 Y25.65 E1407.726
G1 Y20.74 E1407.92
G1 Y15.82 E1408.114
G1 Y10.9 E1408.308
G0 X84 Y10.9 F10800
G1 Y15.82 E1408.503 F2400
G1 Y20.74 E1408.697
G1 Y25.65 E1408.891
G1 Y30.57 E1409.085
G1 Y35.49 E1409.28
G1 Y40.41 E1409.474
G1 Y45.33 E1409.668
G1 Y50.24 E1409.862
G1 Y55.16 E1410.057
G1 Y60.08 E1410.251
G1 Y65 E1410.445
G1 Y69.92 E1410.639
G1 Y74.84 E1410.834
G1 Y79.75 E1411.028
G1 Y84.67 E1411.222
G1 Y89.59 E1411.416
G1 Y94.51 E1411.611
G1 Y99.43 E1411.805
G1 Y104.34 E1411.999
G1 Y109.26 E1412.193
G1 Y114.18 E1412.388
G1 Y119.1 E1412.582
G0 X84.4 Y119.1 F10800
G1 Y114.18 E1412.776 F2400
G1 Y109.26 E1412.97
G1 Y104.34 E1413.165
G1 Y99.43 E1413.359
G1 Y94.51 E1413.553
G1 Y89.59 E1413.747
G1 Y84.67 E1413.942
G1 Y79.75 E1414.136
G1 Y74.84 E1414.33
G1 Y69.92 E1414.524
G1 Y65 E1414.719
G1 Y60.08 E1414.913
G1 Y55.16 E1415.107
G1 Y50.24 E1415.301
G1 Y45.33 E1415.496
G1 Y40.41 E1415.69
G1 Y35.49 E1415.884
G1 Y30.57 E1416.078
G1 Y25.65 E1416.273
G1 Y20.74 E1416.467
G1 Y15.82 E1416.661
G1 Y10.9 E1416.855
G0 X84.8 Y10.9 F10800
G1 Y15.82 E1417.05 F2400
G1 Y20.74 E1417.244
G1 Y25.65 E1417.438
G1 Y30.57 E1417.632
G1 Y35.49 E1417.827
G1 Y40.41 E1418.021
G1 Y45.33 E1418.215
G1 Y50.24 E1418.409
G1 Y55.16 E1418.604
G1 Y60.08 E1418.798
G1 Y65 E1418.992
G1 Y69.92 E1419.186
G1 Y74.84 E1419.381
G1 Y79.75 E1419.575
G1 Y84.67 E1419.769
G1 Y89.59 E1419.963
G1 Y94.51 E1420.158
G1 Y99.43 E1420.352
G1 Y104.34 E1420.546
G1 Y109.26 E1420.74
G1 Y114.18 E1420.935
G1 Y119.1 E1421.129
G0 X85.2 Y119.1 F10800
G1 Y114.18 E1421.323 F2400
G1 Y109.26 E1421.517
G1 Y104.34 E1421.712
G1 Y99.43 E1421.906
G1 Y94.51 E1422.1
G1 Y89.59 E1422.294
G1 Y84.67 E1422.489
G1 Y79.75 E1422.683
G1 Y74.84 E1422.877
G1 Y69.92 E1423.071
G1 Y65 E1423.266
G1 Y60.08 E1423.46
G1 Y55.16 E1423.654
G1 Y50.24 E1423.848
G1 Y45.33 E1424.043
G1 Y40.41 E1424.237
G1 Y35.49 E1424.431
G1 Y30.57 E1424.625
G1 Y25.65 E1424.82
G1 Y20.74 E1425.014
G1 Y15.82 E1425.208
G1 Y10.9 E1425.402
G0 X85.6 Y10.9 F10800
G1 Y15.82 E1425.597 F2400
G1 Y20.74 E1425.791
G1 Y25.65 E1425.985
G1 Y30.57 E1426.179
G1 Y35.49 E1426.374
G1 Y40.41 E1426.568
G1 Y45.33 E1426.762
G1 Y50.24 E1426.956
G1 Y55.16 E1427.151
G1 Y60.08 E1427.345
G1 Y65 E1427.539
G1 Y69.92 E1427.733
G1 Y74.84 E1427.928
G1 Y79.75 E1428.122
G1 Y84.67 E1428.316
G1 Y89.59 E1428.51
G1 Y94.51 E1428.705
G1 Y99.43 E1428.899
G1 Y104.34 E1429.093
G1 Y109.26 E1429.287
G1 Y114.18 E1429.482
G1 Y119.1 E1429.676
G0 X86 Y119.1 F10800
G1 Y114.18 E1429.87 F2400
G1 Y109.26 E1430.064
G1 Y104.34 E1430.259
G1 Y99.43 E1430.453
G1 Y94.51 E1430.647
G1 Y89.59 E1430.841
G1 Y84.67 E1431.036
G1 Y79.75 E1431.23
G1 Y74.84 E1431.424
G1 Y69.92 E1431.618
G1 Y65 E1431.813
G1 Y60.08 E1432.007
G1 Y55.16 E1432.201
G1 Y50.24 E1432.395
G1 Y45.33 E1432.59
G1 Y40.41 E1432.784
G1 Y35.49 E1432.978
G1 Y30.57 E1433.172
G1 Y25.65 E1433.367
G1 Y20.74 E1433.561
G1 Y15.82 E1433.755
G1 Y10.9 E1433.949
G0 X86.4 Y10.9 F10800
G1 Y15.82 E1434.144 F2400
G1 Y20.74 E1434.338
G1 Y25.65 E1434.532
G1 Y30.57 E1434.726
G1 Y35.49 E1434.921
G1 Y40.41 E1435.115
G1 Y45.33 E1435.309
G1 Y50.24 E1435.503
G1 Y55.16 E1435.698
G1 Y60.08 E1435.892
G1 Y65 E1436.086
G1 Y69.92 E1436.28
G1 Y74.84 E1436.475
G1 Y79.75 E1436.669
G1 Y84.67 E1436.863
G1 Y89.59 E1437.057
G1 Y94.51 E1437.252
G1 Y99.43 E1437.446
G1 Y104.34 E1437.64
G1 Y109.26 E1437.834
G1 Y114.18 E1438.029
G1 Y119.1 E1438.223
G0 X86.8 Y119.1 F10800
G1 Y114.18 E1438.417 F2400
G1 Y109.26 E1438.611
G1 Y104.34 E1438.806
G1 Y99.43 E1439
G1 Y94.51 E1439.194
G1 Y89.59 E1439.388
G1 Y84.67 E1439.583
G1 Y79.75 E1439.777
G1 Y74.84 E1439.971
G1 Y69.92 E1440.165
G1 Y65 E1440.36
G1 Y60.08 E1440.554
G1 Y55.16 E1440.748
G1 Y50.24 E1440.942
G1 Y45.33 E1441.137
G1 Y40.41 E1441.331
G1 Y35.49 E1441.525
G1 Y30.57 E1441.719
G1 Y25.65 E1441.914
G1 Y20.74 E1442.108
G1 Y15.82 E1442.302
G1 Y10.9 E1442.496
G0 X87.2 Y10.9 F10800
G1 Y15.82 E1442.691 F2400
G1 Y20.74 E1442.885
G1 Y25.65 E1443.079
G1 Y30.57 E1443.273
G1 Y35.49 E1443.468
G1 Y40.41 E1443.662
G1 Y45.33 E1443.856
G1 Y50.24 E1444.05
G1 Y55.16 E1444.245
G1 Y60.08 E1444.439
G1 Y65 E1444.633
G1 Y69.92 E1444.827
G1 Y74.84 E1445.022
G1 Y79.75 E1445.216
G1 Y84.67 E1445.41
G1 Y89.59 E1445.604
G1 Y94.51 E1445.799
G1 Y99.43 E1445.993
G1 Y104.34 E1446.187
G1 Y109.26 E1446.381
G1 Y114.18 E1446.576
G1 Y119.1 E1446.77
G0 X87.6 Y119.1 F10800
G1 Y114.18 E1446.964 F2400
G1 Y109.26 E1447.158
G1 Y104.34 E1447.353
G1 Y99.43 E1447.547
G1 Y94.51 E1447.741
G1 Y89.59 E1447.935
G1 Y84.67 E1448.13
G1 Y79.75 E1448.324
G1 Y74.84 E1448.518
G1 Y69.92 E1448.712
G1 Y65 E1448.907
G1 Y60.08 E1449.101
G1 Y55.16 E1449.295
G1 Y50.24 E1449.489
G1 Y45.33 E1449.684
G1 Y40.41 E1449.878
G1 Y35.49 E1450.072
G1 Y30.57 E1450.266
G1 Y25.65 E1450.461
G1 Y20.74 E1450.655
G1 Y15.82 E1450.849
G1 Y10.9 E1451.043
G0 X88 Y10.9 F10800
G1 Y15.82 E1451.238 F2400
G1 Y20.74 E1451.432
G1 Y25.65 E1451.626
G1 Y30.57 E1451.82
G1 Y35.49 E1452.015
G1 Y40.41 E1452.209
G1 Y45.33 E1452.403
G1 Y50.24 E1452.597
G1 Y55.16 E1452.792
G1 Y60.08 E1452.986
G1 Y65 E1453.18
G1 Y69.92 E1453.374
G1 Y74.84 E1453.569
G1 Y79.75 E1453.763
G1 Y84.67 E1453.957
G1 Y89.59 E1454.151
G1 Y94.51 E1454.346
G1 Y99.43 E1454.54
G1 Y104.34 E1454.734
G1 Y109.26 E1454.928
G1 Y114.18 E1455.123
G1 Y119.1 E1455.317
G0 X88.4 Y119.1 F10800
G1 Y114.18 E1455.511 F2400
G1 Y109.26 E1455.705
G1 Y104.34 E1455.9
G1 Y99.43 E1456.094
G1 Y94.51 E1456.288
G1 Y89.59 E1456.482
G1 Y84.67 E1456.677
G1 Y79.75 E1456.871
G1 Y74.84 E1457.065
G1 Y69.92 E1457.259
G1 Y65 E1457.454
G1 Y60.08 E1457.648
G1 Y55.16 E1457.842
G1 Y50.24 E1458.036
G1 Y45.33 E1458.231
G1 Y40.41 E1458.425
G1 Y35.49 E1458.619
G1 Y30.57 E1458.813
G1 Y25.65 E1459.008
G1 Y20.74 E1459.202
G1 Y15.82 E1459.396
G1 Y10.9 E1459.591
G0 X88.8 Y10.9 F10800
G1 Y15.82 E1459.785 F2400
G1 Y20.74 E1459.979
G1 Y25.65 E1460.173
G1 Y30.57 E1460.368
G1 Y35.49 E1460.562
G1 Y40.41 E1460.756
G1 Y45.33 E1460.95
G1 Y50.24 E1461.145
G1 Y55.16 E1461.339
G1 Y60.08 E1461.533
G1 Y65 E1461.727
G1 Y69.92 E1461.922
G1 Y74.84 E1462.116
G1 Y79.75 E1462.31
G1 Y84.67 E1462.504
G1 Y89.59 E1462.699
G1 Y94.51 E1462.893
G1 Y99.43 E1463.087
G1 Y104.34 E1463.281
G1 Y109.26 E1463.476
G1 Y114.18 E1463.67
G1 Y119.1 E1463.864
G0 X89.2 Y119.1 F10800
G1 Y114.18 E1464.058 F2400
G1 Y109.26 E1464.253
G1 Y104.34 E1464.447
G1 Y99.43 E1464.641
G1 Y94.51 E1464.835
G1 Y89.59 E1465.03
G1 Y84.67 E1465.224
G1 Y79.75 E1465.418
G1 Y74.84 E1465.612
G1 Y69.92 E1465.807
G1 Y65 E1466.001
G1 Y60.08 E1466.195
G1 Y55.16 E1466.389
G1 Y50.24 E1466.584
G1 Y45.33 E1466.778
G1 Y40.41 E1466.972
G1 Y35.49 E1467.166
G1 Y30.57 E1467.361
G1 Y25.65 E1467.555
G1 Y20.74 E1467.749
G1 Y15.82 E1467.943
G1 Y10.9 E1468.138
G0 X89.6 Y10.9 F10800
G1 Y15.82 E1468.332 F2400
G1 Y20.74 E1468.526
G1 Y25.65 E1468.72
G1 Y30.57 E1468.915
G1 Y35.49 E1469.109
G1 Y40.41 E1469.303
G1 Y45.33 E1469.497
G1 Y50.24 E1469.692
G1 Y55.16 E1469.886
G1 Y60.08 E1470.08
G1 Y65 E1470.274
G1 Y69.92 E1470.469
G1 Y74.84 E1470.663
G1 Y79.75 E1470.857
G1 Y84.67 E1471.051
G1 Y89.59 E1471.246
G1 Y94.51 E1471.44
G1 Y99.43 E1471.634
G1 Y104.34 E1471.828
G1 Y109.26 E1472.023
G1 Y114.18 E1472.217
G1 Y119.1 E1472.411
G0 X90 Y119.1 F10800
G1 Y114.18 E1472.605 F2400
G1 Y109.26 E1472.8
G1 Y104.34 E1472.994
G1 Y99.43 E1473.188
G1 Y94.51 E1473.382
G1 Y89.59 E1473.577
G1 Y84.67 E1473.771
G1 Y79.75 E1473.965
G1 Y74.84 E1474.159
G1 Y69.92 E1474.354
G1 Y65 E1474.548
G1 Y60.08 E1474.742
G1 Y55.16 E1474.936
G1 Y50.24 E1475.131
G1 Y45.33 E1475.325
G1 Y40.41 E1475.519
G1 Y35.49 E1475.713
G1 Y30.57 E1475.908
G1 Y25.65 E1476.102
G1 Y20.74 E1476.296
G1 Y15.82 E1476.49
G1 Y10.9 E1476.685
G0 X90.4 Y10.9 F10800
G1 Y15.82 E1476.879 F2400
G1 Y20.74 E1477.073
G1 Y25.65 E1477.267
G1 Y30.57 E1477.462
G1 Y35.49 E1477.656
G1 Y40.41 E1477.85
G1 Y45.33 E1478.044
G1 Y50.24 E1478.239
G1 Y55.16 E1478.433
G1 Y60.08 E1478.627
G1 Y65 E1478.821
G1 Y69.92 E1479.016
G1 Y74.84 E1479.21
G1 Y79.75 E1479.404
G1 Y84.67 E1479.598
G1 Y89.59 E1479.793
G1 Y94.51 E1479.987
G1 Y99.43 E1480.181
G1 Y104.34 E1480.375
G1 Y109.26 E1480.57
G1 Y114.18 E1480.764
G1 Y119.1 E1480.958
G0 X90.8 Y119.1 F10800
G1 Y114.18 E1481.152 F2400
G1 Y109.26 E1481.347
G1 Y104.34 E1481.541
G1 Y99.43 E1481.735
G1 Y94.51 E1481.929
G1 Y89.59 E1482.124
G1 Y84.67 E1482.318
G1 Y79.75 E1482.512
G1 Y74.84 E1482.706
G1 Y69.92 E1482.901
G1 Y65 E1483.095
G1 Y60.08 E1483.289
G1 Y55.16 E1483.483
G1 Y50.24 E1483.678
G1 Y45.33 E1483.872
G1 Y40.41 E1484.066
G1 Y35.49 E1484.26
G1 Y30.57 E1484.455
G1 Y25.65 E1484.649
G1 Y20.74 E1484.843
G1 Y15.82 E1485.037
G1 Y10.9 E1485.232
G0 X91.2 Y10.9 F10800
G1 Y15.82 E1485.426 F2400
G1 Y20.74 E1485.62
G1 Y25.65 E1485.814
G1 Y30.57 E1486.009
G1 Y35.49 E1486.203
G1 Y40.41 E1486.397
G1 Y45.33 E1486.591
G1 Y50.24 E1486.786
G1 Y55.16 E1486.98
G1 Y60.08 E1487.174
G1 Y65 E1487.368
G1 Y69.92 E1487.563
G1 Y74.84 E1487.757
G1 Y79.75 E1487.951
G1 Y84.67 E1488.145
G1 Y89.59 E1488.34
G1 Y94.51 E1488.534
G1 Y99.43 E1488.728
G1 Y104.34 E1488.922
G1 Y109.26 E1489.117
G1 Y114.18 E1489.311
G1 Y119.1 E1489.505
G0 X91.6 Y119.1 F10800
G1 Y114.18 E1489.699 F2400
G1 Y109.26 E1489.894
G1 Y104.34 E1490.088
G1 Y99.43 E1490.282
G1 Y94.51 E1490.476
G1 Y89.59 E1490.671
G1 Y84.67 E1490.865
G1 Y79.75 E1491.059
G1 Y74.84 E1491.253
G1 Y69.92 E1491.448
G1 Y65 E1491.642
G1 Y60.08 E1491.836
G1 Y55.16 E1492.03
G1 Y50.24 E1492.225
G1 Y45.33 E1492.419
G1 Y40.41 E1492.613
G1 Y35.49 E1492.807
G1 Y30.57 E1493.002
G1 Y25.65 E1493.196
G1 Y20.74 E1493.39
G1 Y15.82 E1493.584
G1 Y10.9 E1493.779
G0 X92 Y10.9 F10800
G1 Y15.82 E1493.973 F2400
G1 Y20.74 E1494.167
G1 Y25.65 E1494.361
G1 Y30.57 E1494.556
G1 Y35.49 E1494.75
G1 Y40.41 E1494.944
G1 Y45.33 E1495.138
G1 Y50.24 E1495.333
G1 Y55.16 E1495.527
G1 Y60.08 E1495.721
G1 Y65 E1495.915
G1 Y69.92 E1496.11
G1 Y74.84 E1496.304
G1 Y79.75 E1496.498
G1 Y84.67 E1496.692
G1 Y89.59 E1496.887
G1 Y94.51 E1497.081
G1 Y99.43 E1497.275
G1 Y104.34 E1497.469
G1 Y109.26 E1497.664
G1 Y114.18 E1497.858
G1 Y119.1 E1498.052
G0 X92.4 Y119.1 F10800
G1 Y114.18 E1498.246 F2400
G1 Y109.26 E1498.441
G1 Y104.34 E1498.635
G1 Y99.43 E1498.829
G1 Y94.51 E1499.023
G1 Y89.59 E1499.218
G1 Y84.67 E1499.412
G1 Y79.75 E1499.606
G1 Y74.84 E1499.8
G1 Y69.92 E1499.995
G1 Y65 E1500.189
G1 Y60.08 E1500.383
G1 Y55.16 E1500.577
G1 Y50.24 E1500.772
G1 Y45.33 E1500.966
G1 Y40.41 E1501.16
G1 Y35.49 E1501.354
G1 Y30.57 E1501.549
G1 Y25.65 E1501.743
G1 Y20.74 E1501.937
G1 Y15.82 E1502.131
G1 Y10.9 E1502.326
G0 X92.8 Y10.9 F10800
G1 Y15.82 E1502.52 F2400
G1 Y20.74 E1502.714
G1 Y25.65 E1502.908
G1 Y30.57 E1503.103
G1 Y35.49 E1503.297
G1 Y40.41 E1503.491
G1 Y45.33 E1503.685
G1 Y50.24 E1503.88
G1 Y55.16 E1504.074
G1 Y60.08 E1504.268
G1 Y65 E1504.462
G1 Y69.92 E1504.657
G1 Y74.84 E1504.851
G1 Y79.75 E1505.045
G1 Y84.67 E1505.239
G1 Y89.59 E1505.434
G1 Y94.51 E1505.628
G1 Y99.43 E1505.822
G1 Y104.34 E1506.016
G1 Y109.26 E1506.211
G1 Y114.18 E1506.405
G1 Y119.1 E1506.599
G0 X93.2 Y119.1 F10800
G1 Y114.18 E1506.793 F2400
G1 Y109.26 E1506.988
G1 Y104.34 E1507.182
G1 Y99.43 E1507.376
G1 Y94.51 E1507.57
G1 Y89.59 E1507.765
G1 Y84.67 E1507.959
G1 Y79.75 E1508.153
G1 Y74.84 E1508.347
G1 Y69.92 E1508.542
G1 Y65 E1508.736
G1 Y60.08 E1508.93
G1 Y55.16 E1509.124
G1 Y50.24 E1509.319
G1 Y45.33 E1509.513
G1 Y40.41 E1509.707
G1 Y35.49 E1509.901
G1 Y30.57 E1510.096
G1 Y25.65 E1510.29
G1 Y20.74 E1510.484
G1 Y15.82 E1510.678
G1 Y10.9 E1510.873
G0 X93.6 Y10.9 F10800
G1 Y15.82 E1511.067 F2400
G1 Y20.74 E1511.261
G1 Y25.65 E1511.455
G1 Y30.57 E1511.65
G1 Y35.49 E1511.844
G1 Y40.41 E1512.038
G1 Y45.33 E1512.232
G1 Y50.24 E1512.427
G1 Y55.16 E1512.621
G1 Y60.08 E1512.815
G1 Y65 E1513.009
G1 Y69.92 E1513.204
G1 Y74.84 E1513.398
G1 Y79.75 E1513.592
G1 Y84.67 E1513.786
G1 Y89.59 E1513.981
G1 Y94.51 E1514.175
G1 Y99.43 E1514.369
G1 Y104.34 E1514.563
G1 Y109.26 E1514.758
G1 Y114.18 E1514.952
G1 Y119.1 E1515.146
G0 X94 Y119.1 F10800
G1 Y114.18 E1515.34 F2400
G1 Y109.26 E1515.535
G1 Y104.34 E1515.729
G1 Y99.43 E1515.923
G1 Y94.51 E1516.117
G1 Y89.59 E1516.312
G1 Y84.67 E1516.506
G1 Y79.75 E1516.7
G1 Y74.84 E1516.894
G1 Y69.92 E1517.089
G1 Y65 E1517.283
G1 Y60.08 E1517.477
G1 Y55.16 E1517.671
G1 Y50.24 E1517.866
G1 Y45.33 E1518.06
G1 Y40.41 E1518.254
G1 Y35.49 E1518.448
G1 Y30.57 E1518.643
G1 Y25.65 E1518.837
G1 Y20.74 E1519.031
G1 Y15.82 E1519.225
G1 Y10.9 E1519.42
G0 X94.4 Y10.9 F10800
G1 Y15.82 E1519.614 F2400
G1 Y20.74 E1519.808
G1 Y25.65 E1520.002
G1 Y30.57 E1520.197
G1 Y35.49 E1520.391
G1 Y40.41 E1520.585
G1 Y45.33 E1520.779
G1 Y50.24 E1520.974
G1 Y55.16 E1521.168
G1 Y60.08 E1521.362
G1 Y65 E1521.556
G1 Y69.92 E1521.751
G1 Y74.84 E1521.945
G1 Y79.75 E1522.139
G1 Y84.67 E1522.333
G1 Y89.59 E1522.528
G1 Y94.51 E1522.722
G1 Y99.43 E1522.916
G1 Y104.34 E1523.11
G1 Y109.26 E1523.305
G1 Y114.18 E1523.499
G1 Y119.1 E1523.693
G0 X94.8 Y119.1 F10800
G1 Y114.18 E1523.887 F2400
G1 Y109.26 E1524.082
G1 Y104.34 E1524.276
G1 Y99.43 E1524.47
G1 Y94.51 E1524.664
G1 Y89.59 E1524.859
G1 Y84.67 E1525.053
G1 Y79.75 E1525.247
G1 Y74.84 E1525.441
G1 Y69.92 E1525.636
G1 Y65 E1525.83
G1 Y60.08 E1526.024
G1 Y55.16 E1526.218
G1 Y50.24 E1526.413
G1 Y45.33 E1526.607
G1 Y40.41 E1526.801
G1 Y35.49 E1526.995
G1 Y30.57 E1527.19
G1 Y25.65 E1527.384
G1 Y20.74 E1527.578
G1 Y15.82 E1527.772
G1 Y10.9 E1527.967
G0 X95.2 Y10.9 F10800
G1 Y15.82 E1528.161 F2400
G1 Y20.74 E1528.355
G1 Y25.65 E1528.549
G1 Y30.57 E1528.744
G1 Y35.49 E1528.938
G1 Y40.41 E1529.132
G1 Y45.33 E1529.326
G1 Y50.24 E1529.521
G1 Y55.16 E1529.715
G1 Y60.08 E1529.909
G1 Y65 E1530.103
G1 Y69.92 E1530.298
G1 Y74.84 E1530.492
G1 Y79.75 E1530.686
G1 Y84.67 E1530.88
G1 Y89.59 E1531.075
G1 Y94.51 E1531.269
G1 Y99.43 E1531.463
G1 Y104.34 E1531.657
G1 Y109.26 E1531.852
G1 Y114.18 E1532.046
G1 Y119.1 E1532.24
G0 X95.6 Y119.1 F10800
G1 Y114.18 E1532.434 F2400
G1 Y109.26 E1532.629
G1 Y104.34 E1532.823
G1 Y99.43 E1533.017
G1 Y94.51 E1533.211
G1 Y89.59 E1533.406
G1 Y84.67 E1533.6
G1 Y79.75 E1533.794
G1 Y74.84 E1533.988
G1 Y69.92 E1534.183
G1 Y65 E1534.377
G1 Y60.08 E1534.571
G1 Y55.16 E1534.765
G1 Y50.24 E1534.96
G1 Y45.33 E1535.154
G1 Y40.41 E1535.348
G1 Y35.49 E1535.542
G1 Y30.57 E1535.737
G1 Y25.65 E1535.931
G1 Y20.74 E1536.125
G1 Y15.82 E1536.319
G1 Y10.9 E1536.514
G0 X96 Y10.9 F10800
G1 Y15.82 E1536.708 F2400
G1 Y20.74 E1536.902
G1 Y25.65 E1537.096
G1 Y30.57 E1537.291
G1 Y35.49 E1537.485
G1 Y40.41 E1537.679
G1 Y45.33 E1537.873
G1 Y50.24 E1538.068
G1 Y55.16 E1538.262
G1 Y60.08 E1538.456
G1 Y65 E1538.65
G1 Y69.92 E1538.845
G1 Y74.84 E1539.039
G1 Y79.75 E1539.233
G1 Y84.67 E1539.427
G1 Y89.59 E1539.622
G1 Y94.51 E1539.816
G1 Y99.43 E1540.01
G1 Y104.34 E1540.204
G1 Y109.26 E1540.399
G1 Y114.18 E1540.593
G1 Y119.1 E1540.787
G0 X96.4 Y119.1 F10800
G1 Y114.18 E1540.981 F2400
G1 Y109.26 E1541.176
G1 Y104.34 E1541.37
G1 Y99.43 E1541.564
G1 Y94.51 E1541.758
G1 Y89.59 E1541.953
G1 Y84.67 E1542.147
G1 Y79.75 E1542.341
G1 Y74.84 E1542.535
G1 Y69.92 E1542.73
G1 Y65 E1542.924
G1 Y60.08 E1543.118
G1 Y55.16 E1543.312
G1 Y50.24 E1543.507
G1 Y45.33 E1543.701
G1 Y40.41 E1543.895
G1 Y35.49 E1544.089
G1 Y30.57 E1544.284
G1 Y25.65 E1544.478
G1 Y20.74 E1544.672
G1 Y15.82 E1544.866
G1 Y10.9 E1545.061
G0 X96.8 Y10.9 F10800
G1 Y15.82 E1545.255 F2400
G1 Y20.74 E1545.449
G1 Y25.65 E1545.643
G1 Y30.57 E1545.838
G1 Y35.49 E1546.032
G1 Y40.41 E1546.226
G1 Y45.33 E1546.42
G1 Y50.24 E1546.615
G1 Y55.16 E1546.809
G1 Y60.08 E1547.003
G1 Y65 E1547.197
G1 Y69.92 E1547.392
G1 Y74.84 E1547.586
G1 Y79.75 E1547.78
G1 Y84.67 E1547.974
G1 Y89.59 E1548.169
G1 Y94.51 E1548.363
G1 Y99.43 E1548.557
G1 Y104.34 E1548.751
G1 Y109.26 E1548.946
G1 Y114.18 E1549.14
G1 Y119.1 E1549.334
G0 X97.2 Y119.1 F10800
G1 Y114.18 E1549.529 F2400
G1 Y109.26 E1549.723
G1 Y104.34 E1549.917
G1 Y99.43 E1550.111
G1 Y94.51 E1550.306
G1 Y89.59 E1550.5
G1 Y84.67 E1550.694
G1 Y79.75 E1550.888
G1 Y74.84 E1551.083
G1 Y69.92 E1551.277
G1 Y65 E1551.471
G1 Y60.08 E1551.665
G1 Y55.16 E1551.86
G1 Y50.24 E1552.054
G1 Y45.33 E1552.248
G1 Y40.41 E1552.442
G1 Y35.49 E1552.637
G1 Y30.57 E1552.831
G1 Y25.65 E1553.025
G1 Y20.74 E1553.219
G1 Y15.82 E1553.414
G1 Y10.9 E1553.608
G0 X97.6 Y10.9 F10800
G1 Y15.82 E1553.802 F2400
G1 Y20.74 E1553.996
G1 Y25.65 E1554.191
G1 Y30.57 E1554.385
G1 Y35.49 E1554.579
G1 Y40.41 E1554.773
G1 Y45.33 E1554.968
G1 Y50.24 E1555.162
G1 Y55.16 E1555.356
G1 Y60.08 E1555.55
G1 Y65 E1555.745
G1 Y69.92 E1555.939
G1 Y74.84 E1556.133
G1 Y79.75 E1556.327
G1 Y84.67 E1556.522
G1 Y89.59 E1556.716
G1 Y94.51 E1556.91
G1 Y99.43 E1557.104
G1 Y104.34 E1557.299
G1 Y109.26 E1557.493
G1 Y114.18 E1557.687
G1 Y119.1 E1557.881
G0 X98 Y119.1 F10800
G1 Y114.18 E1558.076 F2400
G1 Y109.26 E1558.27
G1 Y104.34 E1558.464
G1 Y99.43 E1558.658
G1 Y94.51 E1558.853
G1 Y89.59 E1559.047
G1 Y84.67 E1559.241
G1 Y79.75 E1559.435
G1 Y74.84 E1559.63
G1 Y69.92 E1559.824
G1 Y65 E1560.018
G1 Y60.08 E1560.212
G1 Y55.16 E1560.407
G1 Y50.24 E1560.601
G1 Y45.33 E1560.795
G1 Y40.41 E1560.989
G1 Y35.49 E1561.184
G1 Y30.57 E1561.378
G1 Y25.65 E1561.572
G1 Y20.74 E1561.766
G1 Y15.82 E1561.961
G1 Y10.9 E1562.155
G0 X98.4 Y10.9 F10800
G1 Y15.82 E1562.349 F2400
G1 Y20.74 E1562.543
G1 Y25.65 E1562.738
G1 Y30.57 E1562.932
G1 Y35.49 E1563.126
G1 Y40.41 E1563.32
G1 Y45.33 E1563.515
G1 Y50.24 E1563.709
G1 Y55.16 E1563.903
G1 Y60.08 E1564.097
G1 Y65 E1564.292
G1 Y69.92 E1564.486
G1 Y74.84 E1564.68
G1 Y79.75 E1564.874
G1 Y84.67 E1565.069
G1 Y89.59 E1565.263
G1 Y94.51 E1565.457
G1 Y99.43 E1565.651
G1 Y104.34 E1565.846
G1 Y109.26 E1566.04
G1 Y114.18 E1566.234
G1 Y119.1 E1566.428
G0 X98.8 Y119.1 F10800
G1 Y114.18 E1566.623 F2400
G1 Y109.26 E1566.817
G1 Y104.34 E1567.011
G1 Y99.43 E1567.205
G1 Y94.51 E1567.4
G1 Y89.59 E1567.594
G1 Y84.67 E1567.788
G1 Y79.75 E1567.982
G1 Y74.84 E1568.177
G1 Y69.92 E1568.371
G1 Y65 E1568.565
G1 Y60.08 E1568.759
G1 Y55.16 E1568.954
G1 Y50.24 E1569.148
G1 Y45.33 E1569.342
G1 Y40.41 E1569.536
G1 Y35.49 E1569.731
G1 Y30.57 E1569.925
G1 Y25.65 E1570.119
G1 Y20.74 E1570.313
G1 Y15.82 E1570.508
G1 Y10.9 E1570.702
G0 X99.2 Y10.9 F10800
G1 Y15.82 E1570.896 F2400
G1 Y20.74 E1571.09
G1 Y25.65 E1571.285
G1 Y30.57 E1571.479
G1 Y35.49 E1571.673
G1 Y40.41 E1571.867
G1 Y45.33 E1572.062
G1 Y50.24 E1572.256
G1 Y55.16 E1572.45
G1 Y60.08 E1572.644
G1 Y65 E1572.839
G1 Y69.92 E1573.033
G1 Y74.84 E1573.227
G1 Y79.75 E1573.421
G1 Y84.67 E1573.616
G1 Y89.59 E1573.81
G1 Y94.51 E1574.004
G1 Y99.43 E1574.198
G1 Y104.34 E1574.393
G1 Y109.26 E1574.587
G1 Y114.18 E1574.781
G1 Y119.1 E1574.975
G0 X99.6 Y119.1 F10800
G1 Y114.18 E1575.17 F2400
G1 Y109.26 E1575.364
G1 Y104.34 E1575.558
G1 Y99.43 E1575.752
G1 Y94.51 E1575.947
G1 Y89.59 E1576.141
G1 Y84.67 E1576.335
G1 Y79.75 E1576.529
G1 Y74.84 E1576.724
G1 Y69.92 E1576.918
G1 Y65 E1577.112
G1 Y60.08 E1577.306
G1 Y55.16 E1577.501
G1 Y50.24 E1577.695
G1 Y45.33 E1577.889
G1 Y40.41 E1578.083
G1 Y35.49 E1578.278
G1 Y30.57 E1578.472
G1 Y25.65 E1578.666
G1 Y20.74 E1578.86
G1 Y15.82 E1579.055
G1 Y10.9 E1579.249
G0 X100 Y10.9 F10800
G1 Y15.82 E1579.443 F2400
G1 Y20.74 E1579.637
G1 Y25.65 E1579.832
G1 Y30.57 E1580.026
G1 Y35.49 E1580.22
G1 Y40.41 E1580.414
G1 Y45.33 E1580.609
G1 Y50.24 E1580.803
G1 Y55.16 E1580.997
G1 Y60.08 E1581.191
G1 Y65 E1581.386
G1 Y69.92 E1581.58
G1 Y74.84 E1581.774
G1 Y79.75 E1581.968
G1 Y84.67 E1582.163
G1 Y89.59 E1582.357
G1 Y94.51 E1582.551
G1 Y99.43 E1582.745
G1 Y104.34 E1582.94
G1 Y109.26 E1583.134
G1 Y114.18 E1583.328
G1 Y119.1 E1583.522
G0 X100.4 Y119.1 F10800
G1 Y114.18 E1583.717 F2400
G1 Y109.26 E1583.911
G1 Y104.34 E1584.105
G1 Y99.43 E1584.299
G1 Y94.51 E1584.494
G1 Y89.59 E1584.688
G1 Y84.67 E1584.882
G1 Y79.75 E1585.076
G1 Y74.84 E1585.271
G1 Y69.92 E1585.465
G1 Y65 E1585.659
G1 Y60.08 E1585.853
G1 Y55.16 E1586.048
G1 Y50.24 E1586.242
G1 Y45.33 E1586.436
G1 Y40.41 E1586.63
G1 Y35.49 E1586.825
G1 Y30.57 E1587.019
G1 Y25.65 E1587.213
G1 Y20.74 E1587.407
G1 Y15.82 E1587.602
G1 Y10.9 E1587.796
G0 X100.8 Y10.9 F10800
G1 Y15.82 E1587.99 F2400
G1 Y20.74 E1588.184
G1 Y25.65 E1588.379
G1 Y30.57 E1588.573
G1 Y35.49 E1588.767
G1 Y40.41 E1588.961
G1 Y45.33 E1589.156
G1 Y50.24 E1589.35
G1 Y55.16 E1589.544
G1 Y60.08 E1589.738
G1 Y65 E1589.933
G1 Y69.92 E1590.127
G1 Y74.84 E1590.321
G1 Y79.75 E1590.515
G1 Y84.67 E1590.71
G1 Y89.59 E1590.904
G1 Y94.51 E1591.098
G1 Y99.43 E1591.292
G1 Y104.34 E1591.487
G1 Y109.26 E1591.681
G1 Y114.18 E1591.875
G1 Y119.1 E1592.069
G0 X101.2 Y119.1 F10800
G1 Y114.18 E1592.264 F2400
G1 Y109.26 E1592.458
G1 Y104.34 E1592.652
G1 Y99.43 E1592.846
G1 Y94.51 E1593.041
G1 Y89.59 E1593.235
G1 Y84.67 E1593.429
G1 Y79.75 E1593.623
G1 Y74.84 E1593.818
G1 Y69.92 E1594.012
G1 Y65 E1594.206
G1 Y60.08 E1594.4
G1 Y55.16 E1594.595
G1 Y50.24 E1594.789
G1 Y45.33 E1594.983
G1 Y40.41 E1595.177
G1 Y35.49 E1595.372
G1 Y30.57 E1595.566
G1 Y25.65 E1595.76
G1 Y20.74 E1595.954
G1 Y15.82 E1596.149
G1 Y10.9 E1596.343
G0 X101.6 Y10.9 F10800
G1 Y15.82 E1596.537 F2400
G1 Y20.74 E1596.731
G1 Y25.65 E1596.926
G1 Y30.57 E1597.12
G1 Y35.49 E1597.314
G1 Y40.41 E1597.508
G1 Y45.33 E1597.703
G1 Y50.24 E1597.897
G1 Y55.16 E1598.091
G1 Y60.08 E1598.285
G1 Y65 E1598.48
G1 Y69.92 E1598.674
G1 Y74.84 E1598.868
G1 Y79.75 E1599.062
G1 Y84.67 E1599.257
G1 Y89.59 E1599.451
G1 Y94.51 E1599.645
G1 Y99.43 E1599.839
G1 Y104.34 E1600.034
G1 Y109.26 E1600.228
G1 Y114.18 E1600.422
G1 Y119.1 E1600.616
G0 X102 Y119.1 F10800
G1 Y114.18 E1600.811 F2400
G1 Y109.26 E1601.005
G1 Y104.34 E1601.199
G1 Y99.43 E1601.393
G1 Y94.51 E1601.588
G1 Y89.59 E1601.782
G1 Y84.67 E1601.976
G1 Y79.75 E1602.17
G1 Y74.84 E1602.365
G1 Y69.92 E1602.559
G1 Y65 E1602.753
G1 Y60.08 E1602.947
G1 Y55.16 E1603.142
G1 Y50.24 E1603.336
G1 Y45.33 E1603.53
G1 Y40.41 E1603.724
G1 Y35.49 E1603.919
G1 Y30.57 E1604.113
G1 Y25.65 E1604.307
G1 Y20.74 E1604.501
G1 Y15.82 E1604.696
G1 Y10.9 E1604.89
G0 X102.4 Y10.9 F10800
G1 Y15.82 E1605.084 F2400
G1 Y20.74 E1605.278
G1 Y25.65 E1605.473
G1 Y30.57 E1605.667
G1 Y35.49 E1605.861
G1 Y40.41 E1606.055
G1 Y45.33 E1606.25
G1 Y50.24 E1606.444
G1 Y55.16 E1606.638
G1 Y60.08 E1606.832
G1 Y65 E1607.027
G1 Y69.92 E1607.221
G1 Y74.84 E1607.415
G1 Y79.75 E1607.609
G1 Y84.67 E1607.804
G1 Y89.59 E1607.998
G1 Y94.51 E1608.192
G1 Y99.43 E1608.386
G1 Y104.34 E1608.581
G1 Y109.26 E1608.775
G1 Y114.18 E1608.969
G1 Y119.1 E1609.163
G0 X102.8 Y119.1 F10800
G1 Y114.18 E1609.358 F2400
G1 Y109.26 E1609.552
G1 Y104.34 E1609.746
G1 Y99.43 E1609.94
G1 Y94.51 E1610.135
G1 Y89.59 E1610.329
G1 Y84.67 E1610.523
G1 Y79.75 E1610.717
G1 Y74.84 E1610.912
G1 Y69.92 E1611.106
G1 Y65 E1611.3
G1 Y60.08 E1611.494
G1 Y55.16 E1611.689
G1 Y50.24 E1611.883
G1 Y45.33 E1612.077
G1 Y40.41 E1612.271
G1 Y35.49 E1612.466
G1 Y30.57 E1612.66
G1 Y25.65 E1612.854
G1 Y20.74 E1613.048
G1 Y15.82 E1613.243
G1 Y10.9 E1613.437
G0 X103.2 Y10.9 F10800
G1 Y15.82 E1613.631 F2400
G1 Y20.74 E1613.825
G1 Y25.65 E1614.02
G1 Y30.57 E1614.214
G1 Y35.49 E1614.408
G1 Y40.41 E1614.602
G1 Y45.33 E1614.797
G1 Y50.24 E1614.991
G1 Y55.16 E1615.185
G1 Y60.08 E1615.379
G1 Y65 E1615.574
G1 Y69.92 E1615.768
G1 Y74.84 E1615.962
G1 Y79.75 E1616.156
G1 Y84.67 E1616.351
G1 Y89.59 E1616.545
G1 Y94.51 E1616.739
G1 Y99.43 E1616.933
G1 Y104.34 E1617.128
G1 Y109.26 E1617.322
G1 Y114.18 E1617.516
G1 Y119.1 E1617.71
G0 X103.6 Y119.1 F10800
G1 Y114.18 E1617.905 F2400
G1 Y109.26 E1618.099
G1 Y104.34 E1618.293
G1 Y99.43 E1618.487
G1 Y94.51 E1618.682
G1 Y89.59 E1618.876
G1 Y84.67 E1619.07
G1 Y79.75 E1619.264
G1 Y74.84 E1619.459
G1 Y69.92 E1619.653
G1 Y65 E1619.847
G1 Y60.08 E1620.041
G1 Y55.16 E1620.236
G1 Y50.24 E1620.43
G1 Y45.33 E1620.624
G1 Y40.41 E1620.818
G1 Y35.49 E1621.013
G1 Y30.57 E1621.207
G1 Y25.65 E1621.401
G1 Y20.74 E1621.595
G1 Y15.82 E1621.79
G1 Y10.9 E1621.984
G0 X104 Y10.9 F10800
G1 Y15.82 E1622.178 F2400
G1 Y20.74 E1622.372
G1 Y25.65 E1622.567
G1 Y30.57 E1622.761
G1 Y35.49 E1622.955
G1 Y40.41 E1623.149
G1 Y45.33 E1623.344
G1 Y50.24 E1623.538
G1 Y55.16 E1623.732
G1 Y60.08 E1623.926
G1 Y65 E1624.121
G1 Y69.92 E1624.315
G1 Y74.84 E1624.509
G1 Y79.75 E1624.703
G1 Y84.67 E1624.898
G1 Y89.59 E1625.092
G1 Y94.51 E1625.286
G1 Y99.43 E1625.48
G1 Y104.34 E1625.675
G1 Y109.26 E1625.869
G1 Y114.18 E1626.063
G1 Y119.1 E1626.257
G0 X104.4 Y119.1 F10800
G1 Y114.18 E1626.452 F2400
G1 Y109.26 E1626.646
G1 Y104.34 E1626.84
G1 Y99.43 E1627.034
G1 Y94.51 E1627.229
G1 Y89.59 E1627.423
G1 Y84.67 E1627.617
G1 Y79.75 E1627.811
G1 Y74.84 E1628.006
G1 Y69.92 E1628.2
G1 Y65 E1628.394
G1 Y60.08 E1628.588
G1 Y55.16 E1628.783
G1 Y50.24 E1628.977
G1 Y45.33 E1629.171
G1 Y40.41 E1629.365
G1 Y35.49 E1629.56
G1 Y30.57 E1629.754
G1 Y25.65 E1629.948
G1 Y20.74 E1630.142
G1 Y15.82 E1630.337
G1 Y10.9 E1630.531
G0 X104.8 Y10.9 F10800
G1 Y15.82 E1630.725 F2400
G1 Y20.74 E1630.919
G1 Y25.65 E1631.114
G1 Y30.57 E1631.308
G1 Y35.49 E1631.502
G1 Y40.41 E1631.696
G1 Y45.33 E1631.891
G1 Y50.24 E1632.085
G1 Y55.16 E1632.279
G1 Y60.08 E1632.473
G1 Y65 E1632.668
G1 Y69.92 E1632.862
G1 Y74.84 E1633.056
G1 Y79.75 E1633.25
G1 Y84.67 E1633.445
G1 Y89.59 E1633.639
G1 Y94.51 E1633.833
G1 Y99.43 E1634.027
G1 Y104.34 E1634.222
G1 Y109.26 E1634.416
G1 Y114.18 E1634.61
G1 Y119.1 E1634.804
G0 X105.2 Y119.1 F10800
G1 Y114.18 E1634.999 F2400
G1 Y109.26 E1635.193
G1 Y104.34 E1635.387
G1 Y99.43 E1635.581
G1 Y94.51 E1635.776
G1 Y89.59 E1635.97
G1 Y84.67 E1636.164
G1 Y79.75 E1636.358
G1 Y74.84 E1636.553
G1 Y69.92 E1636.747
G1 Y65 E1636.941
G1 Y60.08 E1637.135
G1 Y55.16 E1637.33
G1 Y50.24 E1637.524
G1 Y45.33 E1637.718
G1 Y40.41 E1637.912
G1 Y35.49 E1638.107
G1 Y30.57 E1638.301
G1 Y25.65 E1638.495
G1 Y20.74 E1638.689
G1 Y15.82 E1638.884
G1 Y10.9 E1639.078
G0 X105.6 Y10.9 F10800
G1 Y15.82 E1639.272 F2400
G1 Y20.74 E1639.466
G1 Y25.65 E1639.661
G1 Y30.57 E1639.855
G1 Y35.49 E1640.049
G1 Y40.41 E1640.243
G1 Y45.33 E1640.438
G1 Y50.24 E1640.632
G1 Y55.16 E1640.826
G1 Y60.08 E1641.02
G1 Y65 E1641.215
G1 Y69.92 E1641.409
G1 Y74.84 E1641.603
G1 Y79.75 E1641.797
G1 Y84.67 E1641.992
G1 Y89.59 E1642.186
G1 Y94.51 E1642.38
G1 Y99.43 E1642.574
G1 Y104.34 E1642.769
G1 Y109.26 E1642.963
G1 Y114.18 E1643.157
G1 Y119.1 E1643.352
G0 X106 Y119.1 F10800
G1 Y114.18 E1643.546 F2400
G1 Y109.26 E1643.74
G1 Y104.34 E1643.934
G1 Y99.43 E1644.129
G1 Y94.51 E1644.323
G1 Y89.59 E1644.517
G1 Y84.67 E1644.711
G1 Y79.75 E1644.906
G1 Y74.84 E1645.1
G1 Y69.92 E1645.294
G1 Y65 E1645.488
G1 Y60.08 E1645.683
G1 Y55.16 E1645.877
G1 Y50.24 E1646.071
G1 Y45.33 E1646.265
G1 Y40.41 E1646.46
G1 Y35.49 E1646.654
G1 Y30.57 E1646.848
G1 Y25.65 E1647.042
G1 Y20.74 E1647.237
G1 Y15.82 E1647.431
G1 Y10.9 E1647.625
G0 X106.4 Y10.9 F10800
G1 Y15.82 E1647.819 F2400
G1 Y20.74 E1648.014
G1 Y25.65 E1648.208
G1 Y30.57 E1648.402
G1 Y35.49 E1648.596
G1 Y40.41 E1648.791
G1 Y45.33 E1648.985
G1 Y50.24 E1649.179
G1 Y55.16 E1649.373
G1 Y60.08 E1649.568
G1 Y65 E1649.762
G1 Y69.92 E1649.956
G1 Y74.84 E1650.15
G1 Y79.75 E1650.345
G1 Y84.67 E1650.539
G1 Y89.59 E1650.733
G1 Y94.51 E1650.927
G1 Y99.43 E1651.122
G1 Y104.34 E1651.316
G1 Y109.26 E1651.51
G1 Y114.18 E1651.704
G1 Y119.1 E1651.899
G0 X106.8 Y119.1 F10800
G1 Y114.18 E1652.093 F2400
G1 Y109.26 E1652.287
G1 Y104.34 E1652.481
G1 Y99.43 E1652.676
G1 Y94.51 E1652.87
G1 Y89.59 E1653.064
G1 Y84.67 E1653.258
G1 Y79.75 E1653.453
G1 Y74.84 E1653.647
G1 Y69.92 E1653.841
G1 Y65 E1654.035
G1 Y60.08 E1654.23
G1 Y55.16 E1654.424
G1 Y50.24 E1654.618
G1 Y45.33 E1654.812
G1 Y40.41 E1655.007
G1 Y35.49 E1655.201
G1 Y30.57 E1655.395
G1 Y25.65 E1655.589
G1 Y20.74 E1655.784
G1 Y15.82 E1655.978
G1 Y10.9 E1656.172
G0 X107.2 Y10.9 F10800
G1 Y15.82 E1656.366 F2400
G1 Y20.74 E1656.561
G1 Y25.65 E1656.755
G1 Y30.57 E1656.949
G1 Y35.49 E1657.143
G1 Y40.41 E1657.338
G1 Y45.33 E1657.532
G1 Y50.24 E1657.726
G1 Y55.16 E1657.92
G1 Y60.08 E1658.115
G1 Y65 E1658.309
G1 Y69.92 E1658.503
G1 Y74.84 E1658.697
G1 Y79.75 E1658.892
G1 Y84.67 E1659.086
G1 Y89.59 E1659.28
G1 Y94.51 E1659.474
G1 Y99.43 E1659.669
G1 Y104.34 E1659.863
G1 Y109.26 E1660.057
G1 Y114.18 E1660.251
G1 Y119.1 E1660.446
G0 X107.6 Y119.1 F10800
G1 Y114.18 E1660.64 F2400
G1 Y109.26 E1660.834
G1 Y104.34 E1661.028
G1 Y99.43 E1661.223
G1 Y94.51 E1661.417
G1 Y89.59 E1661.611
G1 Y84.67 E1661.805
G1 Y79.75 E1662
G1 Y74.84 E1662.194
G1 Y69.92 E1662.388
G1 Y65 E1662.582
G1 Y60.08 E1662.777
G1 Y55.16 E1662.971
G1 Y50.24 E1663.165
G1 Y45.33 E1663.359
G1 Y40.41 E1663.554
G1 Y35.49 E1663.748
G1 Y30.57 E1663.942
G1 Y25.65 E1664.136
G1 Y20.74 E1664.331
G1 Y15.82 E1664.525
G1 Y10.9 E1664.719
G0 X108 Y10.9 F10800
G1 Y15.82 E1664.913 F2400
G1 Y20.74 E1665.108
G1 Y25.65 E1665.302
G1 Y30.57 E1665.496
G1 Y35.49 E1665.69
G1 Y40.41 E1665.885
G1 Y45.33 E1666.079
G1 Y50.24 E1666.273
G1 Y55.16 E1666.467
G1 Y60.08 E1666.662
G1 Y65 E1666.856
G1 Y69.92 E1667.05
G1 Y74.84 E1667.244
G1 Y79.75 E1667.439
G1 Y84.67 E1667.633
G1 Y89.59 E1667.827
G1 Y94.51 E1668.021
G1 Y99.43 E1668.216
G1 Y104.34 E1668.41
G1 Y109.26 E1668.604
G1 Y114.18 E1668.798
G1 Y119.1 E1668.993
G0 X108.4 Y119.1 F10800
G1 Y114.18 E1669.187 F2400
G1 Y109.26 E1669.381
G1 Y104.34 E1669.575
G1 Y99.43 E1669.77
G1 Y94.51 E1669.964
G1 Y89.59 E1670.158
G1 Y84.67 E1670.352
G1 Y79.75 E1670.547
G1 Y74.84 E1670.741
G1 Y69.92 E1670.935
G1 Y65 E1671.129
G1 Y60.08 E1671.324
G1 Y55.16 E1671.518
G1 Y50.24 E1671.712
G1 Y45.33 E1671.906
G1 Y40.41 E1672.101
G1 Y35.49 E1672.295
G1 Y30.57 E1672.489
G1 Y25.65 E1672.683
G1 Y20.74 E1672.878
G1 Y15.82 E1673.072
G1 Y10.9 E1673.266
G0 X108.8 Y10.9 F10800
G1 Y15.82 E1673.46 F2400
G1 Y20.74 E1673.655
G1 Y25.65 E1673.849
G1 Y30.57 E1674.043
G1 Y35.49 E1674.237
G1 Y40.41 E1674.432
G1 Y45.33 E1674.626
G1 Y50.24 E1674.82
G1 Y55.16 E1675.014
G1 Y60.08 E1675.209
G1 Y65 E1675.403
G1 Y69.92 E1675.597
G1 Y74.84 E1675.791
G1 Y79.75 E1675.986
G1 Y84.67 E1676.18
G1 Y89.59 E1676.374
G1 Y94.51 E1676.568
G1 Y99.43 E1676.763
G1 Y104.34 E1676.957
G1 Y109.26 E1677.151
G1 Y114.18 E1677.345
G1 Y119.1 E1677.54
G0 X109.2 Y119.1 F10800
G1 Y114.18 E1677.734 F2400
G1 Y109.26 E1677.928
G1 Y104.34 E1678.122
G1 Y99.43 E1678.317
G1 Y94.51 E1678.511
G1 Y89.59 E1678.705
G1 Y84.67 E1678.899
G1 Y79.75 E1679.094
G1 Y74.84 E1679.288
G1 Y69.92 E1679.482
