; Generated with MatterSlice 2.22.04
; filamentDiameter = 1.75
; extrusionWidth = 0.4
; firstLayerExtrusionWidth = 0.4
; layerThickness = 0.2
; firstLayerThickness = 0.2
; automatic settings before start_gcode
G21 ; set units to millimeters
M107 ; fan off
T0 ; set the active extruder to 0
; settings from start_gcode
M104 S200
M140 S40
G28 W       ; Home without mesh level
G0 Z5 F5000
M117 Heating
M109 S200
M190 S40
G80         ; Probe
; Priming Line
G0 Y-3 F10800
G92 E0.0
G1 X60 E9 F1000
G1 X100 E12.5
G92 E0.0
M117 Printing
; automatic settings after start_gcode
T0 ; set the active extruder to 0
G90 ; use absolute coordinates
G92 E0 ; reset the expected extruder position
M82 ; use absolute distance for extrusion
; Layer count: 250
; Layer Change GCode
; LAYER:0
; LAYER_HEIGHT:0.2
; TYPE:FILL
M400
M107
G0 X83.81 Y17.9 Z0.8 F10800
G0 X185.6 Y17.91
G0 Y41.56
G0 X193.7
; TYPE:SKIRT
G0 Z0.2
G0 F2100
G1 X193.44 Y44.17 E0.083 F1200
G1 X192.61 Y46.92 E0.174
G1 X165.88 Y135.2 E3.088
G1 X74.81 E5.966
G1 Y9.8 E9.928
G1 X193.7 E13.684
G1 Y41.56 E14.688
G0 X190.3 Y41.39 F10800
G1 X190.09 Y43.51 E14.755 F1200
G1 X189.36 Y45.91 E14.835
G1 X188.17 Y48.13 E14.914
G1 X186.58 Y50.08 E14.994
G1 X184.63 Y51.67 E15.073
G1 X182.41 Y52.86 E15.153
G1 X180.01 Y53.59 E15.232
G1 X177.89 Y53.8 E15.299
G1 X163.3 E15.76
G1 Y131.8 E18.225
G1 X78.21 E20.913
G1 Y13.2 E24.661
G1 X190.3 E28.203
G1 Y41.39 E29.093
G0 X189.9 Y41.37 F10800
G1 X189.7 Y43.43 E29.159 F1200
G1 X188.99 Y45.76 E29.236
G1 X187.84 Y47.91 E29.313
G1 X186.29 Y49.79 E29.39
G1 X184.41 Y51.34 E29.467
G1 X182.26 Y52.49 E29.544
G1 X179.93 Y53.2 E29.621
G1 X177.87 Y53.4 E29.686
G1 X162.9 E30.159
G1 Y131.4 E32.624
G1 X78.61 E35.287
G1 Y13.6 E39.009
G1 X189.9 E42.525
G1 Y41.37 E43.403
G0 X189.5 Y41.35 F10800
G1 X189.3 Y43.35 E43.466 F1200
G1 X188.62 Y45.6 E43.541
G1 X187.51 Y47.69 E43.615
G1 X186.01 Y49.51 E43.69
G1 X184.19 Y51.01 E43.764
G1 X182.1 Y52.12 E43.839
G1 X179.85 Y52.8 E43.913
G1 X177.85 Y53 E43.977
G1 X162.5 E44.462
G1 Y131 E46.927
G1 X79.01 E49.565
G1 Y14 E53.261
G1 X189.5 E56.753
G1 Y41.35 E57.617
G0 X189.1 Y41.33 F10800
G1 X188.91 Y43.27 E57.678 F1200
G1 X188.25 Y45.45 E57.75
G1 X187.17 Y47.46 E57.822
G1 X185.73 Y49.23 E57.894
G1 X183.96 Y50.67 E57.966
G1 X181.95 Y51.75 E58.039
G1 X179.77 Y52.41 E58.111
G1 X177.83 Y52.6 E58.172
G1 X162.1 E58.669
G1 Y130.6 E61.134
G1 X79.41 E63.746
G1 Y14.4 E67.418
G1 X189.1 E70.884
G1 Y41.33 E71.735
G0 X188.7 Y41.31 F10800
G1 X188.51 Y43.19 E71.795 F1200
G1 X187.88 Y45.3 E71.864
G1 X186.84 Y47.24 E71.934
G1 X185.44 Y48.94 E72.003
G1 X183.74 Y50.34 E72.073
G1 X181.8 Y51.38 E72.142
G1 X179.69 Y52.01 E72.212
G1 X177.81 Y52.2 E72.272
G1 X161.7 E72.781
G1 Y130.2 E75.245
G1 X79.81 E77.833
G1 Y14.8 E81.479
G1 X188.7 E84.919
G1 Y41.31 E85.757
G0 X188.3 Y41.29 F10800
G1 X188.12 Y43.11 E85.815 F1200
G1 X187.5 Y45.14 E85.882
G1 X186.5 Y47.02 E85.949
G1 X185.16 Y48.66 E86.016
G1 X183.52 Y50 E86.083
G1 X181.64 Y51 E86.15
G1 X179.61 Y51.62 E86.217
G1 X177.79 Y51.8 E86.275
G1 X161.3 E86.796
G1 Y129.8 E89.261
G1 X80.21 E91.823
G1 Y15.2 E95.444
G1 X188.3 E98.859
G1 Y41.29 E99.684
G0 X187.9 Y41.27 F10800
G1 X187.72 Y43.04 E99.74 F1200
G1 X187.13 Y44.99 E99.804
G1 X186.17 Y46.79 E99.869
G1 X184.87 Y48.37 E99.933
G1 X183.29 Y49.67 E99.998
G1 X181.49 Y50.63 E100.063
G1 X179.54 Y51.22 E100.127
G1 X177.77 Y51.4 E100.183
G1 X160.9 E100.716
G1 Y129.4 E103.181
G1 X80.61 E105.718
G1 Y15.6 E109.313
G1 X187.9 E112.704
G1 Y41.27 E113.515
G0 X187.5 Y41.25 F10800
G1 X187.33 Y42.96 E113.569 F1200
G1 X186.76 Y44.84 E113.631
G1 X185.83 Y46.57 E113.693
G1 X184.59 Y48.09 E113.755
G1 X183.07 Y49.33 E113.817
G1 X181.34 Y50.26 E113.879
G1 X179.46 Y50.83 E113.941
G1 X177.75 Y51 E113.995
G1 X160.75 E114.533
G1 X160.52 Y51.02 E114.54
G1 X160.5 Y51.25 E114.547
G1 Y129 E117.004
G1 X81.01 E119.515
G1 Y16 E123.086
G1 X187.5 E126.451
G1 Y41.25 E127.248
G0 X187.1 Y41.23 F10800
G1 X186.94 Y42.88 E127.301 F1200
G1 X186.39 Y44.68 E127.36
G1 X185.5 Y46.35 E127.42
G1 X184.3 Y47.8 E127.479
G1 X182.85 Y49 E127.539
G1 X181.18 Y49.89 E127.599
G1 X179.38 Y50.44 E127.658
G1 X177.73 Y50.6 E127.711
G1 X160.73 E128.248
G1 X160.43 Y50.63 E128.257
G1 X160.35 Y50.65 E128.26
G1 X160.29 Y50.68 E128.262
G1 X160.23 Y50.73 E128.264
G1 X160.18 Y50.79 E128.267
G1 X160.15 Y50.85 E128.269
G1 X160.13 Y50.93 E128.271
G1 X160.1 Y51.23 E128.281
G1 Y128.6 E130.726
G1 X81.41 E133.212
G1 Y16.4 E136.757
G1 X187.1 E140.097
G1 Y41.23 E140.881
G0 X186.7 Y41.21 F10800
G1 X186.54 Y42.8 E140.932 F1200
G1 X186.02 Y44.53 E140.989
G1 X185.17 Y46.12 E141.046
G1 X184.02 Y47.52 E141.103
G1 X182.62 Y48.67 E141.16
G1 X181.03 Y49.52 E141.217
G1 X179.3 Y50.04 E141.274
G1 X177.71 Y50.2 E141.325
G1 X160.71 E141.862
G1 X160.35 Y50.24 E141.874
G1 X160.2 Y50.28 E141.878
G1 X160.07 Y50.35 E141.883
G1 X159.95 Y50.45 E141.888
G1 X159.85 Y50.57 E141.893
G1 X159.78 Y50.7 E141.898
G1 X159.74 Y50.85 E141.902
G1 X159.7 Y51.21 E141.914
G1 Y128.2 E144.347
G1 X81.81 E146.808
G1 Y16.8 E150.328
G1 X186.7 E153.642
G1 Y41.21 E154.413
G0 X186.3 Y41.19 F10800
G1 X186.15 Y42.72 E154.462 F1200
G1 X185.65 Y44.37 E154.516
G1 X184.83 Y45.9 E154.571
G1 X183.74 Y47.24 E154.625
G1 X182.4 Y48.33 E154.68
G1 X180.87 Y49.15 E154.735
G1 X179.22 Y49.65 E154.789
G1 X177.69 Y49.8 E154.838
G1 X160.69 E155.375
G1 X160.27 Y49.84 E155.389
G1 X160.05 Y49.91 E155.396
G1 X159.85 Y50.02 E155.403
G1 X159.66 Y50.16 E155.41
G1 X159.52 Y50.35 E155.418
G1 X159.41 Y50.55 E155.425
G1 X159.34 Y50.77 E155.432
G1 X159.3 Y51.19 E155.446
G1 Y127.8 E157.866
G1 X82.21 E160.302
G1 Y17.2 E163.797
G1 X186.3 E167.086
G1 Y41.19 E167.844
G0 X185.9 Y41.17 F10800
G1 X185.75 Y42.64 E167.89 F1200
G1 X185.28 Y44.22 E167.943
G1 X184.5 Y45.68 E167.995
G1 X183.45 Y46.95 E168.047
G1 X182.18 Y48 E168.099
G1 X180.72 Y48.78 E168.151
G1 X179.14 Y49.25 E168.203
G1 X177.67 Y49.4 E168.25
G1 X160.67 E168.787
G1 X160.19 Y49.45 E168.802
G1 X159.89 Y49.54 E168.812
G1 X159.62 Y49.68 E168.822
G1 X159.38 Y49.88 E168.832
G1 X159.18 Y50.12 E168.842
G1 X159.04 Y50.39 E168.851
G1 X158.95 Y50.69 E168.861
G1 X158.9 Y51.17 E168.876
G1 Y127.4 E171.285
G1 X82.61 E173.696
G1 Y17.6 E177.165
G1 X185.9 E180.429
G1 Y41.17 E181.173
G0 X185.5 Y41.15 F10800
G1 X185.36 Y42.56 E181.218 F1200
G1 X184.9 Y44.07 E181.268
G1 X184.16 Y45.45 E181.317
G1 X183.17 Y46.67 E181.367
G1 X181.95 Y47.66 E181.417
G1 X180.57 Y48.4 E181.466
G1 X179.06 Y48.86 E181.516
G1 X177.65 Y49 E181.561
G1 X160.65 E182.098
G1 X160.11 Y49.05 E182.115
G1 X159.74 Y49.16 E182.127
G1 X159.39 Y49.35 E182.14
G1 X159.1 Y49.6 E182.152
G1 X158.85 Y49.89 E182.164
G1 X158.66 Y50.24 E182.177
G1 X158.55 Y50.61 E182.189
G1 X158.5 Y51.15 E182.206
G1 Y127 E184.603
G1 X83.01 E186.988
G1 Y18 E190.432
G1 X185.5 E193.67
G1 Y41.15 E194.402
G0 X185.1 Y41.13 F10800
G1 X184.97 Y42.49 E194.445 F1200
G1 X184.53 Y43.91 E194.492
G1 X183.83 Y45.23 E194.539
G1 X182.88 Y46.38 E194.586
G1 X181.73 Y47.33 E194.633
G1 X180.41 Y48.03 E194.681
G1 X178.99 Y48.47 E194.728
G1 X177.63 Y48.6 E194.771
G1 X160.63 E195.308
G1 X160.03 Y48.66 E195.327
G1 X159.59 Y48.79 E195.341
G1 X159.17 Y49.02 E195.356
G1 X158.81 Y49.31 E195.371
G1 X158.52 Y49.67 E195.386
G1 X158.29 Y50.09 E195.401
G1 X158.16 Y50.53 E195.415
G1 X158.1 Y51.13 E195.435
G1 Y126.6 E197.819
G1 X83.41 E200.179
G1 Y18.4 E203.598
G1 X185.1 E206.811
G1 Y41.13 E207.529
G0 X184.7 Y41.11 F10800
G1 X184.57 Y42.41 E207.57 F1200
G1 X184.16 Y43.76 E207.615
G1 X183.5 Y45.01 E207.66
G1 X182.6 Y46.1 E207.704
G1 X181.51 Y47 E207.749
G1 X180.26 Y47.66 E207.794
G1 X178.91 Y48.07 E207.838
G1 X177.61 Y48.2 E207.879
G1 X160.6 E208.417
G1 X159.96 Y48.26 E208.437
G1 X159.43 Y48.42 E208.455
G1 X158.95 Y48.68 E208.472
G1 X158.53 Y49.03 E208.489
G1 X158.18 Y49.45 E208.507
G1 X157.92 Y49.93 E208.524
G1 X157.76 Y50.46 E208.541
G1 X157.7 Y51.1 E208.562
G1 Y126.2 E210.934
G1 X83.81 E213.269
G1 Y18.8 E216.663
G1 X184.7 E219.85
G1 Y41.11 E220.555
G0 X184.3 Y41.09 F10800
G1 X184.18 Y42.33 E220.595 F1200
G1 X183.79 Y43.61 E220.637
G1 X183.16 Y44.78 E220.679
G1 X182.31 Y45.81 E220.721
G1 X181.28 Y46.66 E220.763
G1 X180.11 Y47.29 E220.806
G1 X178.83 Y47.68 E220.848
G1 X177.59 Y47.8 E220.887
G1 X160.59 E221.424
G1 X159.88 Y47.87 E221.447
G1 X159.28 Y48.05 E221.467
G1 X158.73 Y48.35 E221.486
G1 X158.24 Y48.74 E221.506
G1 X157.85 Y49.23 E221.526
G1 X157.55 Y49.78 E221.546
G1 X157.37 Y50.38 E221.566
G1 X157.3 Y51.09 E221.588
G1 Y125.8 E223.949
G1 X84.21 E226.258
G1 Y19.2 E229.626
G1 X184.3 E232.789
G1 Y41.09 E233.48
G0 X183.9 Y41.07 F10800
G1 X183.78 Y42.25 E233.518 F1200
G1 X183.42 Y43.45 E233.558
G1 X182.83 Y44.56 E233.597
G1 X182.03 Y45.53 E233.637
G1 X181.06 Y46.33 E233.677
G1 X179.95 Y46.92 E233.716
G1 X178.75 Y47.28 E233.756
G1 X177.57 Y47.4 E233.794
G1 X160.57 E234.331
G1 X159.8 Y47.48 E234.355
G1 X159.13 Y47.68 E234.377
G1 X158.5 Y48.01 E234.4
G1 X157.96 Y48.46 E234.422
G1 X157.51 Y49 E234.444
G1 X157.18 Y49.63 E234.466
G1 X156.98 Y50.3 E234.489
G1 X156.9 Y51.07 E234.513
G1 Y125.4 E236.862
G1 X84.61 E239.146
G1 Y19.6 E242.489
G1 X183.9 E245.626
G1 Y41.07 E246.305
G0 X183.5 Y41.05 F10800
G1 X183.39 Y42.17 E246.34 F1200
G1 X183.05 Y43.3 E246.377
G1 X182.49 Y44.34 E246.414
G1 X181.75 Y45.25 E246.452
G1 X180.84 Y45.99 E246.489
G1 X179.8 Y46.55 E246.526
G1 X178.67 Y46.89 E246.563
G1 X177.55 Y47 E246.599
G1 X160.55 E247.136
G1 X159.72 Y47.08 E247.162
G1 X158.97 Y47.31 E247.187
G1 X158.28 Y47.68 E247.212
G1 X157.67 Y48.17 E247.237
G1 X157.18 Y48.78 E247.261
G1 X156.81 Y49.47 E247.286
G1 X156.58 Y50.22 E247.311
G1 X156.5 Y51.05 E247.337
G1 Y125 E249.674
G1 X85.01 E251.933
G1 Y20 E255.25
G1 X183.5 E258.362
G1 Y41.05 E259.027
G0 X183.1 Y41.03 F10800
G1 X182.99 Y42.09 E259.061 F1200
G1 X182.68 Y43.14 E259.096
G1 X182.16 Y44.11 E259.131
G1 X181.46 Y44.96 E259.165
G1 X180.61 Y45.66 E259.2
G1 X179.64 Y46.18 E259.235
G1 X178.59 Y46.49 E259.269
G1 X177.53 Y46.6 E259.303
G1 X160.53 E259.84
G1 X159.64 Y46.69 E259.869
G1 X158.82 Y46.94 E259.896
G1 X158.06 Y47.34 E259.923
G1 X157.39 Y47.89 E259.95
G1 X156.84 Y48.56 E259.978
G1 X156.44 Y49.32 E260.005
G1 X156.19 Y50.14 E260.032
G1 X156.1 Y51.03 E260.06
G1 Y124.6 E262.385
G1 X85.41 E264.618
G1 Y20.4 E267.911
G1 X183.1 E270.997
G1 Y41.03 E271.649
G0 X182.7 Y41.01 F10800
G1 X182.6 Y42.01 E271.681 F1200
G1 X182.31 Y42.99 E271.713
G1 X181.82 Y43.89 E271.746
G1 X181.18 Y44.68 E271.778
G1 X180.39 Y45.32 E271.81
G1 X179.49 Y45.81 E271.842
G1 X178.51 Y46.1 E271.874
G1 X177.51 Y46.2 E271.906
G1 X160.51 E272.443
G1 X159.56 Y46.29 E272.474
G1 X158.66 Y46.57 E272.503
G1 X157.84 Y47.01 E272.533
G1 X157.11 Y47.61 E272.563
G1 X156.51 Y48.34 E272.593
G1 X156.07 Y49.16 E272.622
G1 X155.79 Y50.06 E272.652
G1 X155.7 Y51.01 E272.682
G1 Y124.2 E274.995
G1 X85.81 E277.203
G1 Y20.8 E280.47
G1 X182.7 E283.531
G1 Y41.01 E284.17
G1 E283.37 F2100
G0 Z0.8
G0 X159.33 Y45.11 F10800
; TYPE:WALL-INNER
G0 Z0.2
G1 E284.17 F2100
G1 X158.2 Y45.45 E284.207 F1200
G1 X157.16 Y46.01 E284.244
G1 X156.25 Y46.75 E284.282
G1 X155.51 Y47.66 E284.319
G1 X154.95 Y48.7 E284.356
G1 X154.61 Y49.83 E284.393
G1 X154.5 Y50.95 E284.429
G1 Y123 E286.705
G1 X87.01 E288.838
G1 Y22 E292.029
G1 X181.5 E295.015
G1 Y40.95 E295.613
G1 X181.42 Y41.78 E295.64
G1 X181.19 Y42.53 E295.664
G1 X180.82 Y43.22 E295.689
G1 X180.33 Y43.83 E295.714
G1 X179.72 Y44.32 E295.739
G1 X179.03 Y44.69 E295.764
G1 X178.28 Y44.92 E295.788
G1 X177.45 Y45 E295.814
G1 X160.45 E296.352
G1 X159.45 Y45.1 E296.383
G0 X159.33 Y45.11
G0 X159.49 Y45.9 F10800
; TYPE:WALL-OUTER
G1 X158.51 Y46.19 E296.416 F1200
G1 X157.61 Y46.68 E296.448
G1 X156.82 Y47.32 E296.48
G1 X156.18 Y48.11 E296.512
G1 X155.69 Y49.01 E296.545
G1 X155.4 Y49.99 E296.577
G1 X155.3 Y50.99 E296.609
G1 Y123.8 E298.909
G1 X86.21 E301.092
G1 Y21.2 E304.334
G1 X182.3 E307.37
G1 Y40.99 E307.996
G1 X182.21 Y41.94 E308.026
G1 X181.93 Y42.84 E308.055
G1 X181.49 Y43.66 E308.085
G1 X180.89 Y44.39 E308.115
G1 X180.16 Y44.99 E308.145
G1 X179.34 Y45.43 E308.174
G1 X178.44 Y45.71 E308.204
G1 X177.49 Y45.8 E308.234
G1 X160.49 E308.771
G1 X159.61 Y45.89 E308.799
G0 X159.49 Y45.9
G0 X158.51 Y46.19
G0 X157.61 Y46.68
G0 X156.87 Y47.29
G0 X159.41 Y45.51 F10800
; TYPE:WALL-INNER
G1 X158.36 Y45.82 E308.834 F1200
G1 X157.39 Y46.34 E308.869
G1 X156.54 Y47.04 E308.903
G1 X155.84 Y47.89 E308.938
G1 X155.32 Y48.86 E308.973
G1 X155.01 Y49.91 E309.008
G1 X154.9 Y50.97 E309.041
G1 Y123.4 E311.33
G1 X86.61 E313.488
G1 Y21.6 E316.704
G1 X181.9 E319.715
G1 Y40.97 E320.327
G1 X181.81 Y41.86 E320.355
G1 X181.56 Y42.68 E320.382
G1 X181.16 Y43.44 E320.41
G1 X180.61 Y44.11 E320.437
G1 X179.94 Y44.66 E320.464
G1 X179.18 Y45.06 E320.491
G1 X178.36 Y45.31 E320.519
G1 X177.47 Y45.4 E320.547
G1 X160.47 E321.084
G1 X159.53 Y45.49 E321.114
G0 X159.41 Y45.51
G1 E320.314 F2100
G0 Z0.8
G0 Y45.21 F10800
G0 X87.44 Y22.3
; TYPE:BOTTOM-FILL
G0 Z0.2
G1 E321.114 F2100
G1 X87.31 Y22.43 E321.12 F1200
G0 Y23 F10800
G1 X88.01 Y22.3 E321.151 F1200
G0 X88.57 F10800
G1 X87.31 Y23.56 E321.207 F1200
G0 Y24.13 F10800
G1 X89.14 Y22.3 E321.289 F1200
G0 X89.71 F10800
G1 X87.31 Y24.7 E321.396 F1200
G0 Y25.26 F10800
G1 X90.27 Y22.3 E321.529 F1200
G0 X90.84 F10800
G1 X87.31 Y25.83 E321.686 F1200
G0 Y26.39 F10800
G1 X91.4 Y22.3 E321.869 F1200
G0 X91.97 F10800
G1 X87.31 Y26.96 E322.077 F1200
G0 Y27.52 F10800
G1 X92.53 Y22.3 E322.311 F1200
G0 X93.1 F10800
G1 X87.31 Y28.09 E322.569 F1200
G0 Y28.66 F10800
G1 X93.67 Y22.3 E322.853 F1200
G0 X94.23 F10800
G1 X87.31 Y29.22 E323.163 F1200
G0 Y29.79 F10800
G1 X94.8 Y22.3 E323.497 F1200
G0 X95.36 F10800
G1 X87.31 Y30.35 E323.857 F1200
G0 Y30.92 F10800
G1 X95.93 Y22.3 E324.242 F1200
G0 X96.49 F10800
G1 X87.31 Y31.48 E324.652 F1200
G0 Y32.05 F10800
G1 X97.06 Y22.3 E325.088 F1200
G0 X97.63 F10800
G1 X87.31 Y32.62 E325.549 F1200
G0 Y33.18 F10800
G1 X98.19 Y22.3 E326.035 F1200
G0 X98.76 F10800
G1 X87.31 Y33.75 E326.547 F1200
G0 Y34.31 F10800
G1 X99.32 Y22.3 E327.083 F1200
G0 X99.89 F10800
G1 X87.31 Y34.88 E327.645 F1200
G0 Y35.44 F10800
G1 X100.45 Y22.3 E328.233 F1200
G0 X101.02 F10800
G1 X87.31 Y36.01 E328.845 F1200
G0 Y36.58 F10800
G1 X101.59 Y22.3 E329.483 F1200
G0 X102.15 F10800
G1 X87.31 Y37.14 E330.146 F1200
G0 Y37.71 F10800
G1 X102.72 Y22.3 E330.835 F1200
G0 X103.28 F10800
G1 X87.31 Y38.27 E331.548 F1200
G0 Y38.84 F10800
G1 X103.85 Y22.3 E332.287 F1200
G0 X104.41 F10800
G1 X87.31 Y39.4 E333.052 F1200
G0 Y39.97 F10800
G1 X104.98 Y22.3 E333.841 F1200
G0 X105.54 F10800
G1 X87.31 Y40.53 E334.656 F1200
G0 Y41.1 F10800
G1 X106.11 Y22.3 E335.496 F1200
G0 X106.68 F10800
G1 X87.31 Y41.67 E336.361 F1200
G0 Y42.23 F10800
G1 X107.24 Y22.3 E337.252 F1200
G0 X107.81 F10800
G1 X87.31 Y42.8 E338.168 F1200
G0 Y43.36 F10800
G1 X108.37 Y22.3 E339.109 F1200
G0 X108.94 F10800
G1 X87.31 Y43.93 E340.076 F1200
G0 Y44.49 F10800
G1 X109.5 Y22.3 E341.067 F1200
G0 X110.07 F10800
G1 X87.31 Y45.06 E342.084 F1200
G0 Y45.63 F10800
G1 X110.64 Y22.3 E343.127 F1200
G0 X111.2 F10800
G1 X87.31 Y46.19 E344.194 F1200
G0 Y46.76 F10800
G1 X111.77 Y22.3 E345.287 F1200
G0 X112.33 F10800
G1 X87.31 Y47.32 E346.405 F1200
G0 Y47.89 F10800
G1 X112.9 Y22.3 E347.549 F1200
G0 X113.46 F10800
G1 X87.31 Y48.45 E348.717 F1200
G0 Y49.02 F10800
G1 X114.03 Y22.3 E349.911 F1200
G0 X114.6 F10800
G1 X87.31 Y49.59 E351.13 F1200
G0 Y50.15 F10800
G1 X115.16 Y22.3 E352.375 F1200
G0 X115.73 F10800
G1 X87.31 Y50.72 E353.645 F1200
G0 Y51.28 F10800
G1 X116.29 Y22.3 E354.94 F1200
G0 X116.86 F10800
G1 X87.31 Y51.85 E356.26 F1200
G0 Y52.41 F10800
G1 X117.42 Y22.3 E357.606 F1200
G0 X117.99 F10800
G1 X87.31 Y52.98 E358.977 F1200
G0 Y53.54 F10800
G1 X118.56 Y22.3 E360.373 F1200
G0 X119.12 F10800
G1 X87.31 Y54.11 E361.794 F1200
G0 Y54.68 F10800
G1 X119.69 Y22.3 E363.241 F1200
G0 X120.25 F10800
G1 X87.31 Y55.24 E364.713 F1200
G0 Y55.81 F10800
G1 X120.82 Y22.3 E366.21 F1200
G0 X121.38 F10800
G1 X87.31 Y56.37 E367.733 F1200
G0 Y56.94 F10800
G1 X121.95 Y22.3 E369.281 F1200
G0 X122.52 F10800
G1 X87.31 Y57.5 E370.854 F1200
G0 Y58.07 F10800
G1 X123.08 Y22.3 E372.452 F1200
G0 X123.65 F10800
G1 X87.31 Y58.64 E374.076 F1200
G0 Y59.2 F10800
G1 X124.21 Y22.3 E375.725 F1200
G0 X124.78 F10800
G1 X87.31 Y59.77 E377.399 F1200
G0 Y60.33 F10800
G1 X125.34 Y22.3 E379.099 F1200
G0 X125.91 F10800
G1 X87.31 Y60.9 E380.823 F1200
G0 Y61.46 F10800
G1 X126.48 Y22.3 E382.574 F1200
G0 X127.04 F10800
G1 X87.31 Y62.03 E384.349 F1200
G0 Y62.6 F10800
G1 X127.61 Y22.3 E386.149 F1200
G0 X128.17 F10800
G1 X87.31 Y63.16 E387.975 F1200
G0 Y63.73 F10800
G1 X128.74 Y22.3 E389.827 F1200
G0 X129.3 F10800
G1 X87.31 Y64.29 E391.703 F1200
G0 Y64.86 F10800
G1 X129.87 Y22.3 E393.605 F1200
G0 X130.44 F10800
G1 X87.31 Y65.42 E395.532 F1200
G0 Y65.99 F10800
G1 X131 Y22.3 E397.484 F1200
G0 X131.57 F10800
G1 X87.31 Y66.56 E399.462 F1200
G0 Y67.12 F10800
G1 X132.13 Y22.3 E401.464 F1200
G0 X132.7 F10800
G1 X87.31 Y67.69 E403.493 F1200
G0 Y68.25 F10800
G1 X133.26 Y22.3 E405.546 F1200
G0 X133.83 F10800
G1 X87.31 Y68.82 E407.625 F1200
G0 Y69.38 F10800
G1 X134.39 Y22.3 E409.729 F1200
G0 X134.96 F10800
G1 X87.31 Y69.95 E411.858 F1200
G0 Y70.52 F10800
G1 X135.53 Y22.3 E414.012 F1200
G0 X136.09 F10800
G1 X87.31 Y71.08 E416.192 F1200
G0 Y71.65 F10800
G1 X136.66 Y22.3 E418.397 F1200
G0 X137.22 F10800
G1 X87.31 Y72.21 E420.628 F1200
G0 Y72.78 F10800
G1 X137.79 Y22.3 E422.883 F1200
G0 X138.35 F10800
G1 X87.31 Y73.34 E425.164 F1200
G0 Y73.91 F10800
G1 X138.92 Y22.3 E427.47 F1200
G0 X139.49 F10800
G1 X87.31 Y74.48 E429.802 F1200
G0 Y75.04 F10800
G1 X140.05 Y22.3 E432.158 F1200
G0 X140.62 F10800
G1 X87.31 Y75.61 E434.54 F1200
G0 Y76.17 F10800
G1 X141.18 Y22.3 E436.948 F1200
G0 X141.75 F10800
G1 X87.31 Y76.74 E439.38 F1200
G0 Y77.3 F10800
G1 X142.31 Y22.3 E441.838 F1200
G0 X142.88 F10800
G1 X87.31 Y77.87 E444.321 F1200
G0 Y78.44 F10800
G1 X143.45 Y22.3 E446.83 F1200
G0 X144.01 F10800
G1 X87.31 Y79 E449.363 F1200
G0 Y79.57 F10800
G1 X144.58 Y22.3 E451.922 F1200
G0 X145.14 F10800
G1 X87.31 Y80.13 E454.506 F1200
G0 Y80.7 F10800
G1 X145.71 Y22.3 E457.116 F1200
G0 X146.27 F10800
G1 X87.31 Y81.26 E459.751 F1200
G0 Y81.83 F10800
G1 X146.84 Y22.3 E462.411 F1200
G0 X147.41 F10800
G1 X87.31 Y82.39 E465.096 F1200
G0 Y82.96 F10800
G1 X147.97 Y22.3 E467.807 F1200
G0 X148.54 F10800
G1 X87.31 Y83.53 E470.543 F1200
G0 Y84.09 F10800
G1 X149.1 Y22.3 E473.304 F1200
G0 X149.67 F10800
G1 X87.31 Y84.66 E476.09 F1200
G0 Y85.22 F10800
G1 X150.23 Y22.3 E478.902 F1200
G0 X150.8 F10800
G1 X87.31 Y85.79 E481.739 F1200
G0 Y86.35 F10800
G1 X151.37 Y22.3 E484.601 F1200
G0 X151.93 F10800
G1 X87.31 Y86.92 E487.489 F1200
G0 Y87.49 F10800
G1 X152.5 Y22.3 E490.402 F1200
G0 X153.06 F10800
G1 X87.31 Y88.05 E493.34 F1200
G0 Y88.62 F10800
G1 X153.63 Y22.3 E496.303 F1200
G0 X154.19 F10800
G1 X87.31 Y89.18 E499.292 F1200
G0 Y89.75 F10800
G1 X154.76 Y22.3 E502.306 F1200
G0 X155.33 F10800
G1 X87.31 Y90.31 E505.345 F1200
G0 Y90.88 F10800
G1 X155.89 Y22.3 E508.41 F1200
G0 X156.46 F10800
G1 X87.31 Y91.45 E511.499 F1200
G0 Y92.01 F10800
G1 X157.02 Y22.3 E514.614 F1200
G0 X157.59 F10800
G1 X87.31 Y92.58 E517.755 F1200
G0 Y93.14 F10800
G1 X158.15 Y22.3 E520.92 F1200
G0 X158.72 F10800
G1 X87.31 Y93.71 E524.111 F1200
G0 Y94.27 F10800
G1 X159.28 Y22.3 E527.327 F1200
G0 X159.85 F10800
G1 X87.31 Y94.84 E530.569 F1200
G0 Y95.41 F10800
G1 X160.42 Y22.3 E533.836 F1200
G0 X160.98 F10800
G1 X87.31 Y95.97 E537.128 F1200
G0 Y96.54 F10800
G1 X161.55 Y22.3 E540.445 F1200
G0 X162.11 F10800
G1 X87.31 Y97.1 E543.787 F1200
G0 X87.31 Y97.67 F10800
G1 X162.68 Y22.3 E547.155 F1200
G0 X163.24 F10800
G1 X87.31 Y98.23 E550.548 F1200
G0 Y98.8 F10800
G1 X163.81 Y22.3 E553.967 F1200
G0 X164.38 F10800
G1 X87.31 Y99.36 E557.41 F1200
G0 Y99.93 F10800
G1 X164.94 Y22.3 E560.879 F1200
G0 X165.51 F10800
G1 X87.31 Y100.5 E564.373 F1200
G0 Y101.06 F10800
G1 X166.07 Y22.3 E567.893 F1200
G0 X166.64 F10800
G1 X87.31 Y101.63 E571.438 F1200
G0 Y102.19 F10800
G1 X167.2 Y22.3 E575.008 F1200
G0 X167.77 F10800
G1 X87.31 Y102.76 E578.603 F1200
G0 Y103.32 F10800
G1 X168.34 Y22.3 E582.223 F1200
G0 X168.9 F10800
G1 X87.31 Y103.89 E585.869 F1200
G0 Y104.46 F10800
G1 X169.47 Y22.3 E589.54 F1200
G0 X170.03 F10800
G1 X87.31 Y105.02 E593.237 F1200
G0 Y105.59 F10800
G1 X170.6 Y22.3 E596.959 F1200
G0 X171.16 F10800
G1 X87.31 Y106.15 E600.706 F1200
G0 Y106.72 F10800
G1 X171.73 Y22.3 E604.478 F1200
G0 X172.3 F10800
G1 X87.31 Y107.28 E608.275 F1200
G0 Y107.85 F10800
G1 X172.86 Y22.3 E612.098 F1200
G0 X173.43 F10800
G1 X87.31 Y108.42 E615.946 F1200
G0 Y108.98 F10800
G1 X173.99 Y22.3 E619.82 F1200
G0 X174.56 F10800
G1 X87.31 Y109.55 E623.718 F1200
G0 Y110.11 F10800
G1 X175.12 Y22.3 E627.642 F1200
G0 X175.69 F10800
G1 X87.31 Y110.68 E631.591 F1200
G0 Y111.24 F10800
G1 X176.26 Y22.3 E635.566 F1200
G0 X176.82 F10800
G1 X87.31 Y111.81 E639.565 F1200
G0 Y112.38 F10800
G1 X177.39 Y22.3 E643.59 F1200
G0 X177.95 F10800
G1 X87.31 Y112.94 E647.641 F1200
G0 Y113.51 F10800
G1 X178.52 Y22.3 E651.716 F1200
G0 X179.08 F10800
G1 X87.31 Y114.07 E655.817 F1200
G0 Y114.64 F10800
G1 X179.65 Y22.3 E659.943 F1200
G0 X180.22 F10800
G1 X87.31 Y115.2 E664.095 F1200
G1 E663.295 F2100
G0 Z0.8
G0 X157.7 Y45.38 F10800
G0 Z0.2
G1 E664.095 F2100
G1 X180.78 Y22.3 E665.126 F1200
G0 X181.2 Y22.45 F10800
G1 X158.64 Y45.01 E666.134 F1200
G0 X159.41 Y44.8 F10800
G1 X181.2 Y23.01 E667.108 F1200
G0 Y23.58 F10800
G1 X160.04 Y44.74 E668.053 F1200
G0 X160.64 Y44.7 F10800
G1 X181.2 Y24.14 E668.972 F1200
G0 Y24.71 F10800
G1 X161.21 Y44.7 E669.865 F1200
G0 X161.78 F10800
G1 X181.2 Y25.28 E670.733 F1200
G0 Y25.84 F10800
G1 X162.34 Y44.7 E671.576 F1200
G0 X162.91 F10800
G1 X181.2 Y26.41 E672.393 F1200
G0 Y26.97 F10800
G1 X163.47 Y44.7 E673.185 F1200
G0 X164.04 F10800
G1 X181.2 Y27.54 E673.952 F1200
G0 Y28.1 F10800
G1 X164.6 Y44.7 E674.694 F1200
G0 X165.17 F10800
G1 X181.2 Y28.67 E675.41 F1200
G0 Y29.24 F10800
G1 X165.74 Y44.7 E676.101 F1200
G0 X166.3 F10800
G1 X181.2 Y29.8 E676.767 F1200
G0 Y30.37 F10800
G1 X166.87 Y44.7 E677.407 F1200
G0 X167.43 F10800
G1 X181.2 Y30.93 E678.022 F1200
G0 Y31.5 F10800
G1 X168 Y44.7 E678.612 F1200
G0 X168.56 F10800
G1 X181.2 Y32.06 E679.177 F1200
G0 Y32.63 F10800
G1 X169.13 Y44.7 E679.716 F1200
G0 X169.7 F10800
G1 X181.2 Y33.2 E680.23 F1200
G0 Y33.76 F10800
G1 X170.26 Y44.7 E680.719 F1200
G0 X170.83 F10800
G1 X181.2 Y34.33 E681.182 F1200
G0 Y34.89 F10800
G1 X171.39 Y44.7 E681.621 F1200
G0 X171.96 F10800
G1 X181.2 Y35.46 E682.033 F1200
G0 Y36.02 F10800
G1 X172.52 Y44.7 E682.421 F1200
G0 X173.09 F10800
G1 X181.2 Y36.59 E682.783 F1200
G0 Y37.16 F10800
G1 X173.65 Y44.7 E683.121 F1200
G0 X174.22 F10800
G1 X181.2 Y37.72 E683.432 F1200
G0 Y38.29 F10800
G1 X174.79 Y44.7 E683.719 F1200
G0 X175.35 F10800
G1 X181.2 Y38.85 E683.98 F1200
G0 Y39.42 F10800
G1 X175.92 Y44.7 E684.216 F1200
G0 X176.48 F10800
G1 X181.2 Y39.98 E684.427 F1200
G0 Y40.55 F10800
G1 X177.05 Y44.7 E684.612 F1200
G0 X177.63 Y44.68 F10800
G1 X181.18 Y41.13 E684.771 F1200
G0 X181.11 Y41.77 F10800
G1 X178.27 Y44.61 E684.897 F1200
G0 X179.17 Y44.27 F10800
G1 X180.77 Y42.67 E684.969 F1200
G1 E684.169 F2100
G0 Z0.8
G0 X164.38 Y45.01 F10800
G0 X159.52 Y45.2
G0 X156.9 Y46.54
G0 X154.88 Y48.2
G0 Z0.2
G1 E684.969 F2100
G1 X87.31 Y115.77 E687.988 F1200
G0 Y116.34 F10800
G1 X154.5 Y49.14 E690.99 F1200
G0 X154.3 Y49.91 F10800
G1 X87.31 Y116.9 E693.984 F1200
G0 Y117.47 F10800
G1 X154.24 Y50.54 E696.974 F1200
G0 X154.2 Y51.14 F10800
G1 X87.31 Y118.03 E699.963 F1200
G0 Y118.6 F10800
G1 X154.2 Y51.71 E702.952 F1200
G0 Y52.28 F10800
G1 X87.31 Y119.16 E705.941 F1200
G0 Y119.73 F10800
G1 X154.2 Y52.84 E708.93 F1200
G0 Y53.41 F10800
G1 X87.31 Y120.3 E711.919 F1200
G0 Y120.86 F10800
G1 X154.2 Y53.97 E714.908 F1200
G0 Y54.54 F10800
G1 X87.31 Y121.43 E717.897 F1200
G0 Y121.99 F10800
G1 X154.2 Y55.1 E720.886 F1200
G0 Y55.67 F10800
G1 X87.31 Y122.56 E723.875 F1200
G0 X87.74 Y122.7 F10800
G1 X154.2 Y56.24 E726.845 F1200
G0 Y56.8 F10800
G1 X88.3 Y122.7 E729.789 F1200
G0 X88.87 F10800
G1 X154.2 Y57.37 E732.709 F1200
G0 Y57.93 F10800
G1 X89.43 Y122.7 E735.603 F1200
G0 X90 F10800
G1 X154.2 Y58.5 E738.472 F1200
G0 Y59.06 F10800
G1 X90.56 Y122.7 E741.315 F1200
G0 X91.13 F10800
G1 X154.2 Y59.63 E744.133 F1200
G0 Y60.2 F10800
G1 X91.7 Y122.7 E746.926 F1200
G0 X92.26 F10800
G1 X154.2 Y60.76 E749.694 F1200
G0 Y61.33 F10800
G1 X92.83 Y122.7 E752.437 F1200
G0 X93.39 F10800
G1 X154.2 Y61.89 E755.154 F1200
G0 Y62.46 F10800
G1 X93.96 Y122.7 E757.846 F1200
G0 X94.52 F10800
G1 X154.2 Y63.02 E760.512 F1200
G0 Y63.59 F10800
G1 X95.09 Y122.7 E763.154 F1200
G0 X95.66 F10800
G1 X154.2 Y64.16 E765.77 F1200
G0 Y64.72 F10800
G1 X96.22 Y122.7 E768.36 F1200
G0 X96.79 F10800
G1 X154.2 Y65.29 E770.926 F1200
G0 Y65.85 F10800
G1 X97.35 Y122.7 E773.466 F1200
G0 X97.92 F10800
G1 X154.2 Y66.42 E775.981 F1200
G0 Y66.98 F10800
G1 X98.48 Y122.7 E778.471 F1200
G0 X99.05 F10800
G1 X154.2 Y67.55 E780.935 F1200
G0 Y68.11 F10800
G1 X99.62 Y122.7 E783.374 F1200
G0 X100.18 F10800
G1 X154.2 Y68.68 E785.788 F1200
G0 Y69.25 F10800
G1 X100.75 Y122.7 E788.177 F1200
G0 X101.31 F10800
G1 X154.2 Y69.81 E790.54 F1200
G0 Y70.38 F10800
G1 X101.88 Y122.7 E792.878 F1200
G0 X102.44 F10800
G1 X154.2 Y70.94 E795.191 F1200
G0 Y71.51 F10800
G1 X103.01 Y122.7 E797.478 F1200
G0 X103.57 F10800
G1 X154.2 Y72.07 E799.74 F1200
G0 Y72.64 F10800
G1 X104.14 Y122.7 E801.977 F1200
G0 X104.71 F10800
G1 X154.2 Y73.21 E804.189 F1200
G0 Y73.77 F10800
G1 X105.27 Y122.7 E806.375 F1200
G0 X105.84 F10800
G1 X154.2 Y74.34 E808.536 F1200
G0 Y74.9 F10800
G1 X106.4 Y122.7 E810.672 F1200
G0 X106.97 F10800
G1 X154.2 Y75.47 E812.782 F1200
G0 Y76.03 F10800
G1 X107.53 Y122.7 E814.868 F1200
G0 X108.1 F10800
G1 X154.2 Y76.6 E816.928 F1200
G0 Y77.17 F10800
G1 X108.67 Y122.7 E818.962 F1200
G0 X109.23 F10800
G1 X154.2 Y77.73 E820.972 F1200
G0 Y78.3 F10800
G1 X109.8 Y122.7 E822.956 F1200
G0 X110.36 F10800
G1 X154.2 Y78.86 E824.915 F1200
G0 Y79.43 F10800
G1 X110.93 Y122.7 E826.848 F1200
G0 X111.49 F10800
G1 X154.2 Y79.99 E828.756 F1200
G0 Y80.56 F10800
G1 X112.06 Y122.7 E830.639 F1200
G0 X112.63 F10800
G1 X154.2 Y81.13 E832.497 F1200
G0 Y81.69 F10800
G1 X113.19 Y122.7 E834.33 F1200
G0 X113.76 F10800
G1 X154.2 Y82.26 E836.137 F1200
G0 Y82.82 F10800
G1 X114.32 Y122.7 E837.919 F1200
G0 X114.89 F10800
G1 X154.2 Y83.39 E839.675 F1200
G0 Y83.95 F10800
G1 X115.45 Y122.7 E841.407 F1200
G0 X116.02 F10800
G1 X154.2 Y84.52 E843.113 F1200
G0 Y85.09 F10800
G1 X116.59 Y122.7 E844.794 F1200
G0 X117.15 F10800
G1 X154.2 Y85.65 E846.449 F1200
G0 Y86.22 F10800
G1 X117.72 Y122.7 E848.079 F1200
G0 X118.28 F10800
G1 X154.2 Y86.78 E849.684 F1200
G0 X154.2 Y87.35 F10800
G1 X118.85 Y122.7 E851.264 F1200
G0 X119.41 F10800
G1 X154.2 Y87.91 E852.818 F1200
G0 Y88.48 F10800
G1 X119.98 Y122.7 E854.347 F1200
G0 X120.55 F10800
G1 X154.2 Y89.05 E855.851 F1200
G0 Y89.61 F10800
G1 X121.11 Y122.7 E857.33 F1200
G0 X121.68 F10800
G1 X154.2 Y90.18 E858.783 F1200
G0 Y90.74 F10800
G1 X122.24 Y122.7 E860.211 F1200
G0 X122.81 F10800
G1 X154.2 Y91.31 E861.614 F1200
G0 Y91.87 F10800
G1 X123.37 Y122.7 E862.991 F1200
G0 X123.94 F10800
G1 X154.2 Y92.44 E864.343 F1200
G0 Y93.01 F10800
G1 X124.5 Y122.7 E865.67 F1200
G0 X125.07 F10800
G1 X154.2 Y93.57 E866.972 F1200
G0 Y94.14 F10800
G1 X125.64 Y122.7 E868.248 F1200
G0 X126.2 F10800
G1 X154.2 Y94.7 E869.499 F1200
G0 Y95.27 F10800
G1 X126.77 Y122.7 E870.725 F1200
G0 X127.33 F10800
G1 X154.2 Y95.83 E871.925 F1200
G0 Y96.4 F10800
G1 X127.9 Y122.7 E873.1 F1200
G0 X128.46 F10800
G1 X154.2 Y96.97 E874.25 F1200
G0 Y97.53 F10800
G1 X129.03 Y122.7 E875.375 F1200
G0 X129.6 F10800
G1 X154.2 Y98.1 E876.474 F1200
G0 Y98.66 F10800
G1 X130.16 Y122.7 E877.548 F1200
G0 X130.73 F10800
G1 X154.2 Y99.23 E878.597 F1200
G0 Y99.79 F10800
G1 X131.29 Y122.7 E879.621 F1200
G0 X131.86 F10800
G1 X154.2 Y100.36 E880.619 F1200
G0 Y100.93 F10800
G1 X132.42 Y122.7 E881.592 F1200
G0 X132.99 F10800
G1 X154.2 Y101.49 E882.54 F1200
G0 Y102.06 F10800
G1 X133.56 Y122.7 E883.462 F1200
G0 X134.12 F10800
G1 X154.2 Y102.62 E884.359 F1200
G0 Y103.19 F10800
G1 X134.69 Y122.7 E885.231 F1200
G0 X135.25 F10800
G1 X154.2 Y103.75 E886.078 F1200
G0 Y104.32 F10800
G1 X135.82 Y122.7 E886.899 F1200
G0 X136.38 F10800
G1 X154.2 Y104.89 E887.695 F1200
G0 Y105.45 F10800
G1 X136.95 Y122.7 E888.466 F1200
G0 X137.52 F10800
G1 X154.2 Y106.02 E889.211 F1200
G0 Y106.58 F10800
G1 X138.08 Y122.7 E889.932 F1200
G0 X138.65 F10800
G1 X154.2 Y107.15 E890.627 F1200
G0 Y107.71 F10800
G1 X139.21 Y122.7 E891.296 F1200
G0 X139.78 F10800
G1 X154.2 Y108.28 E891.941 F1200
G0 Y108.84 F10800
G1 X140.34 Y122.7 E892.56 F1200
G0 X140.91 F10800
G1 X154.2 Y109.41 E893.153 F1200
G0 Y109.98 F10800
G1 X141.48 Y122.7 E893.722 F1200
G0 X142.04 F10800
G1 X154.2 Y110.54 E894.265 F1200
G0 Y111.11 F10800
G1 X142.61 Y122.7 E894.783 F1200
G0 X143.17 F10800
G1 X154.2 Y111.67 E895.276 F1200
G0 Y112.24 F10800
G1 X143.74 Y122.7 E895.743 F1200
G0 X144.3 F10800
G1 X154.2 Y112.8 E896.186 F1200
G0 Y113.37 F10800
G1 X144.87 Y122.7 E896.602 F1200
G0 X145.43 F10800
G1 X154.2 Y113.94 E896.994 F1200
G0 Y114.5 F10800
G1 X146 Y122.7 E897.36 F1200
G0 X146.57 F10800
G1 X154.2 Y115.07 E897.701 F1200
G0 Y115.63 F10800
G1 X147.13 Y122.7 E898.017 F1200
G0 X147.7 F10800
G1 X154.2 Y116.2 E898.308 F1200
G0 Y116.76 F10800
G1 X148.26 Y122.7 E898.573 F1200
G0 X148.83 F10800
G1 X154.2 Y117.33 E898.813 F1200
G0 Y117.9 F10800
G1 X149.39 Y122.7 E899.027 F1200
G0 X149.96 F10800
G1 X154.2 Y118.46 E899.217 F1200
G0 Y119.03 F10800
G1 X150.53 Y122.7 E899.381 F1200
G0 X151.09 F10800
G1 X154.2 Y119.59 E899.52 F1200
G0 Y120.16 F10800
G1 X151.66 Y122.7 E899.633 F1200
G0 X152.22 F10800
G1 X154.2 Y120.72 E899.722 F1200
G0 Y121.29 F10800
G1 X152.79 Y122.7 E899.785 F1200
G0 X153.35 F10800
G1 X154.2 Y121.86 E899.822 F1200
G0 Y122.42 F10800
G1 X153.92 Y122.7 E899.835 F1200
; Layer Change GCode
; LAYER:1
; LAYER_HEIGHT:0.2
; TYPE:FILL
G1 E899.035 F2100
G0 Z0.8
G0 Z1 F10800
G0 X154.01 Y113.59
G0 X154.09 Y104.48
G0 X154.18 Y95.37
G0 X154.27 Y86.26
G0 X154.35 Y77.15
G0 X154.44 Y68.05
G0 X154.52 Y58.94
G0 X154.61 Y49.83
; TYPE:WALL-INNER
G0 Z0.4
G1 E899.835 F2100
G1 X154.5 Y50.95 E899.87 F2700
G1 Y55.75 E900.022
G1 Y60.56 E900.174
G1 Y65.36 E900.326
G1 Y70.16 E900.477
G1 Y74.97 E900.629
G1 Y79.77 E900.781
G1 Y84.57 E900.933
G1 Y89.38 E901.084
G1 Y94.18 E901.236
G1 Y98.98 E901.388
G1 Y103.79 E901.54
G1 Y108.59 E901.692
G1 Y113.39 E901.843
G1 Y118.2 E901.995
G1 Y123 E902.147
G1 X149.63 E902.301
G1 X144.76 E902.454
G1 X139.9 E902.608
G1 X135.03 E902.762
G1 X130.16 E902.916
G1 X125.29 E903.07
G1 X120.43 E903.224
G1 X115.56 E903.377
G1 X110.69 E903.531
G1 X105.82 E903.685
G1 X100.95 E903.839
G1 X96.09 E903.993
G1 X91.22 E904.146
G1 X86.35 E904.3
G1 Y118.19 E904.452
G1 Y113.38 E904.604
G1 Y108.57 E904.756
G1 Y103.76 E904.908
G1 Y98.95 E905.06
G1 Y94.14 E905.212
G1 Y89.33 E905.364
G1 Y84.52 E905.516
G1 Y79.71 E905.668
G1 Y74.9 E905.82
G1 Y70.1 E905.972
G1 Y65.29 E906.124
G1 Y60.48 E906.276
G1 Y55.67 E906.428
G1 Y50.86 E906.58
G1 Y46.05 E906.732
G1 Y41.24 E906.884
G1 Y36.43 E907.036
G1 Y31.62 E907.188
G1 Y26.81 E907.34
G1 Y22 E907.492
G1 X91.11 E907.642
G1 X95.87 E907.792
G1 X100.62 E907.942
G1 X105.38 E908.093
G1 X110.14 E908.243
G1 X114.9 E908.393
G1 X119.65 E908.544
G1 X124.41 E908.694
G1 X129.17 E908.844
G1 X133.93 E908.995
G1 X138.68 E909.145
G1 X143.44 E909.295
G1 X148.2 E909.446
G1 X152.96 E909.596
G1 X157.71 E909.746
G1 X162.47 E909.897
G1 X167.23 E910.047
G1 X171.99 E910.197
G1 X176.74 E910.348
G1 X181.5 E910.498
G1 Y26.74 E910.648
G1 Y31.48 E910.797
G1 Y36.21 E910.947
G1 Y40.95 E911.097
G1 X181.42 Y41.78 E911.123
G1 X181.19 Y42.53 E911.148
G1 X180.82 Y43.22 E911.173
G1 X180.33 Y43.83 E911.197
G1 X179.72 Y44.32 E911.222
G1 X179.03 Y44.69 E911.247
G1 X178.28 Y44.92 E911.272
G1 X177.45 Y45 E911.298
G1 X173.2 E911.432
G1 X168.95 E911.566
G1 X164.7 E911.701
G1 X160.45 E911.835
G1 X159.33 Y45.11 E911.871
G1 X158.2 Y45.45 E911.908
G1 X157.16 Y46.01 E911.945
G1 X156.25 Y46.75 E911.982
G1 X155.51 Y47.66 E912.019
G1 X154.95 Y48.7 E912.057
G1 X154.65 Y49.71 E912.09
G0 X154.61 Y49.83
G0 X155.01 Y49.91 F10800
G1 X154.9 Y50.97 E912.124 F2700
G1 Y55.8 E912.276
G1 Y60.63 E912.429
G1 Y65.46 E912.581
G1 Y70.29 E912.734
G1 Y75.11 E912.887
G1 Y79.94 E913.039
G1 Y84.77 E913.192
G1 Y89.6 E913.344
G1 Y94.43 E913.497
G1 Y99.26 E913.649
G1 Y104.09 E913.802
G1 Y108.91 E913.955
G1 Y113.74 E914.107
G1 Y118.57 E914.26
G1 Y123.4 E914.412
G1 X149.98 E914.568
G1 X145.05 E914.724
G1 X140.13 E914.879
G1 X135.2 E915.035
G1 X130.28 E915.19
G1 X125.35 E915.346
G1 X120.43 E915.502
G1 X115.5 E915.657
G1 X110.58 E915.813
G1 X105.65 E915.968
G1 X100.73 E916.124
G1 X95.8 E916.28
G1 X90.88 E916.435
G1 X85.95 E916.591
G1 Y118.55 E916.744
G1 Y113.7 E916.897
G1 Y108.86 E917.05
G1 Y104.01 E917.204
G1 Y99.16 E917.357
G1 Y94.31 E917.51
G1 Y89.47 E917.663
G1 Y84.62 E917.816
G1 Y79.77 E917.969
G1 Y74.92 E918.123
G1 Y70.08 E918.276
G1 Y65.23 E918.429
G1 Y60.38 E918.582
G1 Y55.53 E918.735
G1 Y50.69 E918.888
G1 Y45.84 E919.042
G1 Y40.99 E919.195
G1 Y36.14 E919.348
G1 Y31.3 E919.501
G1 Y26.45 E919.654
G1 Y21.6 E919.808
G1 X90.75 E919.959
G1 X95.55 E920.111
G1 X100.34 E920.262
G1 X105.14 E920.414
G1 X109.94 E920.565
G1 X114.74 E920.717
G1 X119.53 E920.869
G1 X124.33 E921.02
G1 X129.13 E921.172
G1 X133.93 E921.323
G1 X138.72 E921.475
G1 X143.52 E921.627
G1 X148.32 E921.778
G1 X153.12 E921.93
G1 X157.91 E922.081
G1 X162.71 E922.233
G1 X167.51 E922.385
G1 X172.31 E922.536
G1 X177.1 E922.688
G1 X181.9 E922.839
G1 Y26.44 E922.992
G1 Y31.29 E923.145
G1 Y36.13 E923.298
G1 Y40.97 E923.451
G1 X181.81 Y41.86 E923.48
G1 X181.56 Y42.68 E923.507
G1 X181.16 Y43.44 E923.534
G1 X180.61 Y44.11 E923.561
G1 X179.94 Y44.66 E923.589
G1 X179.18 Y45.06 E923.616
G1 X178.36 Y45.31 E923.643
G1 X177.47 Y45.4 E923.671
G1 X173.22 E923.805
G1 X168.97 E923.94
G1 X164.72 E924.074
G1 X160.47 E924.208
G1 X159.41 Y45.51 E924.242
G1 X158.36 Y45.82 E924.277
G1 X157.39 Y46.34 E924.311
G1 X156.54 Y47.04 E924.346
G1 X155.84 Y47.89 E924.381
G1 X155.32 Y48.86 E924.415
G1 X155.04 Y49.79 E924.446
G0 X155.01 Y49.91
G0 X155.4 Y49.99 F10800
; TYPE:WALL-OUTER
G1 X155.3 Y50.99 E924.478 F2100
G1 Y55.84 E924.632
G1 Y60.7 E924.785
G1 Y65.55 E924.938
G1 Y70.41 E925.092
G1 Y75.26 E925.245
G1 Y80.11 E925.399
G1 Y84.97 E925.552
G1 Y89.82 E925.705
G1 Y94.68 E925.859
G1 Y99.53 E926.012
G1 Y104.38 E926.165
G1 Y109.24 E926.319
G1 Y114.09 E926.472
G1 Y118.95 E926.626
G1 Y123.8 E926.779
G1 X150.32 E926.936
G1 X145.34 E927.094
G1 X140.35 E927.251
G1 X135.37 E927.409
G1 X130.39 E927.566
G1 X125.41 E927.723
G1 X120.43 E927.881
G1 X115.44 E928.038
G1 X110.46 E928.196
G1 X105.48 E928.353
G1 X100.5 E928.511
G1 X95.51 E928.668
G1 X90.53 E928.825
G1 X85.55 E928.983
G1 Y118.91 E929.137
G1 Y114.03 E929.292
G1 Y109.14 E929.446
G1 Y104.26 E929.6
G1 Y99.37 E929.755
G1 Y94.49 E929.909
G1 Y89.6 E930.063
G1 Y84.71 E930.218
G1 Y79.83 E930.372
G1 Y74.94 E930.527
G1 Y70.06 E930.681
G1 Y65.17 E930.835
G1 Y60.29 E930.99
G1 Y55.4 E931.144
G1 Y50.51 E931.298
G1 Y45.63 E931.453
G1 Y40.74 E931.607
G1 Y35.86 E931.762
G1 Y30.97 E931.916
G1 Y26.09 E932.07
G1 Y21.2 E932.225
G1 X90.39 E932.378
G1 X95.23 E932.53
G1 X100.06 E932.683
G1 X104.9 E932.836
G1 X109.74 E932.989
G1 X114.58 E933.142
G1 X119.41 E933.295
G1 X124.25 E933.447
G1 X129.09 E933.6
G1 X133.93 E933.753
G1 X138.76 E933.906
G1 X143.6 E934.059
G1 X148.44 E934.212
G1 X153.28 E934.365
G1 X158.11 E934.517
G1 X162.95 E934.67
G1 X167.79 E934.823
G1 X172.63 E934.976
G1 X177.46 E935.129
G1 X182.3 E935.282
G1 Y26.15 E935.438
G1 Y31.1 E935.594
G1 Y36.04 E935.751
G1 Y40.99 E935.907
G1 X182.21 Y41.94 E935.937
G1 X181.93 Y42.84 E935.967
G1 X181.49 Y43.66 E935.996
G1 X180.89 Y44.39 E936.026
G1 X180.16 Y44.99 E936.056
G1 X179.34 Y45.43 E936.086
G1 X178.44 Y45.71 E936.115
G1 X177.49 Y45.8 E936.145
G1 X173.24 E936.28
G1 X168.99 E936.414
G1 X164.74 E936.548
G1 X160.49 E936.683
G1 X159.49 Y45.9 E936.714
G1 X158.51 Y46.19 E936.747
G1 X157.61 Y46.68 E936.779
G1 X156.82 Y47.32 E936.811
G1 X156.18 Y48.11 E936.843
G1 X155.69 Y49.01 E936.876
G1 X155.43 Y49.87 E936.904
G0 X155.4 Y49.99
G0 X155.3 Y50.99
G0 Y52.98
G0 X154.61 Y49.83 F10800
G1 E936.104 F2100
G0 Z1
G0 X155.43 Y48.09 F10800
G0 X158.11 Y45.67
G0 X160.94 Y43.4
G0 X167.69 Y36.53
G0 X174.45 Y29.67
G0 X181.2 Y22.81
; TYPE:FILL
G0 Z0.4
G1 E936.904 F2100
G1 X180.69 Y22.3 E936.927 F12000
G0 X180.13 F10800
G1 X181.2 Y23.37 E936.975 F12000
G0 Y23.94 F10800
G1 X179.56 Y22.3 E937.048 F12000
G0 X178.99 F10800
G1 X181.2 Y24.5 E937.146 F12000
G0 Y25.07 F10800
G1 X178.43 Y22.3 E937.27 F12000
G0 X177.86 F10800
G1 X181.2 Y25.64 E937.419 F12000
G0 Y26.2 F10800
G1 X177.3 Y22.3 E937.594 F12000
G0 X176.73 F10800
G1 X181.2 Y26.77 E937.793 F12000
G0 Y27.33 F10800
G1 X176.17 Y22.3 E938.018 F12000
G0 X175.6 F10800
G1 X181.2 Y27.9 E938.268 F12000
G0 Y28.46 F10800
G1 X175.04 Y22.3 E938.544 F12000
G0 X174.47 F10800
G1 X181.2 Y29.03 E938.844 F12000
G0 Y29.6 F10800
G1 X173.9 Y22.3 E939.17 F12000
G0 X173.34 F10800
G1 X181.2 Y30.16 E939.522 F12000
G0 Y30.73 F10800
G1 X172.77 Y22.3 E939.898 F12000
G0 X172.21 F10800
G1 X181.2 Y31.29 E940.3 F12000
G0 X181.2 Y31.86 F10800
G1 X171.64 Y22.3 E940.727 F12000
G0 X171.08 F10800
G1 X181.2 Y32.42 E941.18 F12000
G0 Y32.99 F10800
G1 X170.51 Y22.3 E941.657 F12000
G0 X169.94 F10800
G1 X181.2 Y33.56 E942.16 F12000
G0 Y34.12 F10800
G1 X169.38 Y22.3 E942.688 F12000
G0 X168.81 F10800
G1 X181.2 Y34.69 E943.242 F12000
G0 Y35.25 F10800
G1 X168.25 Y22.3 E943.82 F12000
G0 X167.68 F10800
G1 X181.2 Y35.82 E944.424 F12000
G0 Y36.38 F10800
G1 X167.12 Y22.3 E945.054 F12000
G0 X166.55 F10800
G1 X173.87 Y29.62 E945.381 F12000
G1 X181.2 Y36.95 E945.708
G0 X181.2 Y37.51 F10800
G1 X173.59 Y29.91 E946.048 F12000
G1 X165.98 Y22.3 E946.388
G0 X165.42 F10800
G1 X173.31 Y30.19 E946.741 F12000
G1 X181.2 Y38.08 E947.093
G0 X181.2 Y38.65 F10800
G1 X173.03 Y30.47 E947.459 F12000
G1 X164.85 Y22.3 E947.824
G0 X164.29 F10800
G1 X172.74 Y30.76 E948.202 F12000
G1 X181.2 Y39.21 E948.579
G0 X181.2 Y39.78 F10800
G1 X172.46 Y31.04 E948.97 F12000
G1 X163.72 Y22.3 E949.36
G0 X163.16 F10800
G1 X172.18 Y31.32 E949.764 F12000
G1 X181.2 Y40.34 E950.167
G0 X181.2 Y40.91 F10800
G1 X171.89 Y31.6 E950.582 F12000
G1 X162.59 Y22.3 E950.998
G0 X162.02 F10800
G1 X171.59 Y31.86 E951.425 F12000
G1 X181.15 Y41.43 E951.853
G0 X181.07 Y41.91 F10800
G1 X171.26 Y32.1 E952.291 F12000
G1 X161.46 Y22.3 E952.729
G0 X160.89 F10800
G1 X170.91 Y32.32 E953.177 F12000
G1 X180.93 Y42.34 E953.624
G0 X180.75 Y42.72 F10800
G1 X170.54 Y32.51 E954.081 F12000
G1 X160.33 Y22.3 E954.537
G0 X159.76 F10800
G1 X170.15 Y32.69 E955.001 F12000
G1 X180.54 Y43.08 E955.466
G0 X180.29 Y43.39 F10800
G1 X169.74 Y32.85 E955.937 F12000
G1 X159.2 Y22.3 E956.408
G0 X158.63 F10800
G1 X165.76 Y29.43 E956.727 F12000
G1 X172.89 Y36.56 E957.045
G1 X180.02 Y43.69 E957.364
G0 X179.71 Y43.94 F10800
G1 X172.49 Y36.73 E957.686 F12000
G1 X165.28 Y29.51 E958.009
G1 X158.06 Y22.3 E958.331
G0 X157.5 F10800
G1 X164.79 Y29.59 E958.657 F12000
G1 X172.08 Y36.88 E958.982
G1 X179.37 Y44.17 E959.308
G0 X179 Y44.37 F10800
G1 X171.64 Y37.01 E959.637 F12000
G1 X164.29 Y29.66 E959.965
G1 X156.93 Y22.3 E960.294
G0 X156.37 F10800
G1 X163.77 Y29.7 E960.625 F12000
G1 X171.18 Y37.11 E960.956
G1 X178.58 Y44.51 E961.287
G0 X178.13 Y44.63 F10800
G1 X170.69 Y37.19 E961.619 F12000
G1 X163.25 Y29.74 E961.952
G1 X155.8 Y22.3 E962.285
G0 X155.24 F10800
G1 X162.7 Y29.76 E962.618 F12000
G1 X170.16 Y37.22 E962.951
G1 X177.62 Y44.68 E963.285
G0 X177.07 Y44.7 F10800
G1 X169.6 Y37.23 E963.618 F12000
G1 X162.14 Y29.77 E963.952
G1 X154.67 Y22.3 E964.286
G0 X154.1 F10800
G1 X161.57 Y29.77 E964.619 F12000
G1 X169.04 Y37.23 E964.953
G1 X176.5 Y44.7 E965.287
G0 X175.94 Y44.7 F10800
G1 X168.47 Y37.23 E965.62 F12000
G1 X161.01 Y29.77 E965.954
G1 X153.54 Y22.3 E966.287
G0 X152.97 F10800
G1 X160.44 Y29.77 E966.621 F12000
G1 X167.91 Y37.23 E966.955
G1 X175.37 Y44.7 E967.288
G0 X174.81 Y44.7 F10800
G1 X167.34 Y37.23 E967.622 F12000
G1 X159.87 Y29.77 E967.956
G1 X152.41 Y22.3 E968.289
G0 X151.84 F10800
G1 X159.31 Y29.77 E968.623 F12000
G1 X166.77 Y37.23 E968.957
G1 X174.24 Y44.7 E969.29
G0 X173.68 Y44.7 F10800
G1 X166.21 Y37.23 E969.624 F12000
G1 X158.74 Y29.77 E969.958
G1 X151.28 Y22.3 E970.291
G0 X150.71 F10800
G1 X158.18 Y29.77 E970.625 F12000
G1 X165.64 Y37.23 E970.958
G1 X173.11 Y44.7 E971.292
G0 X172.54 Y44.7 F10800
G1 X165.08 Y37.23 E971.626 F12000
G1 X157.61 Y29.77 E971.959
G1 X150.14 Y22.3 E972.293
G0 X149.58 F10800
G1 X157.05 Y29.77 E972.627 F12000
G1 X164.51 Y37.23 E972.96
G1 X171.98 Y44.7 E973.294
G0 X171.41 Y44.7 F10800
G1 X163.95 Y37.23 E973.628 F12000
G1 X156.48 Y29.77 E973.961
G1 X149.01 Y22.3 E974.295
G0 X148.45 F10800
G1 X155.91 Y29.77 E974.629 F12000
G1 X163.38 Y37.23 E974.962
G1 X170.85 Y44.7 E975.296
G0 X170.28 Y44.7 F10800
G1 X162.81 Y37.23 E975.629 F12000
G1 X155.35 Y29.77 E975.963
G1 X147.88 Y22.3 E976.297
G0 X147.32 F10800
G1 X154.78 Y29.77 E976.63 F12000
G1 X162.25 Y37.23 E976.964
G1 X169.72 Y44.7 E977.298
G0 X169.15 Y44.7 F10800
G1 X161.68 Y37.23 E977.631 F12000
G1 X154.22 Y29.77 E977.965
G1 X146.75 Y22.3 E978.299
G0 X146.19 F10800
G1 X153.65 Y29.77 E978.632 F12000
G1 X161.12 Y37.23 E978.966
G1 X168.58 Y44.7 E979.299
G0 X168.02 Y44.7 F10800
G1 X160.55 Y37.23 E979.633 F12000
G1 X153.09 Y29.77 E979.967
G1 X145.62 Y22.3 E980.3
G0 X145.05 F10800
G1 X152.52 Y29.77 E980.634 F12000
G1 X159.99 Y37.23 E980.968
G1 X167.45 Y44.7 E981.301
G0 X166.89 Y44.7 F10800
G1 X159.42 Y37.23 E981.635 F12000
G1 X151.95 Y29.77 E981.969
G1 X144.49 Y22.3 E982.302
G0 X143.92 F10800
G1 X151.39 Y29.77 E982.636 F12000
G1 X158.86 Y37.23 E982.969
G1 X166.32 Y44.7 E983.303
G0 X165.76 Y44.7 F10800
G1 X158.29 Y37.23 E983.637 F12000
G1 X150.82 Y29.77 E983.97
G1 X143.36 Y22.3 E984.304
G0 X142.79 F10800
G1 X150.26 Y29.77 E984.638 F12000
G1 X157.72 Y37.23 E984.971
G1 X165.19 Y44.7 E985.305
G0 X164.63 Y44.7 F10800
G1 X157.16 Y37.23 E985.639 F12000
G1 X149.69 Y29.77 E985.972
G1 X142.23 Y22.3 E986.306
G0 X141.66 F10800
G1 X149.13 Y29.77 E986.64 F12000
G1 X156.59 Y37.23 E986.973
G1 X164.06 Y44.7 E987.307
G0 X163.49 Y44.7 F10800
G1 X156.03 Y37.23 E987.64 F12000
G1 X148.56 Y29.77 E987.974
G1 X141.09 Y22.3 E988.308
G0 X140.53 F10800
G1 X147.99 Y29.77 E988.641 F12000
G1 X155.46 Y37.23 E988.975
G1 X162.93 Y44.7 E989.309
G0 X162.36 Y44.7 F10800
G1 X154.9 Y37.23 E989.642 F12000
G1 X147.43 Y29.77 E989.976
G1 X139.96 Y22.3 E990.31
G0 X139.4 F10800
G1 X146.86 Y29.77 E990.643 F12000
G1 X154.33 Y37.23 E990.977
G1 X161.8 Y44.7 E991.31
G0 X161.23 Y44.7 F10800
G1 X153.76 Y37.23 E991.644 F12000
G1 X146.3 Y29.77 E991.978
G1 X138.83 Y22.3 E992.311
G0 X138.27 F10800
G1 X145.73 Y29.77 E992.645 F12000
G1 X153.2 Y37.23 E992.979
G1 X160.67 Y44.7 E993.312
G0 X160.13 Y44.73 F10800
G1 X152.65 Y37.25 E993.646 F12000
G1 X145.18 Y29.78 E993.98
G1 X137.7 Y22.3 E994.315
G0 X137.13 F10800
G1 X144.63 Y29.79 E994.649 F12000
G1 X152.12 Y37.29 E994.984
G1 X159.62 Y44.78 E995.319
G0 X159.13 Y44.86 F10800
G1 X151.61 Y37.34 E995.655 F12000
G1 X144.09 Y29.82 E995.991
G1 X136.57 Y22.3 E996.327
G0 X136 F10800
G1 X143.57 Y29.86 E996.665 F12000
G1 X151.13 Y37.43 E997.003
G1 X158.69 Y44.99 E997.341
G0 X158.26 Y45.12 F10800
G1 X150.65 Y37.51 E997.681 F12000
G1 X143.04 Y29.91 E998.021
G1 X135.44 Y22.3 E998.361
G0 X134.87 F10800
G1 X142.54 Y29.96 E998.703 F12000
G1 X150.2 Y37.63 E999.046
G1 X157.86 Y45.29 E999.388
G0 X157.5 Y45.49 F10800
G1 X149.77 Y37.76 E999.734 F12000
G1 X142.04 Y30.03 E1000.079
G1 X134.31 Y22.3 E1000.424
G0 X133.74 F10800
G1 X141.54 Y30.1 E1000.773 F12000
G1 X149.33 Y37.89 E1001.121
G1 X157.13 Y45.69 E1001.469
G0 X156.79 Y45.92 F10800
G1 X148.92 Y38.05 E1001.821 F12000
G1 X141.05 Y30.17 E1002.173
G1 X133.17 Y22.3 E1002.525
G0 X132.61 F10800
G1 X140.57 Y30.26 E1002.881 F12000
G1 X148.53 Y38.22 E1003.236
G1 X156.48 Y46.18 E1003.592
G0 X156.17 Y46.43 F10800
G1 X148.13 Y38.39 E1003.951 F12000
G1 X140.09 Y30.34 E1004.311
G1 X132.04 Y22.3 E1004.67
G0 X131.48 F10800
G1 X139.62 Y30.44 E1005.034 F12000
G1 X147.76 Y38.58 E1005.397
G1 X155.89 Y46.72 E1005.761
G0 X155.64 Y47.03 F10800
G1 X147.4 Y38.78 E1006.129 F12000
G1 X139.15 Y30.54 E1006.498
G1 X130.91 Y22.3 E1006.866
G0 X130.35 F10800
G1 X138.69 Y30.65 E1007.239 F12000
G1 X147.04 Y38.99 E1007.612
G1 X155.38 Y47.34 E1007.985
G0 X155.16 Y47.68 F10800
G1 X146.7 Y39.22 E1008.363 F12000
G1 X138.24 Y30.76 E1008.741
G1 X129.78 Y22.3 E1009.119
G0 X129.21 F10800
G1 X137.8 Y30.88 E1009.502 F12000
G1 X146.38 Y39.46 E1009.886
G1 X154.96 Y48.05 E1010.269
G0 X154.76 Y48.42 F10800
G1 X146.06 Y39.71 E1010.658 F12000
G1 X137.35 Y31.01 E1011.047
G1 X128.65 Y22.3 E1011.436
G0 X128.08 F10800
G1 X136.92 Y31.14 E1011.831 F12000
G1 X145.76 Y39.98 E1012.226
G1 X154.6 Y48.82 E1012.621
G0 X154.47 Y49.25 F10800
G1 X145.49 Y40.27 E1013.023 F12000
G1 X136.5 Y31.28 E1013.424
G1 X127.52 Y22.3 E1013.826
G0 X126.95 F10800
G1 X136.08 Y31.43 E1014.234 F12000
G1 X145.21 Y40.56 E1014.642
G1 X154.34 Y49.69 E1015.05
G0 X154.27 Y50.19 F10800
G1 X144.98 Y40.89 E1015.465 F12000
G1 X135.68 Y31.6 E1015.88
G1 X126.39 Y22.3 E1016.296
G0 X125.82 F10800
G1 X132.92 Y29.4 E1016.613 F12000
G1 X140.02 Y36.5 E1016.93
G1 X147.12 Y43.6 E1017.248
G1 X154.22 Y50.7 E1017.565
G0 X154.2 Y51.24 F10800
G1 X146.96 Y44.01 E1017.888 F12000
G1 X139.73 Y36.77 E1018.212
G1 X132.49 Y29.54 E1018.535
G1 X125.25 Y22.3 E1018.858
G0 X124.69 F10800
G1 X132.07 Y29.68 E1019.188 F12000
G1 X139.44 Y37.06 E1019.518
G1 X146.82 Y44.43 E1019.847
G1 X154.2 Y51.81 E1020.177
G0 X154.2 Y52.38 F10800
G1 X146.68 Y44.86 E1020.513 F12000
G1 X139.16 Y37.34 E1020.849
G1 X131.64 Y29.82 E1021.185
G1 X124.12 Y22.3 E1021.521
G0 X123.56 F10800
G1 X131.22 Y29.96 E1021.863 F12000
G1 X138.88 Y37.62 E1022.206
G1 X146.54 Y45.28 E1022.548
G1 X154.2 Y52.94 E1022.89
G0 X154.2 Y53.51 F10800
G1 X146.4 Y45.71 E1023.239 F12000
G1 X138.6 Y37.9 E1023.587
G1 X130.79 Y30.1 E1023.936
G1 X122.99 Y22.3 E1024.285
G0 X122.43 F10800
G1 X130.37 Y30.24 E1024.64 F12000
G1 X138.31 Y38.19 E1024.994
G1 X146.26 Y46.13 E1025.349
G1 X154.2 Y54.07 E1025.704
G0 X154.2 Y54.64 F10800
G1 X146.11 Y46.55 E1026.066 F12000
G1 X138.03 Y38.47 E1026.427
G1 X129.94 Y30.38 E1026.788
G1 X121.86 Y22.3 E1027.149
G0 X121.29 F10800
G1 X129.52 Y30.53 E1027.517 F12000
G1 X137.75 Y38.75 E1027.885
G1 X145.97 Y46.98 E1028.252
G1 X154.2 Y55.2 E1028.62
G0 X154.2 Y55.77 F10800
G1 X145.83 Y47.4 E1028.994 F12000
G1 X137.46 Y39.04 E1029.368
G1 X129.1 Y30.67 E1029.741
G1 X120.73 Y22.3 E1030.115
G0 X120.16 F10800
G1 X128.67 Y30.81 E1030.496 F12000
G1 X137.18 Y39.32 E1030.876
G1 X145.69 Y47.83 E1031.256
G1 X154.2 Y56.34 E1031.636
G0 X154.2 Y56.9 F10800
G1 X145.55 Y48.25 E1032.023 F12000
G1 X136.9 Y39.6 E1032.409
G1 X128.25 Y30.95 E1032.796
G1 X119.6 Y22.3 E1033.182
G0 X119.03 F10800
G1 X127.82 Y31.09 E1033.575 F12000
G1 X136.62 Y39.88 E1033.968
G1 X145.41 Y48.68 E1034.361
G1 X154.2 Y57.47 E1034.754
G0 X154.2 Y58.03 F10800
G1 X147.05 Y50.89 E1035.073 F12000
G1 X139.91 Y43.74 E1035.393
G1 X132.76 Y36.59 E1035.712
G1 X125.61 Y29.45 E1036.031
G1 X118.47 Y22.3 E1036.351
G0 X117.9 F10800
G1 X125.16 Y29.56 E1036.675 F12000
G1 X132.42 Y36.82 E1036.999
G1 X139.68 Y44.08 E1037.324
G1 X146.94 Y51.34 E1037.648
G1 X154.2 Y58.6 E1037.973
G0 X154.2 Y59.16 F10800
G1 X146.83 Y51.79 E1038.302 F12000
G1 X139.45 Y44.42 E1038.631
G1 X132.08 Y37.05 E1038.961
G1 X124.71 Y29.67 E1039.29
G1 X117.34 Y22.3 E1039.62
G0 X116.77 F10800
G1 X124.26 Y29.79 E1039.954 F12000
G1 X131.74 Y37.27 E1040.289
G1 X139.23 Y44.76 E1040.623
G1 X146.71 Y52.24 E1040.958
G1 X154.2 Y59.73 E1041.292
G0 X154.2 Y60.3 F10800
G1 X146.6 Y52.7 E1041.632 F12000
G1 X139 Y45.1 E1041.972
G1 X131.4 Y37.5 E1042.311
G1 X123.8 Y29.9 E1042.651
G1 X116.2 Y22.3 E1042.99
G0 X115.64 F10800
G1 X123.35 Y30.01 E1043.335 F12000
G1 X131.06 Y37.72 E1043.679
G1 X138.77 Y45.44 E1044.024
G1 X146.49 Y53.15 E1044.369
G1 X154.2 Y60.86 E1044.713
G0 X154.2 Y61.43 F10800
G1 X146.37 Y53.6 E1045.063 F12000
G1 X138.55 Y45.78 E1045.413
G1 X130.72 Y37.95 E1045.762
G1 X122.9 Y30.13 E1046.112
G1 X115.07 Y22.3 E1046.462
G0 X114.51 F10800
G1 X122.44 Y30.24 E1046.816 F12000
G1 X130.38 Y38.18 E1047.171
G1 X138.32 Y46.12 E1047.526
G1 X146.26 Y54.05 E1047.881
G1 X154.2 Y61.99 E1048.235
G0 X154.2 Y62.56 F10800
G1 X146.15 Y54.51 E1048.595 F12000
G1 X138.1 Y46.45 E1048.955
G1 X130.04 Y38.4 E1049.315
G1 X121.99 Y30.35 E1049.675
G1 X113.94 Y22.3 E1050.034
G0 X113.38 F10800
G1 X121.54 Y30.46 E1050.399 F12000
G1 X129.7 Y38.63 E1050.764
G1 X137.87 Y46.79 E1051.129
G1 X146.03 Y54.96 E1051.494
G1 X154.2 Y63.12 E1051.859
G0 X154.2 Y63.69 F10800
G1 X145.92 Y55.41 E1052.228 F12000
G1 X137.64 Y47.13 E1052.598
G1 X129.37 Y38.86 E1052.968
G1 X121.09 Y30.58 E1053.338
G1 X112.81 Y22.3 E1053.708
G0 X112.24 F10800
G1 X120.64 Y30.69 E1054.083 F12000
G1 X129.03 Y39.08 E1054.458
G1 X137.42 Y47.47 E1054.833
G1 X145.81 Y55.86 E1055.208
G1 X154.2 Y64.26 E1055.583
G0 X154.2 Y64.82 F10800
G1 X147.11 Y57.73 E1055.899 F12000
G1 X140.03 Y50.65 E1056.216
G1 X132.94 Y43.56 E1056.533
G1 X125.85 Y36.47 E1056.85
G1 X118.76 Y29.39 E1057.166
G1 X111.68 Y22.3 E1057.483
G0 X111.11 F10800
G1 X118.29 Y29.48 E1057.804 F12000
G1 X125.47 Y36.66 E1058.125
G1 X132.66 Y43.84 E1058.446
G1 X139.84 Y51.02 E1058.766
G1 X147.02 Y58.21 E1059.087
G1 X154.2 Y65.39 E1059.408
G0 X154.2 Y65.95 F10800
G1 X146.92 Y58.68 E1059.733 F12000
G1 X139.65 Y51.4 E1060.058
G1 X132.37 Y44.13 E1060.384
G1 X125.1 Y36.85 E1060.709
G1 X117.82 Y29.58 E1061.034
G1 X110.55 Y22.3 E1061.359
G0 X109.98 F10800
G1 X117.35 Y29.67 E1061.688 F12000
G1 X124.72 Y37.04 E1062.017
G1 X132.09 Y44.41 E1062.347
G1 X139.46 Y51.78 E1062.676
G1 X146.83 Y59.15 E1063.005
G1 X154.2 Y66.52 E1063.335
G0 X154.2 Y67.08 F10800
G1 X146.74 Y59.62 E1063.668 F12000
G1 X139.27 Y52.16 E1064.002
G1 X131.81 Y44.69 E1064.335
G1 X124.34 Y37.23 E1064.669
G1 X116.88 Y29.76 E1065.002
G1 X109.42 Y22.3 E1065.336
G0 X108.85 F10800
G1 X116.41 Y29.86 E1065.674 F12000
G1 X123.97 Y37.42 E1066.011
G1 X131.52 Y44.97 E1066.349
G1 X139.08 Y52.53 E1066.687
G1 X146.64 Y60.09 E1067.025
G1 X154.2 Y67.65 E1067.362
G0 X154.2 Y68.22 F10800
G1 X146.55 Y60.56 E1067.704 F12000
G1 X138.89 Y52.91 E1068.046
G1 X131.24 Y45.26 E1068.388
G1 X123.59 Y37.61 E1068.73
G1 X115.94 Y29.95 E1069.072
G1 X108.28 Y22.3 E1069.414
G0 X107.72 F10800
G1 X115.46 Y30.05 E1069.76 F12000
G1 X123.21 Y37.79 E1070.106
G1 X130.96 Y45.54 E1070.453
G1 X138.71 Y53.29 E1070.799
G1 X146.45 Y61.03 E1071.145
G1 X154.2 Y68.78 E1071.491
G0 X154.2 Y69.35 F10800
G1 X146.36 Y61.51 E1071.841 F12000
G1 X138.52 Y53.66 E1072.192
G1 X130.68 Y45.82 E1072.542
G1 X122.83 Y37.98 E1072.893
G1 X114.99 Y30.14 E1073.243
G1 X107.15 Y22.3 E1073.593
G0 X106.59 F10800
G1 X114.52 Y30.24 E1073.948 F12000
G1 X122.46 Y38.17 E1074.302
G1 X130.39 Y46.11 E1074.657
G1 X138.33 Y54.04 E1075.012
G1 X146.26 Y61.98 E1075.366
G1 X154.2 Y69.91 E1075.721
G0 X154.2 Y70.48 F10800
G1 X146.17 Y62.45 E1076.08 F12000
G1 X138.14 Y54.42 E1076.438
G1 X130.11 Y46.39 E1076.797
G1 X122.08 Y38.36 E1077.156
G1 X114.05 Y30.33 E1077.515
G1 X106.02 Y22.3 E1077.874
G0 X105.46 F10800
G1 X113.58 Y30.42 E1078.237 F12000
G1 X121.7 Y38.55 E1078.6
G1 X129.83 Y46.67 E1078.963
G1 X137.95 Y54.8 E1079.326
G1 X146.08 Y62.92 E1079.689
G1 X154.2 Y71.04 E1080.052
G0 X154.2 Y71.61 F10800
G1 X145.98 Y63.39 E1080.419 F12000
G1 X137.76 Y55.17 E1080.786
G1 X129.54 Y46.95 E1081.153
G1 X121.33 Y38.74 E1081.521
G1 X113.11 Y30.52 E1081.888
G1 X104.89 Y22.3 E1082.255
G0 X104.32 F10800
G1 X111.45 Y29.43 E1082.574 F12000
G1 X118.57 Y36.55 E1082.892
G1 X125.7 Y43.68 E1083.21
G1 X132.82 Y50.8 E1083.529
G1 X139.95 Y57.93 E1083.847
G1 X147.07 Y65.05 E1084.165
G1 X154.2 Y72.18 E1084.484
G0 X154.2 Y72.74 F10800
G1 X146.99 Y65.53 E1084.806 F12000
G1 X139.79 Y58.33 E1085.128
G1 X132.58 Y51.12 E1085.45
G1 X125.38 Y43.92 E1085.772
G1 X118.17 Y36.71 E1086.094
G1 X110.96 Y29.51 E1086.416
G1 X103.76 Y22.3 E1086.738
G0 X103.19 F10800
G1 X110.48 Y29.59 E1087.063 F12000
G1 X117.77 Y36.87 E1087.389
G1 X125.05 Y44.16 E1087.715
G1 X132.34 Y51.45 E1088.04
G1 X139.63 Y58.73 E1088.366
G1 X146.91 Y66.02 E1088.691
G1 X154.2 Y73.31 E1089.017
G0 X154.2 Y73.87 F10800
G1 X146.83 Y66.5 E1089.346 F12000
G1 X139.46 Y59.14 E1089.675
G1 X132.1 Y51.77 E1090.005
G1 X124.73 Y44.4 E1090.334
G1 X117.36 Y37.03 E1090.663
G1 X109.99 Y29.67 E1090.992
G1 X102.63 Y22.3 E1091.321
G0 X102.06 F10800
G1 X109.51 Y29.75 E1091.654 F12000
G1 X116.96 Y37.2 E1091.987
G1 X124.41 Y44.64 E1092.32
G1 X131.85 Y52.09 E1092.653
G1 X139.3 Y59.54 E1092.986
G1 X146.75 Y66.99 E1093.318
G1 X154.2 Y74.44 E1093.651
G0 X154.2 Y75 F10800
G1 X146.67 Y67.47 E1093.988 F12000
G1 X139.14 Y59.95 E1094.324
G1 X131.61 Y52.42 E1094.661
G1 X124.08 Y44.89 E1094.997
G1 X116.55 Y37.36 E1095.333
G1 X109.02 Y29.83 E1095.67
G1 X101.5 Y22.3 E1096.006
G0 X100.93 F10800
G1 X108.54 Y29.91 E1096.346 F12000
G1 X116.15 Y37.52 E1096.686
G1 X123.76 Y45.13 E1097.026
G1 X131.37 Y52.74 E1097.366
G1 X138.98 Y60.35 E1097.707
G1 X146.59 Y67.96 E1098.047
G1 X154.2 Y75.57 E1098.387
G0 X154.2 Y76.13 F10800
G1 X146.51 Y68.44 E1098.73 F12000
G1 X138.82 Y60.75 E1099.074
G1 X131.13 Y53.06 E1099.418
G1 X123.44 Y45.37 E1099.761
G1 X115.75 Y37.68 E1100.105
G1 X108.05 Y29.99 E1100.449
G1 X100.36 Y22.3 E1100.792
G0 X99.8 F10800
G1 X107.57 Y30.07 E1101.139 F12000
G1 X115.34 Y37.84 E1101.487
G1 X123.11 Y45.61 E1101.834
G1 X130.88 Y53.39 E1102.181
G1 X138.66 Y61.16 E1102.529
G1 X146.43 Y68.93 E1102.876
G1 X154.2 Y76.7 E1103.223
G0 X154.2 Y77.27 F10800
G1 X146.35 Y69.41 E1103.574 F12000
G1 X138.49 Y61.56 E1103.925
G1 X130.64 Y53.71 E1104.276
G1 X122.79 Y45.86 E1104.627
G1 X114.94 Y38 E1104.978
G1 X107.09 Y30.15 E1105.328
G1 X99.23 Y22.3 E1105.679
G0 X98.67 F10800
G1 X106.6 Y30.23 E1106.034 F12000
G1 X114.53 Y38.17 E1106.388
G1 X122.47 Y46.1 E1106.743
G1 X130.4 Y54.03 E1107.097
G1 X138.33 Y61.97 E1107.452
G1 X146.27 Y69.9 E1107.806
G1 X154.2 Y77.83 E1108.161
G0 X154.2 Y78.4 F10800
G1 X146.19 Y70.38 E1108.519 F12000
G1 X138.17 Y62.37 E1108.877
G1 X130.16 Y54.36 E1109.235
G1 X122.14 Y46.34 E1109.593
G1 X114.13 Y38.33 E1109.951
G1 X106.12 Y30.31 E1110.309
G1 X98.1 Y22.3 E1110.667
G0 X97.54 F10800
G1 X104.62 Y29.38 E1110.984 F12000
G1 X111.7 Y36.47 E1111.3
G1 X118.78 Y43.55 E1111.617
G1 X125.87 Y50.63 E1111.933
G1 X132.95 Y57.71 E1112.25
G1 X140.03 Y64.8 E1112.566
G1 X147.12 Y71.88 E1112.883
G1 X154.2 Y78.96 E1113.199
G0 X154.2 Y79.53 F10800
G1 X147.05 Y72.38 E1113.519 F12000
G1 X139.89 Y65.22 E1113.839
G1 X132.74 Y58.07 E1114.158
G1 X125.58 Y50.91 E1114.478
G1 X118.43 Y43.76 E1114.798
G1 X111.28 Y36.61 E1115.117
G1 X104.12 Y29.45 E1115.437
G1 X96.97 Y22.3 E1115.757
G0 X96.4 F10800
G1 X103.63 Y29.52 E1116.08 F12000
G1 X110.85 Y36.75 E1116.402
G1 X118.08 Y43.97 E1116.725
G1 X125.3 Y51.2 E1117.048
G1 X132.53 Y58.42 E1117.371
G1 X139.75 Y65.65 E1117.694
G1 X146.97 Y72.87 E1118.016
G1 X154.2 Y80.09 E1118.339
G0 X154.2 Y80.66 F10800
G1 X146.9 Y73.37 E1118.665 F12000
G1 X139.61 Y66.07 E1118.991
G1 X132.31 Y58.78 E1119.317
G1 X125.02 Y51.48 E1119.643
G1 X117.72 Y44.19 E1119.969
G1 X110.43 Y36.89 E1120.295
G1 X103.13 Y29.6 E1120.621
G1 X95.84 Y22.3 E1120.947
G0 X95.27 F10800
G1 X102.64 Y29.67 E1121.276 F12000
G1 X110 Y37.03 E1121.605
G1 X117.37 Y44.4 E1121.934
G1 X124.74 Y51.76 E1122.264
G1 X132.1 Y59.13 E1122.593
G1 X139.47 Y66.49 E1122.922
G1 X146.83 Y73.86 E1123.251
G1 X154.2 Y81.23 E1123.58
G0 X154.2 Y81.79 F10800
G1 X146.76 Y74.35 E1123.912 F12000
G1 X139.33 Y66.92 E1124.245
G1 X131.89 Y59.48 E1124.577
G1 X124.45 Y52.05 E1124.909
G1 X117.02 Y44.61 E1125.242
G1 X109.58 Y37.17 E1125.574
G1 X102.14 Y29.74 E1125.906
G1 X94.71 Y22.3 E1126.239
G0 X94.14 F10800
G1 X101.65 Y29.81 E1126.574 F12000
G1 X109.16 Y37.31 E1126.909
G1 X116.66 Y44.82 E1127.245
G1 X124.17 Y52.33 E1127.58
G1 X131.68 Y59.84 E1127.916
G1 X139.18 Y67.34 E1128.251
G1 X146.69 Y74.85 E1128.587
G1 X154.2 Y82.36 E1128.922
G0 X154.2 Y82.92 F10800
G1 X146.62 Y75.35 E1129.261 F12000
G1 X139.04 Y67.77 E1129.599
G1 X131.47 Y60.19 E1129.938
G1 X123.89 Y52.61 E1130.277
G1 X116.31 Y45.03 E1130.615
G1 X108.73 Y37.46 E1130.954
G1 X101.15 Y29.88 E1131.293
G1 X93.58 Y22.3 E1131.631
G0 X93.01 F10800
G1 X100.66 Y29.95 E1131.973 F12000
G1 X108.31 Y37.6 E1132.315
G1 X115.96 Y45.25 E1132.656
G1 X123.6 Y52.89 E1132.998
G1 X131.25 Y60.54 E1133.34
G1 X138.9 Y68.19 E1133.682
G1 X146.55 Y75.84 E1134.024
G1 X154.2 Y83.49 E1134.365
G0 X154.2 Y84.05 F10800
G1 X146.48 Y76.33 E1134.71 F12000
G1 X138.76 Y68.62 E1135.055
G1 X131.04 Y60.9 E1135.4
G1 X123.32 Y53.18 E1135.745
G1 X115.6 Y45.46 E1136.09
G1 X107.88 Y37.74 E1136.435
G1 X100.16 Y30.02 E1136.78
G1 X92.45 Y22.3 E1137.125
G0 X91.88 F10800
G1 X99.67 Y30.09 E1137.473 F12000
G1 X107.46 Y37.88 E1137.821
G1 X115.25 Y45.67 E1138.169
G1 X123.04 Y53.46 E1138.517
G1 X130.83 Y61.25 E1138.865
G1 X138.62 Y69.04 E1139.213
G1 X146.41 Y76.83 E1139.562
G1 X154.2 Y84.62 E1139.91
G0 X154.2 Y85.19 F10800
G1 X146.34 Y77.32 E1140.261 F12000
G1 X138.48 Y69.46 E1140.612
G1 X130.62 Y61.6 E1140.963
G1 X122.76 Y53.74 E1141.315
G1 X114.9 Y45.88 E1141.666
G1 X107.03 Y38.02 E1142.017
G1 X99.17 Y30.16 E1142.368
G1 X91.31 Y22.3 E1142.72
G0 X90.75 F10800
G1 X98.68 Y30.23 E1143.074 F12000
G1 X106.61 Y38.16 E1143.429
G1 X114.54 Y46.09 E1143.783
G1 X122.47 Y54.03 E1144.137
G1 X130.4 Y61.96 E1144.492
G1 X138.34 Y69.89 E1144.846
G1 X146.27 Y77.82 E1145.201
G1 X154.2 Y85.75 E1145.555
G0 X154.2 Y86.32 F10800
G1 X147.09 Y79.2 E1145.873 F12000
G1 X139.97 Y72.09 E1146.191
G1 X132.86 Y64.98 E1146.509
G1 X125.75 Y57.87 E1146.826
G1 X118.63 Y50.75 E1147.144
G1 X111.52 Y43.64 E1147.462
G1 X104.41 Y36.53 E1147.78
G1 X97.3 Y29.41 E1148.098
G1 X90.18 Y22.3 E1148.416
G0 X89.62 F10800
G1 X96.79 Y29.48 E1148.736 F12000
G1 X103.97 Y36.65 E1149.057
G1 X111.14 Y43.83 E1149.378
G1 X118.32 Y51 E1149.698
G1 X125.49 Y58.18 E1150.019
G1 X132.67 Y65.35 E1150.34
G1 X139.85 Y72.53 E1150.66
G1 X147.02 Y79.71 E1150.981
G1 X154.2 Y86.88 E1151.301
G0 X154.2 Y87.45 F10800
G1 X146.96 Y80.21 E1151.625 F12000
G1 X139.72 Y72.97 E1151.948
G1 X132.48 Y65.73 E1152.272
G1 X125.24 Y58.49 E1152.595
G1 X118 Y51.25 E1152.919
G1 X110.77 Y44.02 E1153.242
G1 X103.53 Y36.78 E1153.566
G1 X96.29 Y29.54 E1153.889
G1 X89.05 Y22.3 E1154.213
G0 X88.49 F10800
G1 X95.79 Y29.6 E1154.539 F12000
G1 X103.09 Y36.9 E1154.865
G1 X110.39 Y44.2 E1155.191
G1 X117.69 Y51.51 E1155.518
G1 X124.99 Y58.81 E1155.844
G1 X132.29 Y66.11 E1156.17
G1 X139.6 Y73.41 E1156.496
G1 X146.9 Y80.71 E1156.823
G1 X154.2 Y88.01 E1157.149
G0 X154.2 Y88.58 F10800
G1 X146.83 Y81.21 E1157.478 F12000
G1 X139.47 Y73.85 E1157.807
G1 X132.11 Y66.49 E1158.136
G1 X124.74 Y59.12 E1158.465
G1 X117.38 Y51.76 E1158.794
G1 X110.01 Y44.39 E1159.123
G1 X102.65 Y37.03 E1159.453
G1 X95.28 Y29.66 E1159.782
G1 X87.92 Y22.3 E1160.111
G0 X87.35 F10800
G1 X94.78 Y29.73 E1160.443 F12000
G1 X102.21 Y37.15 E1160.774
G1 X109.63 Y44.58 E1161.106
G1 X117.06 Y52.01 E1161.438
G1 X124.49 Y59.44 E1161.77
G1 X131.92 Y66.86 E1162.102
G1 X139.34 Y74.29 E1162.434
G1 X146.77 Y81.72 E1162.766
G1 X154.2 Y89.14 E1163.098
G0 X154.2 Y89.71 F10800
G1 X146.71 Y82.22 E1163.432 F12000
G1 X139.22 Y74.73 E1163.767
G1 X131.73 Y67.24 E1164.102
G1 X124.24 Y59.75 E1164.436
G1 X116.75 Y52.26 E1164.771
G1 X109.26 Y44.77 E1165.106
G1 X101.77 Y37.28 E1165.44
G1 X94.28 Y29.79 E1165.775
G1 X86.79 Y22.3 E1166.11
G0 X86.65 Y22.73 F10800
G1 X94.15 Y30.23 E1166.445 F12000
G1 X101.66 Y37.74 E1166.781
G1 X109.17 Y45.24 E1167.116
G1 X116.67 Y52.75 E1167.451
G1 X124.18 Y60.25 E1167.787
G1 X131.68 Y67.76 E1168.122
G1 X139.19 Y75.27 E1168.458
G1 X146.69 Y82.77 E1168.793
G1 X154.2 Y90.28 E1169.128
G0 X154.2 Y90.84 F10800
G1 X146.69 Y83.34 E1169.464 F12000
G1 X139.19 Y75.83 E1169.799
G1 X131.68 Y68.33 E1170.134
G1 X124.18 Y60.82 E1170.47
G1 X116.67 Y53.31 E1170.805
G1 X109.17 Y45.81 E1171.141
G1 X101.66 Y38.3 E1171.476
G1 X94.15 Y30.8 E1171.811
G1 X86.65 Y23.29 E1172.147
G0 X86.65 Y23.86 F10800
G1 X94.15 Y31.36 E1172.482 F12000
G1 X101.66 Y38.87 E1172.817
G1 X109.17 Y46.37 E1173.153
G1 X116.67 Y53.88 E1173.488
G1 X124.18 Y61.39 E1173.824
G1 X131.68 Y68.89 E1174.159
G1 X139.19 Y76.4 E1174.494
G1 X146.69 Y83.9 E1174.83
G1 X154.2 Y91.41 E1175.165
G0 X154.2 Y91.97 F10800
G1 X146.69 Y84.47 E1175.501 F12000
G1 X139.19 Y76.96 E1175.836
G1 X131.68 Y69.46 E1176.171
G1 X124.18 Y61.95 E1176.507
G1 X116.67 Y54.45 E1176.842
G1 X109.17 Y46.94 E1177.177
G1 X101.66 Y39.43 E1177.513
G1 X94.15 Y31.93 E1177.848
G1 X86.65 Y24.42 E1178.184
G0 X86.65 Y24.99 F10800
G1 X94.15 Y32.49 E1178.519 F12000
G1 X101.66 Y40 E1178.854
G1 X109.17 Y47.51 E1179.19
G1 X116.67 Y55.01 E1179.525
G1 X124.18 Y62.52 E1179.861
G1 X131.68 Y70.02 E1180.196
G1 X139.19 Y77.53 E1180.531
G1 X146.69 Y85.03 E1180.867
G1 X154.2 Y92.54 E1181.202
G0 X154.2 Y93.1 F10800
G1 X146.69 Y85.6 E1181.537 F12000
G1 X139.19 Y78.09 E1181.873
G1 X131.68 Y70.59 E1182.208
G1 X124.18 Y63.08 E1182.544
G1 X116.67 Y55.58 E1182.879
G1 X109.17 Y48.07 E1183.214
G1 X101.66 Y40.57 E1183.55
G1 X94.15 Y33.06 E1183.885
G1 X86.65 Y25.56 E1184.22
G0 X86.65 Y26.12 F10800
G1 X94.15 Y33.63 E1184.556 F12000
G1 X101.66 Y41.13 E1184.891
G1 X109.17 Y48.64 E1185.227
G1 X116.67 Y56.14 E1185.562
G1 X124.18 Y63.65 E1185.897
G1 X131.68 Y71.15 E1186.233
G1 X139.19 Y78.66 E1186.568
G1 X146.69 Y86.16 E1186.904
G1 X154.2 Y93.67 E1187.239
G0 X154.2 Y94.24 F10800
G1 X146.69 Y86.73 E1187.574 F12000
G1 X139.19 Y79.22 E1187.91
G1 X131.68 Y71.72 E1188.245
G1 X124.18 Y64.21 E1188.58
G1 X116.67 Y56.71 E1188.916
G1 X109.17 Y49.2 E1189.251
G1 X101.66 Y41.7 E1189.587
G1 X94.15 Y34.19 E1189.922
G1 X86.65 Y26.69 E1190.257
G0 X86.65 Y27.25 F10800
G1 X94.15 Y34.76 E1190.593 F12000
G1 X101.66 Y42.26 E1190.928
G1 X109.17 Y49.77 E1191.264
G1 X116.67 Y57.27 E1191.599
G1 X124.18 Y64.78 E1191.934
G1 X131.68 Y72.28 E1192.27
G1 X139.19 Y79.79 E1192.605
G1 X146.69 Y87.3 E1192.94
G1 X154.2 Y94.8 E1193.276
G0 X154.2 Y95.37 F10800
G1 X146.69 Y87.86 E1193.611 F12000
G1 X139.19 Y80.36 E1193.947
G1 X131.68 Y72.85 E1194.282
G1 X124.18 Y65.35 E1194.617
G1 X116.67 Y57.84 E1194.953
G1 X109.17 Y50.33 E1195.288
G1 X101.66 Y42.83 E1195.623
G1 X94.15 Y35.32 E1195.959
G1 X86.65 Y27.82 E1196.294
G0 X86.65 Y28.38 F10800
G1 X94.15 Y35.89 E1196.63 F12000
G1 X101.66 Y43.39 E1196.965
G1 X109.17 Y50.9 E1197.3
G1 X116.67 Y58.41 E1197.636
G1 X124.18 Y65.91 E1197.971
G1 X131.68 Y73.42 E1198.307
G1 X139.19 Y80.92 E1198.642
G1 X146.69 Y88.43 E1198.977
G1 X154.2 Y95.93 E1199.313
G0 X154.2 Y96.5 F10800
G1 X146.69 Y88.99 E1199.648 F12000
G1 X139.19 Y81.49 E1199.983
G1 X131.68 Y73.98 E1200.319
G1 X124.18 Y66.48 E1200.654
G1 X116.67 Y58.97 E1200.99
G1 X109.17 Y51.47 E1201.325
G1 X101.66 Y43.96 E1201.66
G1 X94.15 Y36.45 E1201.996
G1 X86.65 Y28.95 E1202.331
G0 X86.65 Y29.52 F10800
G1 X94.15 Y37.02 E1202.667 F12000
G1 X101.66 Y44.53 E1203.002
G1 X109.17 Y52.03 E1203.337
G1 X116.67 Y59.54 E1203.673
G1 X124.18 Y67.04 E1204.008
G1 X131.68 Y74.55 E1204.343
G1 X139.19 Y82.05 E1204.679
G1 X146.69 Y89.56 E1205.014
G1 X154.2 Y97.06 E1205.35
G0 X154.2 Y97.63 F10800
G1 X146.69 Y90.12 E1205.685 F12000
G1 X139.19 Y82.62 E1206.02
G1 X131.68 Y75.11 E1206.356
G1 X124.18 Y67.61 E1206.691
G1 X116.67 Y60.1 E1207.026
G1 X109.17 Y52.6 E1207.362
G1 X101.66 Y45.09 E1207.697
G1 X94.15 Y37.59 E1208.033
G1 X86.65 Y30.08 E1208.368
G0 X86.65 Y30.65 F10800
G1 X94.15 Y38.15 E1208.703 F12000
G1 X101.66 Y45.66 E1209.039
G1 X109.17 Y53.16 E1209.374
G1 X116.67 Y60.67 E1209.71
G1 X124.18 Y68.17 E1210.045
G1 X131.68 Y75.68 E1210.38
G1 X139.19 Y83.18 E1210.716
G1 X146.69 Y90.69 E1211.051
G1 X154.2 Y98.2 E1211.386
G0 X154.2 Y98.76 F10800
G1 X146.69 Y91.26 E1211.722 F12000
G1 X139.19 Y83.75 E1212.057
G1 X131.68 Y76.24 E1212.393
G1 X124.18 Y68.74 E1212.728
G1 X116.67 Y61.23 E1213.063
G1 X109.17 Y53.73 E1213.399
G1 X101.66 Y46.22 E1213.734
G1 X94.15 Y38.72 E1214.069
G1 X86.65 Y31.21 E1214.405
G0 X86.65 Y31.78 F10800
G1 X94.15 Y39.28 E1214.74 F12000
G1 X101.66 Y46.79 E1215.076
G1 X109.17 Y54.29 E1215.411
G1 X116.67 Y61.8 E1215.746
G1 X124.18 Y69.31 E1216.082
G1 X131.68 Y76.81 E1216.417
G1 X139.19 Y84.32 E1216.753
G1 X146.69 Y91.82 E1217.088
G1 X154.2 Y99.33 E1217.423
G0 X154.2 Y99.89 F10800
G1 X146.69 Y92.39 E1217.759 F12000
G1 X139.19 Y84.88 E1218.094
G1 X131.68 Y77.38 E1218.429
G1 X124.18 Y69.87 E1218.765
G1 X116.67 Y62.36 E1219.1
G1 X109.17 Y54.86 E1219.436
G1 X101.66 Y47.35 E1219.771
G1 X94.15 Y39.85 E1220.106
G1 X86.65 Y32.34 E1220.442
G0 X86.65 Y32.91 F10800
G1 X94.15 Y40.41 E1220.777 F12000
G1 X101.66 Y47.92 E1221.112
G1 X109.17 Y55.43 E1221.448
G1 X116.67 Y62.93 E1221.783
G1 X124.18 Y70.44 E1222.119
G1 X131.68 Y77.94 E1222.454
G1 X139.19 Y85.45 E1222.789
G1 X146.69 Y92.95 E1223.125
G1 X154.2 Y100.46 E1223.46
G0 X154.2 Y101.02 F10800
G1 X146.69 Y93.52 E1223.796 F12000
G1 X139.19 Y86.01 E1224.131
G1 X131.68 Y78.51 E1224.466
G1 X124.18 Y71 E1224.802
G1 X116.67 Y63.5 E1225.137
G1 X109.17 Y55.99 E1225.472
G1 X101.66 Y48.49 E1225.808
G1 X94.15 Y40.98 E1226.143
G1 X86.65 Y33.48 E1226.479
G0 X86.65 Y34.04 F10800
G1 X94.15 Y41.55 E1226.814 F12000
G1 X101.66 Y49.05 E1227.149
G1 X109.17 Y56.56 E1227.485
G1 X116.67 Y64.06 E1227.82
G1 X124.18 Y71.57 E1228.156
G1 X131.68 Y79.07 E1228.491
G1 X139.19 Y86.58 E1228.826
G1 X146.69 Y94.08 E1229.162
G1 X154.2 Y101.59 E1229.497
G0 X154.2 Y102.16 F10800
G1 X146.69 Y94.65 E1229.832 F12000
G1 X139.19 Y87.14 E1230.168
G1 X131.68 Y79.64 E1230.503
G1 X124.18 Y72.13 E1230.839
G1 X116.67 Y64.63 E1231.174
G1 X109.17 Y57.12 E1231.509
G1 X101.66 Y49.62 E1231.845
G1 X94.15 Y42.11 E1232.18
G1 X86.65 Y34.61 E1232.515
G0 X86.65 Y35.17 F10800
G1 X94.15 Y42.68 E1232.851 F12000
G1 X101.66 Y50.18 E1233.186
G1 X109.17 Y57.69 E1233.522
G1 X116.67 Y65.19 E1233.857
G1 X124.18 Y72.7 E1234.192
G1 X131.68 Y80.2 E1234.528
G1 X139.19 Y87.71 E1234.863
G1 X146.69 Y95.22 E1235.199
G1 X154.2 Y102.72 E1235.534
G0 X154.2 Y103.29 F10800
G1 X146.69 Y95.78 E1235.869 F12000
G1 X139.19 Y88.28 E1236.205
G1 X131.68 Y80.77 E1236.54
G1 X124.18 Y73.26 E1236.875
G1 X116.67 Y65.76 E1237.211
G1 X109.17 Y58.25 E1237.546
G1 X101.66 Y50.75 E1237.882
G1 X94.15 Y43.24 E1238.217
G1 X86.65 Y35.74 E1238.552
G0 X86.65 Y36.3 F10800
G1 X94.15 Y43.81 E1238.888 F12000
G1 X101.66 Y51.31 E1239.223
G1 X109.17 Y58.82 E1239.559
G1 X116.67 Y66.32 E1239.894
G1 X124.18 Y73.83 E1240.229
G1 X131.68 Y81.34 E1240.565
G1 X139.19 Y88.84 E1240.9
G1 X146.69 Y96.35 E1241.235
G1 X154.2 Y103.85 E1241.571
G0 X154.2 Y104.42 F10800
G1 X146.69 Y96.91 E1241.906 F12000
G1 X139.19 Y89.41 E1242.242
G1 X131.68 Y81.9 E1242.577
G1 X124.18 Y74.4 E1242.912
G1 X116.67 Y66.89 E1243.248
G1 X109.17 Y59.39 E1243.583
G1 X101.66 Y51.88 E1243.918
G1 X94.15 Y44.37 E1244.254
G1 X86.65 Y36.87 E1244.589
G0 X86.65 Y37.43 F10800
G1 X94.15 Y44.94 E1244.925 F12000
G1 X101.66 Y52.45 E1245.26
G1 X109.17 Y59.95 E1245.595
G1 X116.67 Y67.46 E1245.931
G1 X124.18 Y74.96 E1246.266
G1 X131.68 Y82.47 E1246.602
G1 X139.19 Y89.97 E1246.937
G1 X146.69 Y97.48 E1247.272
G1 X154.2 Y104.98 E1247.608
G0 X154.2 Y105.55 F10800
G1 X146.69 Y98.04 E1247.943 F12000
G1 X139.19 Y90.54 E1248.278
G1 X131.68 Y83.03 E1248.614
G1 X124.18 Y75.53 E1248.949
G1 X116.67 Y68.02 E1249.285
G1 X109.17 Y60.52 E1249.62
G1 X101.66 Y53.01 E1249.955
G1 X94.15 Y45.51 E1250.291
G1 X86.65 Y38 E1250.626
G0 X86.65 Y38.57 F10800
G1 X94.15 Y46.07 E1250.962 F12000
G1 X101.66 Y53.58 E1251.297
G1 X109.17 Y61.08 E1251.632
G1 X116.67 Y68.59 E1251.968
G1 X124.18 Y76.09 E1252.303
G1 X131.68 Y83.6 E1252.638
G1 X139.19 Y91.1 E1252.974
G1 X146.69 Y98.61 E1253.309
G1 X154.2 Y106.12 E1253.645
G0 X154.2 Y106.68 F10800
G1 X146.69 Y99.18 E1253.98 F12000
G1 X139.19 Y91.67 E1254.315
G1 X131.68 Y84.16 E1254.651
G1 X124.18 Y76.66 E1254.986
G1 X116.67 Y69.15 E1255.321
G1 X109.17 Y61.65 E1255.657
G1 X101.66 Y54.14 E1255.992
G1 X94.15 Y46.64 E1256.328
G1 X86.65 Y39.13 E1256.663
G0 X86.65 Y39.7 F10800
G1 X94.15 Y47.2 E1256.998 F12000
G1 X101.66 Y54.71 E1257.334
G1 X109.17 Y62.21 E1257.669
G1 X116.67 Y69.72 E1258.005
G1 X124.18 Y77.22 E1258.34
G1 X131.68 Y84.73 E1258.675
G1 X139.19 Y92.24 E1259.011
G1 X146.69 Y99.74 E1259.346
G1 X154.2 Y107.25 E1259.681
G0 X154.2 Y107.81 F10800
G1 X146.69 Y100.31 E1260.017 F12000
G1 X139.19 Y92.8 E1260.352
G1 X131.68 Y85.3 E1260.688
G1 X124.18 Y77.79 E1261.023
G1 X116.67 Y70.28 E1261.358
G1 X109.17 Y62.78 E1261.694
G1 X101.66 Y55.27 E1262.029
G1 X94.15 Y47.77 E1262.364
G1 X86.65 Y40.26 E1262.7
G0 X86.65 Y40.83 F10800
G1 X94.15 Y48.33 E1263.035 F12000
G1 X101.66 Y55.84 E1263.371
G1 X109.17 Y63.35 E1263.706
G1 X116.67 Y70.85 E1264.041
G1 X124.18 Y78.36 E1264.377
G1 X131.68 Y85.86 E1264.712
G1 X139.19 Y93.37 E1265.048
G1 X146.69 Y100.87 E1265.383
G1 X154.2 Y108.38 E1265.718
G0 X154.2 Y108.94 F10800
G1 X146.69 Y101.44 E1266.054 F12000
G1 X139.19 Y93.93 E1266.389
G1 X131.68 Y86.43 E1266.724
G1 X124.18 Y78.92 E1267.06
G1 X116.67 Y71.42 E1267.395
G1 X109.17 Y63.91 E1267.731
G1 X101.66 Y56.4 E1268.066
G1 X94.15 Y48.9 E1268.401
G1 X86.65 Y41.39 E1268.737
G0 X86.65 Y41.96 F10800
G1 X94.15 Y49.47 E1269.072 F12000
G1 X101.66 Y56.97 E1269.408
G1 X109.17 Y64.48 E1269.743
G1 X116.67 Y71.98 E1270.078
G1 X124.18 Y79.49 E1270.414
G1 X131.68 Y86.99 E1270.749
G1 X139.19 Y94.5 E1271.084
G1 X146.69 Y102 E1271.42
G1 X154.2 Y109.51 E1271.755
G0 X154.2 Y110.08 F10800
G1 X146.69 Y102.57 E1272.091 F12000
G1 X139.19 Y95.06 E1272.426
G1 X131.68 Y87.56 E1272.761
G1 X124.18 Y80.05 E1273.097
G1 X116.67 Y72.55 E1273.432
G1 X109.17 Y65.04 E1273.767
G1 X101.66 Y57.54 E1274.103
G1 X94.15 Y50.03 E1274.438
G1 X86.65 Y42.53 E1274.774
G0 X86.65 Y43.09 F10800
G1 X94.15 Y50.6 E1275.109 F12000
G1 X101.66 Y58.1 E1275.444
G1 X109.17 Y65.61 E1275.78
G1 X116.67 Y73.11 E1276.115
G1 X124.18 Y80.62 E1276.451
G1 X131.68 Y88.12 E1276.786
G1 X139.19 Y95.63 E1277.121
G1 X146.69 Y103.13 E1277.457
G1 X154.2 Y110.64 E1277.792
G0 X154.2 Y111.21 F10800
G1 X146.69 Y103.7 E1278.127 F12000
G1 X139.19 Y96.2 E1278.463
G1 X131.68 Y88.69 E1278.798
G1 X124.18 Y81.18 E1279.134
G1 X116.67 Y73.68 E1279.469
G1 X109.17 Y66.17 E1279.804
G1 X101.66 Y58.67 E1280.14
G1 X94.15 Y51.16 E1280.475
G1 X86.65 Y43.66 E1280.81
G0 X86.65 Y44.22 F10800
G1 X94.15 Y51.73 E1281.146 F12000
G1 X101.66 Y59.23 E1281.481
G1 X109.17 Y66.74 E1281.817
G1 X116.67 Y74.24 E1282.152
G1 X124.18 Y81.75 E1282.487
G1 X131.68 Y89.26 E1282.823
G1 X139.19 Y96.76 E1283.158
G1 X146.69 Y104.27 E1283.494
G1 X154.2 Y111.77 E1283.829
G0 X154.2 Y112.34 F10800
G1 X146.69 Y104.83 E1284.164 F12000
G1 X139.19 Y97.33 E1284.5
G1 X131.68 Y89.82 E1284.835
G1 X124.18 Y82.32 E1285.17
G1 X116.67 Y74.81 E1285.506
G1 X109.17 Y67.3 E1285.841
G1 X101.66 Y59.8 E1286.177
G1 X94.15 Y52.29 E1286.512
G1 X86.65 Y44.79 E1286.847
G0 X86.65 Y45.35 F10800
G1 X94.15 Y52.86 E1287.183 F12000
G1 X101.66 Y60.36 E1287.518
G1 X109.17 Y67.87 E1287.854
G1 X116.67 Y75.38 E1288.189
G1 X124.18 Y82.88 E1288.524
G1 X131.68 Y90.39 E1288.86
G1 X139.19 Y97.89 E1289.195
G1 X146.69 Y105.4 E1289.53
G1 X154.2 Y112.9 E1289.866
G0 X154.2 Y113.47 F10800
G1 X146.69 Y105.96 E1290.201 F12000
G1 X139.19 Y98.46 E1290.537
G1 X131.68 Y90.95 E1290.872
G1 X124.18 Y83.45 E1291.207
G1 X116.67 Y75.94 E1291.543
G1 X109.17 Y68.44 E1291.878
G1 X101.66 Y60.93 E1292.213
G1 X94.15 Y53.43 E1292.549
G1 X86.65 Y45.92 E1292.884
G0 X86.65 Y46.49 F10800
G1 X94.15 Y53.99 E1293.22 F12000
G1 X101.66 Y61.5 E1293.555
G1 X109.17 Y69 E1293.89
G1 X116.67 Y76.51 E1294.226
G1 X124.18 Y84.01 E1294.561
G1 X131.68 Y91.52 E1294.897
G1 X139.19 Y99.02 E1295.232
G1 X146.69 Y106.53 E1295.567
G1 X154.2 Y114.04 E1295.903
G0 X154.2 Y114.6 F10800
G1 X146.69 Y107.09 E1296.238 F12000
G1 X139.19 Y99.59 E1296.573
G1 X131.68 Y92.08 E1296.909
G1 X124.18 Y84.58 E1297.244
G1 X116.67 Y77.07 E1297.58
G1 X109.17 Y69.57 E1297.915
G1 X101.66 Y62.06 E1298.25
G1 X94.15 Y54.56 E1298.586
G1 X86.65 Y47.05 E1298.921
G0 X86.65 Y47.62 F10800
G1 X94.15 Y55.12 E1299.257 F12000
G1 X101.66 Y62.63 E1299.592
G1 X109.17 Y70.13 E1299.927
G1 X116.67 Y77.64 E1300.263
G1 X124.18 Y85.14 E1300.598
G1 X131.68 Y92.65 E1300.933
G1 X139.19 Y100.16 E1301.269
G1 X146.69 Y107.66 E1301.604
G1 X154.2 Y115.17 E1301.94
G0 X154.2 Y115.73 F10800
G1 X146.69 Y108.23 E1302.275 F12000
G1 X139.19 Y100.72 E1302.61
G1 X131.68 Y93.22 E1302.946
G1 X124.18 Y85.71 E1303.281
G1 X116.67 Y78.2 E1303.616
G1 X109.17 Y70.7 E1303.952
G1 X101.66 Y63.19 E1304.287
G1 X94.15 Y55.69 E1304.623
G1 X86.65 Y48.18 E1304.958
G0 X86.65 Y48.75 F10800
G1 X94.15 Y56.25 E1305.293 F12000
G1 X101.66 Y63.76 E1305.629
G1 X109.17 Y71.26 E1305.964
G1 X116.67 Y78.77 E1306.3
G1 X124.18 Y86.28 E1306.635
G1 X131.68 Y93.78 E1306.97
G1 X139.19 Y101.29 E1307.306
G1 X146.69 Y108.79 E1307.641
G1 X154.2 Y116.3 E1307.976
G0 X154.2 Y116.86 F10800
G1 X146.69 Y109.36 E1308.312 F12000
G1 X139.19 Y101.85 E1308.647
G1 X131.68 Y94.35 E1308.983
G1 X124.18 Y86.84 E1309.318
G1 X116.67 Y79.34 E1309.653
G1 X109.17 Y71.83 E1309.989
G1 X101.66 Y64.32 E1310.324
G1 X94.15 Y56.82 E1310.659
G1 X86.65 Y49.31 E1310.995
G0 X86.65 Y49.88 F10800
G1 X94.15 Y57.39 E1311.33 F12000
G1 X101.66 Y64.89 E1311.666
G1 X109.17 Y72.4 E1312.001
G1 X116.67 Y79.9 E1312.336
G1 X124.18 Y87.41 E1312.672
G1 X131.68 Y94.91 E1313.007
G1 X139.19 Y102.42 E1313.343
G1 X146.69 Y109.92 E1313.678
G1 X154.2 Y117.43 E1314.013
G0 X154.2 Y117.99 F10800
G1 X146.69 Y110.49 E1314.349 F12000
G1 X139.19 Y102.98 E1314.684
G1 X131.68 Y95.48 E1315.019
G1 X124.18 Y87.97 E1315.355
G1 X116.67 Y80.47 E1315.69
G1 X109.17 Y72.96 E1316.026
G1 X101.66 Y65.46 E1316.361
G1 X94.15 Y57.95 E1316.696
G1 X86.65 Y50.45 E1317.032
G0 X86.65 Y51.01 F10800
G1 X94.15 Y58.52 E1317.367 F12000
G1 X101.66 Y66.02 E1317.703
G1 X109.17 Y73.53 E1318.038
G1 X116.67 Y81.03 E1318.373
G1 X124.18 Y88.54 E1318.709
G1 X131.68 Y96.04 E1319.044
G1 X139.19 Y103.55 E1319.379
G1 X146.69 Y111.05 E1319.715
G1 X154.2 Y118.56 E1320.05
G0 X154.2 Y119.13 F10800
G1 X146.69 Y111.62 E1320.386 F12000
G1 X139.19 Y104.12 E1320.721
G1 X131.68 Y96.61 E1321.056
G1 X124.18 Y89.1 E1321.392
G1 X116.67 Y81.6 E1321.727
G1 X109.17 Y74.09 E1322.062
G1 X101.66 Y66.59 E1322.398
G1 X94.15 Y59.08 E1322.733
G1 X86.65 Y51.58 E1323.069
G0 X86.65 Y52.14 F10800
G1 X94.15 Y59.65 E1323.404 F12000
G1 X101.66 Y67.15 E1323.739
G1 X109.17 Y74.66 E1324.075
G1 X116.67 Y82.16 E1324.41
G1 X124.18 Y89.67 E1324.746
G1 X131.68 Y97.17 E1325.081
G1 X139.19 Y104.68 E1325.416
G1 X146.69 Y112.19 E1325.752
G1 X154.2 Y119.69 E1326.087
G0 X154.2 Y120.26 F10800
G1 X146.69 Y112.75 E1326.422 F12000
G1 X139.19 Y105.25 E1326.758
G1 X131.68 Y97.74 E1327.093
G1 X124.18 Y90.24 E1327.429
G1 X116.67 Y82.73 E1327.764
G1 X109.17 Y75.22 E1328.099
G1 X101.66 Y67.72 E1328.435
G1 X94.15 Y60.21 E1328.77
G1 X86.65 Y52.71 E1329.105
G0 X86.65 Y53.27 F10800
G1 X94.15 Y60.78 E1329.441 F12000
G1 X101.66 Y68.28 E1329.776
G1 X109.17 Y75.79 E1330.112
G1 X116.67 Y83.3 E1330.447
G1 X124.18 Y90.8 E1330.782
G1 X131.68 Y98.31 E1331.118
G1 X139.19 Y105.81 E1331.453
G1 X146.69 Y113.32 E1331.789
G1 X154.2 Y120.82 E1332.124
G0 X154.2 Y121.39 F10800
G1 X146.69 Y113.88 E1332.459 F12000
G1 X139.19 Y106.38 E1332.795
G1 X131.68 Y98.87 E1333.13
G1 X124.18 Y91.37 E1333.465
G1 X116.67 Y83.86 E1333.801
G1 X109.17 Y76.36 E1334.136
G1 X101.66 Y68.85 E1334.472
G1 X94.15 Y61.34 E1334.807
G1 X86.65 Y53.84 E1335.142
G0 X86.65 Y54.41 F10800
G1 X94.15 Y61.91 E1335.478 F12000
G1 X101.66 Y69.42 E1335.813
G1 X109.17 Y76.92 E1336.149
G1 X116.67 Y84.43 E1336.484
G1 X124.18 Y91.93 E1336.819
G1 X131.68 Y99.44 E1337.155
G1 X139.19 Y106.94 E1337.49
G1 X146.69 Y114.45 E1337.825
G1 X154.2 Y121.95 E1338.161
G0 X154.2 Y122.52 F10800
G1 X146.69 Y115.01 E1338.496 F12000
G1 X139.19 Y107.51 E1338.832
G1 X131.68 Y100 E1339.167
G1 X124.18 Y92.5 E1339.502
G1 X116.67 Y84.99 E1339.838
G1 X109.17 Y77.49 E1340.173
G1 X101.66 Y69.98 E1340.508
G1 X94.15 Y62.48 E1340.844
G1 X86.65 Y54.97 E1341.179
G0 X86.65 Y55.54 F10800
G1 X94.11 Y63 E1341.513 F12000
G1 X101.57 Y70.46 E1341.846
G1 X109.04 Y77.92 E1342.18
G1 X116.5 Y85.39 E1342.513
G1 X123.96 Y92.85 E1342.847
G1 X131.42 Y100.31 E1343.18
G1 X138.89 Y107.77 E1343.513
G1 X146.35 Y115.24 E1343.847
G1 X153.81 Y122.7 E1344.18
G0 X153.25 Y122.7 F10800
G1 X145.85 Y115.3 E1344.511 F12000
G1 X138.45 Y107.9 E1344.842
G1 X131.05 Y100.5 E1345.172
G1 X123.65 Y93.1 E1345.503
G1 X116.25 Y85.7 E1345.834
G1 X108.85 Y78.3 E1346.164
G1 X101.45 Y70.9 E1346.495
G1 X94.05 Y63.5 E1346.826
G1 X86.65 Y56.1 E1347.156
G0 X86.65 Y56.67 F10800
G1 X93.99 Y64 E1347.484 F12000
G1 X101.32 Y71.34 E1347.812
G1 X108.66 Y78.68 E1348.14
G1 X116 Y86.02 E1348.468
G1 X123.33 Y93.35 E1348.796
G1 X130.67 Y100.69 E1349.123
G1 X138.01 Y108.03 E1349.451
G1 X145.34 Y115.36 E1349.779
G1 X152.68 Y122.7 E1350.107
G0 X152.12 Y122.7 F10800
G1 X144.84 Y115.43 E1350.432 F12000
G1 X137.57 Y108.15 E1350.757
G1 X130.29 Y100.88 E1351.082
G1 X123.02 Y93.6 E1351.407
G1 X115.75 Y86.33 E1351.732
G1 X108.47 Y79.06 E1352.057
G1 X101.2 Y71.78 E1352.382
G1 X93.92 Y64.51 E1352.707
G1 X86.65 Y57.23 E1353.032
G0 X86.65 Y57.8 F10800
G1 X93.86 Y65.01 E1353.355 F12000
G1 X101.07 Y72.22 E1353.677
G1 X108.28 Y79.43 E1353.999
G1 X115.49 Y86.64 E1354.321
G1 X122.7 Y93.85 E1354.643
G1 X129.92 Y101.07 E1354.966
G1 X137.13 Y108.28 E1355.288
G1 X144.34 Y115.49 E1355.61
G1 X151.55 Y122.7 E1355.932
G0 X150.98 Y122.7 F10800
G1 X143.84 Y115.55 E1356.252 F12000
G1 X136.69 Y108.4 E1356.571
G1 X129.54 Y101.25 E1356.891
G1 X122.39 Y94.11 E1357.21
G1 X115.24 Y86.96 E1357.529
G1 X108.09 Y79.81 E1357.849
G1 X100.95 Y72.66 E1358.168
G1 X93.8 Y65.51 E1358.488
G1 X86.65 Y58.37 E1358.807
G0 X86.65 Y58.93 F10800
G1 X93.73 Y66.02 E1359.124 F12000
G1 X100.82 Y73.1 E1359.44
G1 X107.91 Y80.19 E1359.757
G1 X114.99 Y87.27 E1360.074
G1 X122.08 Y94.36 E1360.39
G1 X129.16 Y101.44 E1360.707
G1 X136.25 Y108.53 E1361.023
G1 X143.33 Y115.61 E1361.34
G1 X150.42 Y122.7 E1361.657
G0 X149.85 Y122.7 F10800
G1 X141.95 Y114.8 E1362.01 F12000
G1 X134.05 Y106.9 E1362.363
G1 X126.15 Y99 E1362.716
G1 X118.25 Y91.1 E1363.069
G1 X110.35 Y83.2 E1363.422
G1 X102.45 Y75.3 E1363.775
G1 X94.55 Y67.4 E1364.128
G1 X86.65 Y59.5 E1364.481
G0 X86.65 Y60.06 F10800
G1 X94.48 Y67.89 E1364.831 F12000
G1 X102.31 Y75.72 E1365.181
G1 X110.14 Y83.55 E1365.531
G1 X117.97 Y91.38 E1365.88
G1 X125.8 Y99.21 E1366.23
G1 X133.63 Y107.04 E1366.58
G1 X141.46 Y114.87 E1366.93
G1 X149.29 Y122.7 E1367.28
G0 X148.72 Y122.7 F10800
G1 X140.96 Y114.94 E1367.627 F12000
G1 X133.2 Y107.18 E1367.973
G1 X125.44 Y99.42 E1368.32
G1 X117.69 Y91.66 E1368.667
G1 X109.93 Y83.9 E1369.013
G1 X102.17 Y76.15 E1369.36
G1 X94.41 Y68.39 E1369.707
G1 X86.65 Y60.63 E1370.054
G0 X86.65 Y61.19 F10800
G1 X94.34 Y68.88 E1370.397 F12000
G1 X102.03 Y76.57 E1370.741
G1 X109.71 Y84.26 E1371.084
G1 X117.4 Y91.95 E1371.428
G1 X125.09 Y99.63 E1371.771
G1 X132.78 Y107.32 E1372.115
G1 X140.47 Y115.01 E1372.458
G1 X148.16 Y122.7 E1372.802
G0 X147.59 Y122.7 F10800
G1 X139.97 Y115.08 E1373.142 F12000
G1 X132.35 Y107.46 E1373.483
G1 X124.74 Y99.85 E1373.823
G1 X117.12 Y92.23 E1374.164
G1 X109.5 Y84.61 E1374.504
G1 X101.88 Y76.99 E1374.844
G1 X94.27 Y69.38 E1375.185
G1 X86.65 Y61.76 E1375.525
G0 X86.65 Y62.33 F10800
G1 X94.2 Y69.87 E1375.862 F12000
G1 X101.74 Y77.42 E1376.2
G1 X109.29 Y84.97 E1376.537
G1 X116.84 Y92.51 E1376.874
G1 X124.38 Y100.06 E1377.211
G1 X131.93 Y107.61 E1377.548
G1 X139.48 Y115.15 E1377.886
G1 X147.02 Y122.7 E1378.223
G0 X146.46 Y122.7 F10800
G1 X138.98 Y115.22 E1378.557 F12000
G1 X131.51 Y107.75 E1378.891
G1 X124.03 Y100.27 E1379.225
G1 X116.55 Y92.79 E1379.559
G1 X109.08 Y85.32 E1379.893
G1 X101.6 Y77.84 E1380.227
G1 X94.13 Y70.37 E1380.561
G1 X86.65 Y62.89 E1380.895
G0 X86.65 Y63.46 F10800
G1 X94.05 Y70.86 E1381.226 F12000
G1 X101.46 Y78.27 E1381.557
G1 X108.87 Y85.67 E1381.888
G1 X116.27 Y93.08 E1382.219
G1 X123.68 Y100.48 E1382.55
G1 X131.08 Y107.89 E1382.881
G1 X138.49 Y115.29 E1383.212
G1 X145.89 Y122.7 E1383.543
G0 X145.33 Y122.7 F10800
G1 X137.99 Y115.36 E1383.871 F12000
G1 X130.66 Y108.03 E1384.198
G1 X123.32 Y100.7 E1384.526
G1 X115.99 Y93.36 E1384.854
G1 X108.65 Y86.03 E1385.182
G1 X101.32 Y78.69 E1385.509
G1 X93.98 Y71.36 E1385.837
G1 X86.65 Y64.02 E1386.165
G0 X86.65 Y64.59 F10800
G1 X93.91 Y71.85 E1386.489 F12000
G1 X101.18 Y79.12 E1386.814
G1 X108.44 Y86.38 E1387.139
G1 X115.71 Y93.64 E1387.463
G1 X122.97 Y100.91 E1387.788
G1 X130.23 Y108.17 E1388.112
G1 X137.5 Y115.44 E1388.437
G1 X144.76 Y122.7 E1388.762
G0 X144.2 Y122.7 F10800
G1 X137 Y115.51 E1389.083 F12000
G1 X129.81 Y108.31 E1389.404
G1 X122.62 Y101.12 E1389.726
G1 X115.42 Y93.93 E1390.047
G1 X108.23 Y86.73 E1390.369
G1 X101.04 Y79.54 E1390.69
G1 X93.84 Y72.35 E1391.012
G1 X86.65 Y65.15 E1391.333
G0 X86.65 Y65.72 F10800
G1 X93.77 Y72.84 E1391.651 F12000
G1 X100.89 Y79.96 E1391.97
G1 X108.02 Y87.09 E1392.288
G1 X115.14 Y94.21 E1392.606
G1 X122.26 Y101.33 E1392.924
G1 X129.38 Y108.45 E1393.243
G1 X136.51 Y115.58 E1393.561
G1 X143.63 Y122.7 E1393.879
G0 X143.06 Y122.7 F10800
G1 X135 Y114.64 E1394.239 F12000
G1 X126.95 Y106.58 E1394.599
G1 X118.89 Y98.52 E1394.96
G1 X110.83 Y90.46 E1395.32
G1 X102.77 Y82.4 E1395.68
G1 X94.71 Y74.34 E1396.04
G1 X86.65 Y66.28 E1396.4
G0 X86.65 Y66.85 F10800
G1 X94.63 Y74.83 E1396.757 F12000
G1 X102.61 Y82.81 E1397.113
G1 X110.58 Y90.79 E1397.47
G1 X118.56 Y98.76 E1397.826
G1 X126.54 Y106.74 E1398.183
G1 X134.52 Y114.72 E1398.539
G1 X142.5 Y122.7 E1398.896
G0 X141.93 Y122.7 F10800
G1 X134.04 Y114.8 E1399.249 F12000
G1 X126.14 Y106.9 E1399.602
G1 X118.24 Y99.01 E1399.954
G1 X110.34 Y91.11 E1400.307
G1 X102.44 Y83.21 E1400.66
G1 X94.55 Y75.31 E1401.013
G1 X86.65 Y67.42 E1401.366
G0 X86.65 Y67.98 F10800
G1 X94.47 Y75.8 E1401.715 F12000
G1 X102.28 Y83.61 E1402.065
G1 X110.1 Y91.43 E1402.414
G1 X117.92 Y99.25 E1402.763
G1 X125.73 Y107.07 E1403.113
G1 X133.55 Y114.88 E1403.462
G1 X141.37 Y122.7 E1403.811
G0 X140.8 Y122.7 F10800
G1 X133.07 Y114.96 E1404.157 F12000
G1 X125.33 Y107.23 E1404.503
G1 X117.59 Y99.49 E1404.848
G1 X109.86 Y91.76 E1405.194
G1 X102.12 Y84.02 E1405.54
G1 X94.39 Y76.28 E1405.885
G1 X86.65 Y68.55 E1406.231
G0 X86.65 Y69.11 F10800
G1 X94.3 Y76.77 E1406.573 F12000
G1 X101.96 Y84.42 E1406.915
G1 X109.61 Y92.08 E1407.257
G1 X117.27 Y99.73 E1407.599
G1 X124.93 Y107.39 E1407.941
G1 X132.58 Y115.04 E1408.283
G1 X140.24 Y122.7 E1408.625
G0 X139.67 Y122.7 F10800
G1 X132.1 Y115.12 E1408.964 F12000
G1 X124.52 Y107.55 E1409.302
G1 X116.95 Y99.98 E1409.641
G1 X109.37 Y92.4 E1409.979
G1 X101.8 Y84.83 E1410.318
G1 X94.22 Y77.25 E1410.656
G1 X86.65 Y69.68 E1410.995
G0 X86.65 Y70.24 F10800
G1 X94.14 Y77.74 E1411.33 F12000
G1 X101.64 Y85.23 E1411.664
G1 X109.13 Y92.72 E1411.999
G1 X116.62 Y100.22 E1412.334
G1 X124.12 Y107.71 E1412.669
G1 X131.61 Y115.21 E1413.004
G1 X139.1 Y122.7 E1413.339
G0 X138.54 Y122.7 F10800
G1 X131.13 Y115.29 E1413.67 F12000
G1 X123.71 Y107.87 E1414.001
G1 X116.3 Y100.46 E1414.332
G1 X108.89 Y93.05 E1414.664
G1 X101.47 Y85.64 E1414.995
G1 X94.06 Y78.22 E1415.326
G1 X86.65 Y70.81 E1415.657
G0 X86.65 Y71.38 F10800
G1 X93.98 Y78.71 E1415.985 F12000
G1 X101.31 Y86.04 E1416.313
G1 X108.65 Y93.37 E1416.64
G1 X115.98 Y100.7 E1416.968
G1 X123.31 Y108.04 E1417.295
G1 X130.64 Y115.37 E1417.623
G1 X137.97 Y122.7 E1417.951
G0 X137.41 Y122.7 F10800
G1 X130.16 Y115.45 E1418.275 F12000
G1 X122.9 Y108.2 E1418.599
G1 X115.65 Y100.95 E1418.923
G1 X108.4 Y93.69 E1419.247
G1 X101.15 Y86.44 E1419.571
G1 X93.9 Y79.19 E1419.895
G1 X86.65 Y71.94 E1420.219
G0 X86.65 Y72.51 F10800
G1 X93.82 Y79.68 E1420.539 F12000
G1 X100.99 Y86.85 E1420.86
G1 X108.16 Y94.02 E1421.18
G1 X115.33 Y101.19 E1421.5
G1 X122.5 Y108.36 E1421.821
G1 X129.67 Y115.53 E1422.141
G1 X136.84 Y122.7 E1422.462
G0 X136.28 Y122.7 F10800
G1 X129.19 Y115.61 E1422.778 F12000
G1 X122.1 Y108.52 E1423.095
G1 X115.01 Y101.43 E1423.412
G1 X107.92 Y94.34 E1423.729
G1 X100.83 Y87.25 E1424.046
G1 X93.74 Y80.16 E1424.362
G1 X86.65 Y73.07 E1424.679
G0 X86.65 Y73.64 F10800
G1 X94.83 Y81.81 E1425.045 F12000
G1 X103 Y89.99 E1425.41
G1 X111.18 Y98.17 E1425.775
G1 X119.36 Y106.35 E1426.141
G1 X127.53 Y114.52 E1426.506
G1 X135.71 Y122.7 E1426.872
G0 X135.15 Y122.7 F10800
G1 X127.06 Y114.62 E1427.233 F12000
G1 X118.98 Y106.53 E1427.594
G1 X110.9 Y98.45 E1427.955
G1 X102.81 Y90.37 E1428.316
G1 X94.73 Y82.29 E1428.677
G1 X86.65 Y74.2 E1429.039
G0 X86.65 Y74.77 F10800
G1 X94.64 Y82.76 E1429.396 F12000
G1 X102.63 Y90.75 E1429.752
G1 X110.61 Y98.73 E1430.109
G1 X118.6 Y106.72 E1430.466
G1 X126.59 Y114.71 E1430.823
G1 X134.58 Y122.7 E1431.18
G0 X134.01 Y122.7 F10800
G1 X126.12 Y114.81 E1431.533 F12000
G1 X118.23 Y106.91 E1431.886
G1 X110.33 Y99.02 E1432.239
G1 X102.44 Y91.12 E1432.591
G1 X94.54 Y83.23 E1432.944
G1 X86.65 Y75.34 E1433.297
G0 X86.65 Y75.9 F10800
G1 X94.45 Y83.7 E1433.645 F12000
G1 X102.25 Y91.5 E1433.994
G1 X110.05 Y99.3 E1434.342
G1 X117.85 Y107.1 E1434.691
G1 X125.65 Y114.9 E1435.039
G1 X133.45 Y122.7 E1435.388
G0 X132.88 Y122.7 F10800
G1 X125.18 Y114.99 E1435.732 F12000
G1 X117.47 Y107.29 E1436.077
G1 X109.77 Y99.58 E1436.421
G1 X102.06 Y91.88 E1436.765
G1 X94.35 Y84.17 E1437.11
G1 X86.65 Y76.47 E1437.454
G0 X86.65 Y77.03 F10800
G1 X94.26 Y84.64 E1437.794 F12000
G1 X101.87 Y92.25 E1438.134
G1 X109.48 Y99.87 E1438.474
G1 X117.09 Y107.48 E1438.814
G1 X124.7 Y115.09 E1439.154
G1 X132.32 Y122.7 E1439.495
G0 X131.75 Y122.7 F10800
G1 X124.23 Y115.18 E1439.83 F12000
G1 X116.72 Y107.67 E1440.166
G1 X109.2 Y100.15 E1440.502
G1 X101.68 Y92.63 E1440.838
G1 X94.17 Y85.11 E1441.174
G1 X86.65 Y77.6 E1441.51
G0 X86.65 Y78.16 F10800
G1 X94.07 Y85.59 E1441.842 F12000
G1 X101.49 Y93.01 E1442.173
G1 X108.92 Y100.43 E1442.505
G1 X116.34 Y107.85 E1442.837
G1 X123.76 Y115.28 E1443.168
G1 X131.19 Y122.7 E1443.5
G0 X130.62 Y122.7 F10800
G1 X123.29 Y115.37 E1443.827 F12000
G1 X115.96 Y108.04 E1444.155
G1 X108.63 Y100.71 E1444.482
G1 X101.31 Y93.39 E1444.81
G1 X93.98 Y86.06 E1445.137
G1 X86.65 Y78.73 E1445.465
G0 X86.65 Y79.3 F10800
G1 X93.88 Y86.53 E1445.788 F12000
G1 X101.12 Y93.76 E1446.111
G1 X108.35 Y101 E1446.434
G1 X115.59 Y108.23 E1446.758
G1 X122.82 Y115.47 E1447.081
G1 X130.05 Y122.7 E1447.404
G0 X129.49 Y122.7 F10800
G1 X122.35 Y115.56 E1447.723 F12000
G1 X115.21 Y108.42 E1448.042
G1 X108.07 Y101.28 E1448.361
G1 X100.93 Y94.14 E1448.68
G1 X93.79 Y87 E1448.999
G1 X86.65 Y79.86 E1449.318
G0 X86.65 Y80.43 F10800
G1 X95.1 Y88.88 E1449.696 F12000
G1 X103.56 Y97.34 E1450.074
G1 X112.01 Y105.79 E1450.452
G1 X120.47 Y114.24 E1450.83
G1 X128.92 Y122.7 E1451.207
G0 X128.36 Y122.7 F10800
G1 X120.01 Y114.36 E1451.58 F12000
G1 X111.67 Y106.02 E1451.953
G1 X103.33 Y97.67 E1452.326
G1 X94.99 Y89.33 E1452.698
G1 X86.65 Y80.99 E1453.071
G0 X86.65 Y81.56 F10800
G1 X94.88 Y89.79 E1453.439 F12000
G1 X103.11 Y98.01 E1453.806
G1 X111.33 Y106.24 E1454.174
G1 X119.56 Y114.47 E1454.542
G1 X127.79 Y122.7 E1454.91
G0 X127.23 Y122.7 F10800
G1 X119.11 Y114.58 E1455.272 F12000
G1 X110.99 Y106.47 E1455.635
G1 X102.88 Y98.35 E1455.997
G1 X94.76 Y90.24 E1456.36
G1 X86.65 Y82.12 E1456.723
G0 X86.65 Y82.69 F10800
G1 X94.65 Y90.69 E1457.08 F12000
G1 X102.65 Y98.69 E1457.438
G1 X110.66 Y106.7 E1457.795
G1 X118.66 Y114.7 E1458.153
G1 X126.66 Y122.7 E1458.51
G0 X126.09 Y122.7 F10800
G1 X118.21 Y114.81 E1458.863 F12000
G1 X110.32 Y106.92 E1459.216
G1 X102.43 Y99.03 E1459.568
G1 X94.54 Y91.14 E1459.921
G1 X86.65 Y83.26 E1460.273
G0 X86.65 Y83.82 F10800
G1 X94.42 Y91.6 E1460.621 F12000
G1 X102.2 Y99.37 E1460.968
G1 X109.98 Y107.15 E1461.315
G1 X117.75 Y114.92 E1461.663
G1 X125.53 Y122.7 E1462.01
G0 X124.96 Y122.7 F10800
G1 X117.3 Y115.04 E1462.353 F12000
G1 X109.64 Y107.37 E1462.695
G1 X101.97 Y99.71 E1463.038
G1 X94.31 Y92.05 E1463.38
G1 X86.65 Y84.39 E1463.722
G0 X86.65 Y84.95 F10800
G1 X94.2 Y92.5 E1464.06 F12000
G1 X101.75 Y100.05 E1464.397
G1 X109.3 Y107.6 E1464.734
G1 X116.85 Y115.15 E1465.072
G1 X124.4 Y122.7 E1465.409
G0 X123.83 Y122.7 F10800
G1 X116.39 Y115.26 E1465.741 F12000
G1 X108.96 Y107.83 E1466.074
G1 X101.52 Y100.39 E1466.406
G1 X94.09 Y92.95 E1466.738
G1 X86.65 Y85.52 E1467.071
G0 X86.65 Y86.08 F10800
G1 X93.97 Y93.41 E1467.398 F12000
G1 X101.3 Y100.73 E1467.725
G1 X108.62 Y108.05 E1468.052
G1 X115.94 Y115.38 E1468.38
G1 X123.27 Y122.7 E1468.707
G0 X122.7 Y122.7 F10800
G1 X115.49 Y115.49 E1469.029 F12000
G1 X108.28 Y108.28 E1469.351
G1 X101.07 Y101.07 E1469.673
G1 X93.86 Y93.86 E1469.995
G1 X86.65 Y86.65 E1470.318
G0 X86.65 Y87.22 F10800
G1 X93.75 Y94.31 E1470.635 F12000
G1 X100.84 Y101.41 E1470.952
G1 X107.94 Y108.51 E1471.269
G1 X115.04 Y115.6 E1471.586
G1 X122.13 Y122.7 E1471.903
G0 X121.57 Y122.7 F10800
G1 X112.84 Y113.97 E1472.293 F12000
G1 X104.11 Y105.24 E1472.683
G1 X95.38 Y96.51 E1473.074
G1 X86.65 Y87.78 E1473.464
G0 X86.65 Y88.35 F10800
G1 X95.24 Y96.93 E1473.847 F12000
G1 X103.83 Y105.52 E1474.231
G1 X112.41 Y114.11 E1474.615
G1 X121 Y122.7 E1474.999
G0 X120.44 Y122.7 F10800
G1 X111.99 Y114.25 E1475.376 F12000
G1 X103.54 Y105.81 E1475.754
G1 X95.1 Y97.36 E1476.131
G1 X86.65 Y88.91 E1476.509
G0 X86.65 Y89.48 F10800
G1 X94.95 Y97.78 E1476.88 F12000
G1 X103.26 Y106.09 E1477.251
G1 X111.56 Y114.39 E1477.622
G1 X119.87 Y122.7 E1477.993
G0 X119.31 Y122.7 F10800
G1 X111.14 Y114.54 E1478.358 F12000
G1 X102.98 Y106.37 E1478.723
G1 X94.81 Y98.21 E1479.087
G1 X86.65 Y90.04 E1479.452
G0 X86.65 Y90.61 F10800
G1 X94.67 Y98.63 E1479.811 F12000
G1 X102.69 Y106.65 E1480.169
G1 X110.72 Y114.68 E1480.528
G1 X118.74 Y122.7 E1480.886
G0 X118.17 Y122.7 F10800
G1 X110.29 Y114.82 E1481.238 F12000
G1 X102.41 Y106.94 E1481.591
G1 X94.53 Y99.06 E1481.943
G1 X86.65 Y91.18 E1482.295
G0 X86.65 Y91.74 F10800
G1 X94.39 Y99.48 E1482.641 F12000
G1 X102.13 Y107.22 E1482.987
G1 X109.87 Y114.96 E1483.332
G1 X117.61 Y122.7 E1483.678
G0 X117.04 Y122.7 F10800
G1 X109.44 Y115.1 E1484.018 F12000
G1 X101.85 Y107.5 E1484.357
G1 X94.25 Y99.9 E1484.697
G1 X86.65 Y92.31 E1485.036
G0 X86.65 Y92.87 F10800
G1 X94.11 Y100.33 E1485.37 F12000
G1 X101.56 Y107.79 E1485.703
G1 X109.02 Y115.24 E1486.036
G1 X116.48 Y122.7 E1486.369
G0 X115.91 Y122.7 F10800
G1 X108.6 Y115.38 E1486.696 F12000
G1 X101.28 Y108.07 E1487.023
G1 X93.96 Y100.75 E1487.35
G1 X86.65 Y93.44 E1487.677
G0 X86.65 Y94 F10800
G1 X93.82 Y101.18 E1487.997 F12000
G1 X101 Y108.35 E1488.318
G1 X108.17 Y115.53 E1488.638
G1 X115.35 Y122.7 E1488.959
G0 X114.78 Y122.7 F10800
G1 X105.4 Y113.32 E1489.378 F12000
G1 X96.03 Y103.95 E1489.797
G1 X86.65 Y94.57 E1490.216
G0 X86.65 Y95.13 F10800
G1 X95.84 Y104.32 E1490.627 F12000
G1 X105.03 Y113.51 E1491.037
G1 X114.21 Y122.7 E1491.448
G0 X113.65 Y122.7 F10800
G1 X104.65 Y113.7 E1491.85 F12000
G1 X95.65 Y104.7 E1492.252
G1 X86.65 Y95.7 E1492.654
G0 X86.65 Y96.27 F10800
G1 X95.46 Y105.08 E1493.048 F12000
G1 X104.27 Y113.89 E1493.442
G1 X113.08 Y122.7 E1493.835
G0 X112.52 Y122.7 F10800
G1 X103.89 Y114.08 E1494.221 F12000
G1 X95.27 Y105.45 E1494.606
G1 X86.65 Y96.83 E1494.991
G0 X86.65 Y97.4 F10800
G1 X95.08 Y105.83 E1495.368 F12000
G1 X103.52 Y114.27 E1495.745
G1 X111.95 Y122.7 E1496.122
G0 X111.39 Y122.7 F10800
G1 X103.14 Y114.45 E1496.49 F12000
G1 X94.89 Y106.21 E1496.859
G1 X86.65 Y97.96 E1497.227
G0 X86.65 Y98.53 F10800
G1 X94.71 Y106.59 E1497.587 F12000
G1 X102.76 Y114.64 E1497.947
G1 X110.82 Y122.7 E1498.307
G0 X110.25 Y122.7 F10800
G1 X102.39 Y114.83 E1498.659 F12000
G1 X94.52 Y106.96 E1499.011
G1 X86.65 Y99.09 E1499.362
G0 X86.65 Y99.66 F10800
G1 X94.33 Y107.34 E1499.705 F12000
G1 X102.01 Y115.02 E1500.048
G1 X109.69 Y122.7 E1500.392
G0 X109.12 Y122.7 F10800
G1 X101.63 Y115.21 E1500.726 F12000
G1 X94.14 Y107.72 E1501.061
G1 X86.65 Y100.23 E1501.396
G0 X86.65 Y100.79 F10800
G1 X93.95 Y108.09 E1501.722 F12000
G1 X101.25 Y115.4 E1502.048
G1 X108.56 Y122.7 E1502.375
G0 X107.99 Y122.7 F10800
G1 X100.88 Y115.59 E1502.693 F12000
G1 X93.76 Y108.47 E1503.011
G1 X86.65 Y101.36 E1503.328
G0 X86.65 Y101.92 F10800
G1 X97.04 Y112.31 E1503.793 F12000
G1 X107.43 Y122.7 E1504.257
G0 X106.86 Y122.7 F10800
G1 X96.75 Y112.59 E1504.708 F12000
G1 X86.65 Y102.49 E1505.16
G0 X86.65 Y103.05 F10800
G1 X96.47 Y112.88 E1505.599 F12000
G1 X106.29 Y122.7 E1506.038
G0 X105.73 Y122.7 F10800
G1 X96.19 Y113.16 E1506.464 F12000
G1 X86.65 Y103.62 E1506.89
G0 X86.65 Y104.19 F10800
G1 X95.91 Y113.44 E1507.304 F12000
G1 X105.16 Y122.7 E1507.718
G0 X104.6 Y122.7 F10800
G1 X95.62 Y113.73 E1508.119 F12000
G1 X86.65 Y104.75 E1508.52
G0 X86.65 Y105.32 F10800
G1 X95.34 Y114.01 E1508.908 F12000
G1 X104.03 Y122.7 E1509.296
G0 X103.47 Y122.7 F10800
G1 X95.06 Y114.29 E1509.672 F12000
G1 X86.65 Y105.88 E1510.048
G0 X86.65 Y106.45 F10800
G1 X94.77 Y114.57 E1510.411 F12000
G1 X102.9 Y122.7 E1510.774
G0 X102.33 Y122.7 F10800
G1 X94.49 Y114.86 E1511.124 F12000
G1 X86.65 Y107.01 E1511.475
G0 X86.65 Y107.58 F10800
G1 X94.21 Y115.14 E1511.813 F12000
G1 X101.77 Y122.7 E1512.15
G0 X101.2 Y122.7 F10800
G1 X93.93 Y115.42 E1512.476 F12000
G1 X86.65 Y108.15 E1512.801
G0 X86.65 Y108.71 F10800
G1 X100.64 Y122.7 E1513.426 F12000
G0 X100.07 F10800
G1 X86.65 Y109.28 E1514.026 F12000
G0 Y109.84 F10800
G1 X99.51 Y122.7 E1514.6 F12000
G0 X98.94 F10800
G1 X86.65 Y110.41 E1515.149 F12000
G0 Y110.97 F10800
G1 X98.37 Y122.7 E1515.673 F12000
G0 X97.81 F10800
G1 X86.65 Y111.54 E1516.172 F12000
G0 Y112.11 F10800
G1 X97.24 Y122.7 E1516.645 F12000
G0 X96.68 F10800
G1 X86.65 Y112.67 E1517.094 F12000
G0 Y113.24 F10800
G1 X96.11 Y122.7 E1517.516 F12000
G0 X95.55 F10800
G1 X86.65 Y113.8 E1517.914 F12000
G0 Y114.37 F10800
G1 X94.98 Y122.7 E1518.286 F12000
G0 X94.42 F10800
G1 X86.65 Y114.93 E1518.633 F12000
G0 Y115.5 F10800
G1 X93.85 Y122.7 E1518.955 F12000
G0 X93.28 F10800
G1 X86.65 Y116.07 E1519.251 F12000
G0 Y116.63 F10800
G1 X92.72 Y122.7 E1519.523 F12000
G0 X92.15 F10800
G1 X86.65 Y117.2 E1519.768 F12000
G0 Y117.76 F10800
G1 X91.59 Y122.7 E1519.989 F12000
G0 X91.02 F10800
G1 X86.65 Y118.33 E1520.184 F12000
G0 Y118.89 F10800
G1 X90.46 Y122.7 E1520.355 F12000
G0 X89.89 F10800
G1 X86.65 Y119.46 E1520.499 F12000
G0 Y120.03 F10800
G1 X89.32 Y122.7 E1520.619 F12000
G0 X88.76 F10800
G1 X86.65 Y120.59 E1520.713 F12000
G0 Y121.16 F10800
G1 X88.19 Y122.7 E1520.782 F12000
G0 X87.63 F10800
G1 X86.65 Y121.72 E1520.826 F12000
G0 Y122.29 F10800
G1 X87.06 Y122.7 E1520.844 F12000
; Layer Change GCode
; LAYER:2
; LAYER_HEIGHT:0.2
; TYPE:FILL
G1 E1520.044 F2100
G0 Z1
G0 Z1.2 F10800
G0 X93.2 Y116.07
G0 X99.34 Y109.45
G0 X105.48 Y102.83
G0 X111.62 Y96.2
G0 X117.77 Y89.58
G0 X123.91 Y82.95
G0 X130.05 Y76.33
G0 X136.19 Y69.7
G0 X142.33 Y63.08
G0 X148.47 Y56.45
G0 X154.61 Y49.83
; TYPE:WALL-INNER
G0 Z0.6
G1 E1520.844 F2100
G1 X154.5 Y50.95 E1520.88 F2700
G1 Y55.75 E1521.031
G1 Y60.56 E1521.183
G1 Y65.36 E1521.335
G1 Y70.16 E1521.487
G1 Y74.97 E1521.639
G1 Y79.77 E1521.79
G1 Y84.57 E1521.942
G1 Y89.38 E1522.094
G1 Y94.18 E1522.246
G1 Y98.98 E1522.397
G1 Y103.79 E1522.549
G1 Y108.59 E1522.701
G1 Y113.39 E1522.853
G1 Y118.2 E1523.004
G1 Y123 E1523.156
G1 X149.6 E1523.311
G1 X144.69 E1523.466
G1 X139.79 E1523.621
G1 X134.89 E1523.776
G1 X129.99 E1523.931
G1 X125.08 E1524.086
G1 X120.18 E1524.241
G1 X115.28 E1524.396
G1 X110.38 E1524.55
G1 X105.47 E1524.705
G1 X100.57 E1524.86
G1 X95.67 E1525.015
G1 X90.76 E1525.17
G1 X85.86 E1525.325
G1 Y118.19 E1525.477
G1 Y113.38 E1525.629
G1 Y108.57 E1525.781
G1 Y103.76 E1525.933
G1 Y98.95 E1526.085
G1 Y94.14 E1526.237
G1 Y89.33 E1526.389
G1 Y84.52 E1526.541
G1 Y79.71 E1526.693
G1 Y74.9 E1526.845
G1 Y70.1 E1526.997
G1 Y65.29 E1527.149
G1 Y60.48 E1527.301
G1 Y55.67 E1527.453
G1 Y50.86 E1527.605
G1 Y46.05 E1527.756
G1 Y41.24 E1527.908
G1 Y36.43 E1528.06
G1 Y31.62 E1528.212
G1 Y26.81 E1528.364
G1 Y22 E1528.516
G1 X90.64 E1528.667
G1 X95.43 E1528.818
G1 X100.21 E1528.97
G1 X104.99 E1529.121
G1 X109.77 E1529.272
G1 X114.55 E1529.423
G1 X119.34 E1529.574
G1 X124.12 E1529.725
G1 X128.9 E1529.876
G1 X133.68 E1530.027
G1 X138.46 E1530.178
G1 X143.24 E1530.329
G1 X148.03 E1530.481
G1 X152.81 E1530.632
G1 X157.59 E1530.783
G1 X162.37 E1530.934
G1 X167.15 E1531.085
G1 X171.94 E1531.236
G1 X176.72 E1531.387
G1 X181.5 E1531.538
G1 Y26.74 E1531.688
G1 Y31.48 E1531.838
G1 Y36.21 E1531.987
G1 Y40.95 E1532.137
G1 X181.42 Y41.78 E1532.163
G1 X181.19 Y42.53 E1532.188
G1 X180.82 Y43.22 E1532.213
G1 X180.33 Y43.83 E1532.238
G1 X179.72 Y44.32 E1532.262
G1 X179.03 Y44.69 E1532.287
G1 X178.28 Y44.92 E1532.312
G1 X177.45 Y45 E1532.338
G1 X173.2 E1532.472
G1 X168.95 E1532.607
G1 X164.7 E1532.741
G1 X160.45 E1532.875
G1 X159.33 Y45.11 E1532.911
G1 X158.2 Y45.45 E1532.948
G1 X157.16 Y46.01 E1532.985
G1 X156.25 Y46.75 E1533.022
G1 X155.51 Y47.66 E1533.06
G1 X154.95 Y48.7 E1533.097
G1 X154.65 Y49.71 E1533.13
G0 X154.61 Y49.83
G0 X155.01 Y49.91 F10800
G1 X154.9 Y50.97 E1533.164 F2700
G1 Y55.8 E1533.317
G1 Y60.63 E1533.469
G1 Y65.46 E1533.622
G1 Y70.29 E1533.774
G1 Y75.11 E1533.927
G1 Y79.94 E1534.079
G1 Y84.77 E1534.232
G1 Y89.6 E1534.385
G1 Y94.43 E1534.537
G1 Y99.26 E1534.69
G1 Y104.09 E1534.842
G1 Y108.91 E1534.995
G1 Y113.74 E1535.147
G1 Y118.57 E1535.3
G1 Y123.4 E1535.453
G1 X149.94 E1535.609
G1 X144.98 E1535.766
G1 X140.02 E1535.923
G1 X135.06 E1536.079
G1 X130.1 E1536.236
G1 X125.14 E1536.393
G1 X120.18 E1536.55
G1 X115.22 E1536.706
G1 X110.26 E1536.863
G1 X105.3 E1537.02
G1 X100.34 E1537.176
G1 X95.38 E1537.333
G1 X90.42 E1537.49
G1 X85.46 E1537.647
G1 Y118.55 E1537.8
G1 Y113.7 E1537.953
G1 Y108.86 E1538.106
G1 Y104.01 E1538.259
G1 Y99.16 E1538.412
G1 Y94.31 E1538.566
G1 Y89.47 E1538.719
G1 Y84.62 E1538.872
G1 Y79.77 E1539.025
G1 Y74.92 E1539.178
G1 Y70.08 E1539.331
G1 Y65.23 E1539.485
G1 Y60.38 E1539.638
G1 Y55.53 E1539.791
G1 Y50.69 E1539.944
G1 Y45.84 E1540.097
G1 Y40.99 E1540.25
G1 Y36.14 E1540.404
G1 Y31.3 E1540.557
G1 Y26.45 E1540.71
G1 Y21.6 E1540.863
G1 X90.28 E1541.016
G1 X95.11 E1541.168
G1 X99.93 E1541.32
G1 X104.75 E1541.473
G1 X109.57 E1541.625
G1 X114.39 E1541.777
G1 X119.22 E1541.93
G1 X124.04 E1542.082
G1 X128.86 E1542.234
G1 X133.68 E1542.387
G1 X138.5 E1542.539
G1 X143.32 E1542.691
G1 X148.15 E1542.844
G1 X152.97 E1542.996
G1 X157.79 E1543.149
G1 X162.61 E1543.301
G1 X167.43 E1543.453
G1 X172.26 E1543.606
G1 X177.08 E1543.758
G1 X181.9 E1543.91
G1 Y26.44 E1544.063
G1 Y31.29 E1544.216
G1 Y36.13 E1544.369
G1 Y40.97 E1544.522
G1 X181.81 Y41.86 E1544.551
G1 X181.56 Y42.68 E1544.578
G1 X181.16 Y43.44 E1544.605
G1 X180.61 Y44.11 E1544.632
G1 X179.94 Y44.66 E1544.66
G1 X179.18 Y45.06 E1544.687
G1 X178.36 Y45.31 E1544.714
G1 X177.47 Y45.4 E1544.742
G1 X173.22 E1544.876
G1 X168.97 E1545.011
G1 X164.72 E1545.145
G1 X160.47 E1545.279
G1 X159.41 Y45.51 E1545.313
G1 X158.36 Y45.82 E1545.348
G1 X157.39 Y46.34 E1545.382
G1 X156.54 Y47.04 E1545.417
G1 X155.84 Y47.89 E1545.452
G1 X155.32 Y48.86 E1545.487
G1 X155.04 Y49.79 E1545.517
G0 X155.01 Y49.91
G0 X155.4 Y49.99 F10800
; TYPE:WALL-OUTER
G1 X155.3 Y50.99 E1545.549 F2100
G1 Y55.84 E1545.703
G1 Y60.7 E1545.856
G1 Y65.55 E1546.01
G1 Y70.41 E1546.163
G1 Y75.26 E1546.316
G1 Y80.11 E1546.47
G1 Y84.97 E1546.623
G1 Y89.82 E1546.776
G1 Y94.68 E1546.93
G1 Y99.53 E1547.083
G1 Y104.38 E1547.236
G1 Y109.24 E1547.39
G1 Y114.09 E1547.543
G1 Y118.95 E1547.697
G1 Y123.8 E1547.85
G1 X150.62 E1547.998
G1 X145.93 E1548.146
G1 X141.25 E1548.294
G1 X136.57 E1548.442
G1 X131.89 E1548.59
G1 X127.2 E1548.738
G1 X122.52 E1548.886
G1 X117.84 E1549.034
G1 X113.16 E1549.182
G1 X108.47 E1549.33
G1 X103.79 E1549.477
G1 X99.11 E1549.625
G1 X94.43 E1549.773
G1 X89.74 E1549.921
G1 X85.06 E1550.069
G1 Y118.91 E1550.224
G1 Y114.03 E1550.378
G1 Y109.14 E1550.532
G1 Y104.26 E1550.687
G1 Y99.37 E1550.841
G1 Y94.49 E1550.996
G1 Y89.6 E1551.15
G1 Y84.71 E1551.304
G1 Y79.83 E1551.459
G1 Y74.94 E1551.613
G1 Y70.06 E1551.767
G1 Y65.17 E1551.922
G1 Y60.29 E1552.076
G1 Y55.4 E1552.231
G1 Y50.51 E1552.385
G1 Y45.63 E1552.539
G1 Y40.74 E1552.694
G1 Y35.86 E1552.848
G1 Y30.97 E1553.002
G1 Y26.09 E1553.157
G1 Y21.2 E1553.311
G1 X89.92 E1553.465
G1 X94.79 E1553.618
G1 X99.65 E1553.772
G1 X104.51 E1553.926
G1 X109.37 E1554.079
G1 X114.23 E1554.233
G1 X119.1 E1554.387
G1 X123.96 E1554.54
G1 X128.82 E1554.694
G1 X133.68 E1554.847
G1 X138.54 E1555.001
G1 X143.4 E1555.155
G1 X148.27 E1555.308
G1 X153.13 E1555.462
G1 X157.99 E1555.616
G1 X162.85 E1555.769
G1 X167.71 E1555.923
G1 X172.58 E1556.076
G1 X177.44 E1556.23
G1 X182.3 E1556.384
G1 Y26.15 E1556.54
G1 Y31.1 E1556.696
G1 Y36.04 E1556.853
G1 Y40.99 E1557.009
G1 X182.21 Y41.94 E1557.039
G1 X181.93 Y42.84 E1557.069
G1 X181.49 Y43.66 E1557.098
G1 X180.89 Y44.39 E1557.128
G1 X180.16 Y44.99 E1557.158
G1 X179.34 Y45.43 E1557.188
G1 X178.44 Y45.71 E1557.217
G1 X177.49 Y45.8 E1557.247
G1 X173.24 E1557.382
G1 X168.99 E1557.516
G1 X164.74 E1557.65
G1 X160.49 E1557.784
G1 X159.49 Y45.9 E1557.816
G1 X158.51 Y46.19 E1557.849
G1 X157.61 Y46.68 E1557.881
G1 X156.82 Y47.32 E1557.913
G1 X156.18 Y48.11 E1557.945
G1 X155.69 Y49.01 E1557.977
G1 X155.43 Y49.87 E1558.006
G0 X155.4 Y49.99
G0 X155.3 Y50.99
G0 Y52.98
G0 X154.61 Y49.83 F10800
G1 E1557.206 F2100
G0 Z1.2
G0 X156.36 Y46.86 F10800
G0 X159.52 Y45.2
G0 X176.16 Y44.55
G0 X179.17 Y44.27
; TYPE:FILL
G0 Z0.6
G1 E1558.006 F2100
G1 X180.77 Y42.67 E1558.077 F12000
G0 X181.11 Y41.77 F10800
G1 X178.27 Y44.61 E1558.204 F12000
G0 X177.63 Y44.68 F10800
G1 X181.18 Y41.13 E1558.362 F12000
G0 X181.2 Y40.55 F10800
G1 X177.05 Y44.7 E1558.548 F12000
G0 X176.48 F10800
G1 X181.2 Y39.98 E1558.758 F12000
G0 Y39.42 F10800
G1 X175.92 Y44.7 E1558.994 F12000
