; Generated with MatterSlice 2.22.04
; filamentDiameter = 1.75
; extrusionWidth = 0.4
; firstLayerExtrusionWidth = 0.4
; layerThickness = 0.2
; firstLayerThickness = 0.2
; automatic settings before start_gcode
G21 ; set units to millimeters
M107 ; fan off
M140 S60 ; start heating the bed
M104 T0 S210 ; start heating T0
M190 S60 ; wait for bed temperature to be reached
T0 ; set the active extruder to 0
; settings from start_gcode
M75
G28 ; home all axes
G1 Z15 F6000
M109 S210
M117 Printing
; automatic settings after start_gcode
T0 ; set the active extruder to 0
G90 ; use absolute coordinates
G92 E0 ; reset the expected extruder position
M82 ; use absolute distance for extrusion
; Layer count: 100
; Layer Change GCode
; LAYER:0
; LAYER_HEIGHT:0.2
; TYPE:FILL
M400
M107
G1 X165.01 Y149.92 Z0.2 F7200
; TYPE:SKIRT
G1 F2400
G1 X164.8 Y152.53 E0.087 F1200
G1 X164.14 Y155.06 E0.174
G1 X163.04 Y157.44 E0.261
G1 X161.55 Y159.59 E0.348
G1 X159.71 Y161.45 E0.435
G1 X157.57 Y162.96 E0.522
G1 X155.21 Y164.08 E0.609
G1 X152.68 Y164.77 E0.696
G1 X150.08 Y165.01 E0.784
G1 X147.47 Y164.8 E0.871
G1 X144.94 Y164.14 E0.958
G1 X142.56 Y163.04 E1.045
G1 X140.41 Y161.55 E1.132
G1 X138.55 Y159.71 E1.219
G1 X137.04 Y157.57 E1.306
G1 X135.92 Y155.21 E1.393
G1 X135.23 Y152.68 E1.48
G1 X134.99 Y150.08 E1.567
G1 X135.2 Y147.47 E1.654
G1 X135.86 Y144.94 E1.741
G1 X136.96 Y142.56 E1.828
G1 X138.45 Y140.41 E1.915
G1 X140.29 Y138.55 E2.002
G1 X142.43 Y137.04 E2.089
G1 X144.79 Y135.92 E2.176
G1 X147.32 Y135.23 E2.263
G1 X149.92 Y134.99 E2.35
G1 X152.53 Y135.2 E2.437
G1 X155.06 Y135.86 E2.525
G1 X157.44 Y136.96 E2.612
G1 X159.59 Y138.45 E2.699
G1 X161.45 Y140.29 E2.786
G1 X162.96 Y142.43 E2.873
G1 X164.08 Y144.79 E2.96
G1 X164.77 Y147.32 E3.047
G1 X165.01 Y149.92 E3.134
G1 X164.61 Y149.92 F7200
G1 X164.41 Y152.46 E3.219 F1200
G1 X163.76 Y154.93 E3.303
G1 X162.69 Y157.24 E3.388
G1 X161.24 Y159.33 E3.473
G1 X159.45 Y161.14 E3.557
G1 X157.37 Y162.62 E3.642
G1 X155.07 Y163.71 E3.727
G1 X152.61 Y164.38 E3.812
G1 X150.08 Y164.61 E3.896
G1 X147.54 Y164.41 E3.981
G1 X145.07 Y163.76 E4.066
G1 X142.76 Y162.69 E4.15
G1 X140.67 Y161.24 E4.235
G1 X138.86 Y159.45 E4.32
G1 X137.38 Y157.37 E4.405
G1 X136.29 Y155.07 E4.489
G1 X135.62 Y152.61 E4.574
G1 X135.39 Y150.08 E4.659
G1 X135.59 Y147.54 E4.744
G1 X136.24 Y145.07 E4.828
G1 X137.31 Y142.76 E4.913
G1 X138.76 Y140.67 E4.998
G1 X140.55 Y138.86 E5.082
G1 X142.63 Y137.38 E5.167
G1 X144.93 Y136.29 E5.252
G1 X147.39 Y135.62 E5.337
G1 X149.92 Y135.39 E5.421
G1 X152.46 Y135.59 E5.506
G1 X154.93 Y136.24 E5.591
G1 X157.24 Y137.31 E5.675
G1 X159.33 Y138.76 E5.76
G1 X161.14 Y140.55 E5.845
G1 X162.62 Y142.63 E5.93
G1 X163.71 Y144.93 E6.014
G1 X164.38 Y147.39 E6.099
G1 X164.61 Y149.92 E6.184
G1 X164.21 Y149.92 F7200
G1 X164.01 Y152.39 E6.266 F1200
G1 X163.38 Y154.79 E6.349
G1 X162.34 Y157.04 E6.431
G1 X160.93 Y159.08 E6.513
G1 X159.19 Y160.84 E6.596
G1 X157.17 Y162.27 E6.678
G1 X154.93 Y163.33 E6.761
G1 X152.54 Y163.98 E6.843
G1 X150.07 Y164.21 E6.925
G1 X147.61 Y164.01 E7.008
G1 X145.21 Y163.38 E7.09
G1 X142.96 Y162.34 E7.173
G1 X140.92 Y160.93 E7.255
G1 X139.16 Y159.19 E7.337
G1 X137.73 Y157.17 E7.42
G1 X136.67 Y154.93 E7.502
G1 X136.02 Y152.54 E7.584
G1 X135.79 Y150.07 E7.667
G1 X135.99 Y147.61 E7.749
G1 X136.62 Y145.21 E7.832
G1 X137.66 Y142.96 E7.914
G1 X139.07 Y140.92 E7.996
G1 X140.81 Y139.16 E8.079
G1 X142.83 Y137.73 E8.161
G1 X145.07 Y136.67 E8.244
G1 X147.46 Y136.02 E8.326
G1 X149.93 Y135.79 E8.408
G1 X152.39 Y135.99 E8.491
G1 X154.79 Y136.62 E8.573
G1 X157.04 Y137.66 E8.656
G1 X159.08 Y139.07 E8.738
G1 X160.84 Y140.81 E8.82
G1 X162.27 Y142.83 E8.903
G1 X163.33 Y145.07 E8.985
G1 X163.98 Y147.46 E9.068
G1 X164.21 Y149.92 E9.15
G1 X163.81 Y149.93 F7200
G1 X163.61 Y152.33 E9.23 F1200
G1 X163 Y154.66 E9.31
G1 X162 Y156.84 E9.39
G1 X160.63 Y158.82 E9.47
G1 X158.93 Y160.53 E9.55
G1 X156.97 Y161.92 E9.63
G1 X154.79 Y162.95 E9.71
G1 X152.47 Y163.59 E9.79
G1 X150.07 Y163.81 E9.871
G1 X147.67 Y163.61 E9.951
G1 X145.34 Y163 E10.031
G1 X143.16 Y162 E10.111
G1 X141.18 Y160.63 E10.191
G1 X139.47 Y158.93 E10.271
G1 X138.08 Y156.97 E10.351
G1 X137.05 Y154.79 E10.431
G1 X136.41 Y152.47 E10.511
G1 X136.19 Y150.07 E10.591
G1 X136.39 Y147.67 E10.671
G1 X137 Y145.34 E10.751
G1 X138 Y143.16 E10.831
G1 X139.38 Y141.18 E10.911
G1 X141.07 Y139.47 E10.991
G1 X143.03 Y138.08 E11.072
G1 X145.21 Y137.05 E11.152
G1 X147.53 Y136.41 E11.232
G1 X149.93 Y136.19 E11.312
G1 X152.33 Y136.39 E11.392
G1 X154.66 Y137 E11.472
G1 X156.84 Y138 E11.552
G1 X158.82 Y139.37 E11.632
G1 X160.53 Y141.07 E11.712
G1 X161.92 Y143.03 E11.792
G1 X162.95 Y145.21 E11.872
G1 X163.59 Y147.53 E11.952
G1 X163.81 Y149.93 E12.032
G1 X163.41 Y149.93 F7200
G1 X163.22 Y152.26 E12.11 F1200
G1 X162.62 Y154.52 E12.188
G1 X161.65 Y156.64 E12.265
G1 X160.32 Y158.56 E12.343
G1 X158.67 Y160.23 E12.421
G1 X156.76 Y161.58 E12.499
G1 X154.65 Y162.58 E12.576
G1 X152.4 Y163.19 E12.654
G1 X150.07 Y163.41 E12.732
G1 X147.74 Y163.22 E12.81
G1 X145.48 Y162.62 E12.887
G1 X143.36 Y161.65 E12.965
G1 X141.44 Y160.32 E13.043
G1 X139.77 Y158.67 E13.121
G1 X138.42 Y156.76 E13.198
G1 X137.42 Y154.65 E13.276
G1 X136.81 Y152.4 E13.354
G1 X136.59 Y150.07 E13.432
G1 X136.78 Y147.74 E13.509
G1 X137.38 Y145.48 E13.587
G1 X138.35 Y143.36 E13.665
G1 X139.68 Y141.43 E13.743
G1 X141.33 Y139.77 E13.82
G1 X143.24 Y138.42 E13.898
G1 X145.35 Y137.42 E13.976
G1 X147.6 Y136.81 E14.053
G1 X149.93 Y136.59 E14.131
G1 X152.26 Y136.78 E14.209
G1 X154.52 Y137.38 E14.287
G1 X156.64 Y138.35 E14.364
G1 X158.56 Y139.68 E14.442
G1 X160.23 Y141.33 E14.52
G1 X161.58 Y143.24 E14.598
G1 X162.58 Y145.35 E14.675
G1 X163.19 Y147.6 E14.753
G1 X163.41 Y149.93 E14.831
G1 X163.01 Y149.93 F7200
G1 X162.82 Y152.19 E14.906 F1200
G1 X162.25 Y154.39 E14.982
G1 X161.3 Y156.44 E15.057
G1 X160.01 Y158.31 E15.132
G1 X158.41 Y159.92 E15.208
G1 X156.56 Y161.23 E15.283
G1 X154.51 Y162.2 E15.359
G1 X152.33 Y162.8 E15.434
G1 X150.07 Y163.01 E15.51
G1 X147.81 Y162.82 E15.585
G1 X145.61 Y162.25 E15.66
G1 X143.56 Y161.3 E15.736
G1 X141.69 Y160.01 E15.811
G1 X140.08 Y158.41 E15.887
G1 X138.77 Y156.56 E15.962
G1 X137.8 Y154.51 E16.037
G1 X137.2 Y152.33 E16.113
G1 X136.99 Y150.07 E16.188
G1 X137.18 Y147.81 E16.264
G1 X137.75 Y145.62 E16.339
G1 X138.7 Y143.55 E16.414
G1 X139.99 Y141.69 E16.49
G1 X141.59 Y140.08 E16.565
G1 X143.44 Y138.77 E16.641
G1 X145.49 Y137.8 E16.716
G1 X147.67 Y137.2 E16.792
G1 X149.93 Y136.99 E16.867
G1 X152.19 Y137.18 E16.942
G1 X154.39 Y137.75 E17.018
G1 X156.44 Y138.7 E17.093
G1 X158.31 Y139.99 E17.169
G1 X159.92 Y141.59 E17.244
G1 X161.23 Y143.44 E17.319
G1 X162.2 Y145.49 E17.395
G1 X162.8 Y147.67 E17.47
G1 X163.01 Y149.93 E17.546
G1 X162.6 Y149.93 F7200
G1 X162.43 Y152.12 E17.619 F1200
G1 X161.87 Y154.25 E17.692
G1 X160.95 Y156.25 E17.765
G1 X159.7 Y158.05 E17.838
G1 X158.15 Y159.61 E17.911
G1 X156.36 Y160.88 E17.984
G1 X154.37 Y161.82 E18.057
G1 X152.25 Y162.4 E18.13
G1 X150.07 Y162.6 E18.203
G1 X147.88 Y162.43 E18.276
G1 X145.75 Y161.87 E18.349
G1 X143.75 Y160.95 E18.423
G1 X141.95 Y159.7 E18.496
G1 X140.39 Y158.15 E18.569
G1 X139.12 Y156.36 E18.642
G1 X138.18 Y154.37 E18.715
G1 X137.6 Y152.25 E18.788
G1 X137.4 Y150.07 E18.861
G1 X137.57 Y147.88 E18.934
G1 X138.13 Y145.75 E19.007
G1 X139.05 Y143.75 E19.08
G1 X140.3 Y141.95 E19.153
G1 X141.85 Y140.39 E19.226
G1 X143.64 Y139.12 E19.3
G1 X145.63 Y138.18 E19.373
G1 X147.75 Y137.6 E19.446
G1 X149.93 Y137.4 E19.519
G1 X152.12 Y137.57 E19.592
G1 X154.25 Y138.13 E19.665
G1 X156.25 Y139.05 E19.738
G1 X158.05 Y140.3 E19.811
G1 X159.61 Y141.85 E19.884
G1 X160.88 Y143.64 E19.957
G1 X161.82 Y145.63 E20.03
G1 X162.4 Y147.75 E20.103
G1 X162.6 Y149.93 E20.176
G1 X162.2 Y149.94 F7200
G1 X162.03 Y152.06 E20.247 F1200
G1 X161.49 Y154.11 E20.318
G1 X160.6 Y156.05 E20.389
G1 X159.39 Y157.8 E20.46
G1 X157.89 Y159.31 E20.53
G1 X156.16 Y160.54 E20.601
G1 X154.23 Y161.45 E20.672
G1 X152.18 Y162.01 E20.743
G1 X150.06 Y162.2 E20.813
G1 X147.94 Y162.03 E20.884
G1 X145.89 Y161.49 E20.955
G1 X143.95 Y160.6 E21.026
G1 X142.2 Y159.39 E21.096
G1 X140.69 Y157.89 E21.167
G1 X139.46 Y156.16 E21.238
G1 X138.55 Y154.23 E21.309
G1 X137.99 Y152.18 E21.379
G1 X137.8 Y150.06 E21.45
G1 X137.97 Y147.94 E21.521
G1 X138.51 Y145.89 E21.592
G1 X139.4 Y143.95 E21.662
G1 X140.61 Y142.2 E21.733
G1 X142.11 Y140.69 E21.804
G1 X143.84 Y139.46 E21.875
G1 X145.77 Y138.55 E21.945
G1 X147.82 Y137.99 E22.016
G1 X149.94 Y137.8 E22.087
G1 X152.06 Y137.97 E22.158
G1 X154.11 Y138.51 E22.228
G1 X156.05 Y139.4 E22.299
G1 X157.8 Y140.61 E22.37
G1 X159.31 Y142.11 E22.441
G1 X160.54 Y143.84 E22.511
G1 X161.45 Y145.77 E22.582
G1 X162.01 Y147.82 E22.653
G1 X162.2 Y149.94 E22.724
G1 X161.8 Y149.94 F7200
G1 X161.63 Y151.99 E22.792 F1200
G1 X161.11 Y153.98 E22.86
G1 X160.25 Y155.85 E22.929
G1 X159.08 Y157.54 E22.997
G1 X157.63 Y159 E23.066
G1 X155.95 Y160.19 E23.134
G1 X154.09 Y161.07 E23.203
G1 X152.11 Y161.61 E23.271
G1 X150.06 Y161.8 E23.339
G1 X148.01 Y161.63 E23.408
G1 X146.02 Y161.11 E23.476
G1 X144.15 Y160.25 E23.545
G1 X142.46 Y159.08 E23.613
G1 X141 Y157.63 E23.682
G1 X139.81 Y155.95 E23.75
G1 X138.93 Y154.09 E23.818
G1 X138.39 Y152.11 E23.887
G1 X138.2 Y150.06 E23.955
G1 X138.37 Y148.01 E24.024
G1 X138.89 Y146.02 E24.092
G1 X139.75 Y144.15 E24.161
G1 X140.92 Y142.46 E24.229
G1 X142.37 Y141 E24.297
G1 X144.05 Y139.81 E24.366
G1 X145.91 Y138.93 E24.434
G1 X147.89 Y138.39 E24.503
G1 X149.94 Y138.2 E24.571
G1 X151.99 Y138.37 E24.64
G1 X153.98 Y138.89 E24.708
G1 X155.85 Y139.75 E24.776
G1 X157.54 Y140.92 E24.845
G1 X159 Y142.37 E24.913
G1 X160.19 Y144.05 E24.982
G1 X161.07 Y145.91 E25.05
G1 X161.61 Y147.89 E25.119
G1 X161.8 Y149.94 E25.187
G1 X161.4 Y149.94 F7200
G1 X161.24 Y151.92 E25.253 F1200
G1 X160.73 Y153.84 E25.319
G1 X159.9 Y155.65 E25.385
G1 X158.77 Y157.28 E25.451
G1 X157.37 Y158.7 E25.517
G1 X155.75 Y159.84 E25.584
G1 X153.96 Y160.69 E25.65
G1 X152.04 Y161.22 E25.716
G1 X150.06 Y161.4 E25.782
G1 X148.08 Y161.24 E25.848
G1 X146.16 Y160.73 E25.914
G1 X144.35 Y159.9 E25.98
G1 X142.72 Y158.77 E26.046
G1 X141.3 Y157.37 E26.112
G1 X140.16 Y155.75 E26.178
G1 X139.31 Y153.96 E26.244
G1 X138.78 Y152.04 E26.311
G1 X138.6 Y150.06 E26.377
G1 X138.76 Y148.08 E26.443
G1 X139.27 Y146.16 E26.509
G1 X140.1 Y144.35 E26.575
G1 X141.23 Y142.72 E26.641
G1 X142.63 Y141.3 E26.707
G1 X144.25 Y140.16 E26.773
G1 X146.04 Y139.31 E26.839
G1 X147.96 Y138.78 E26.905
G1 X149.94 Y138.6 E26.972
G1 X151.92 Y138.76 E27.038
G1 X153.84 Y139.27 E27.104
G1 X155.65 Y140.1 E27.17
G1 X157.28 Y141.23 E27.236
G1 X158.7 Y142.63 E27.302
G1 X159.84 Y144.25 E27.368
G1 X160.69 Y146.04 E27.434
G1 X161.22 Y147.96 E27.5
G1 X161.4 Y149.94 E27.566
G1 X161 Y149.94 F7200
G1 X160.84 Y151.85 E27.63 F1200
G1 X160.36 Y153.71 E27.694
G1 X159.55 Y155.45 E27.758
G1 X158.46 Y157.03 E27.822
G1 X157.11 Y158.39 E27.885
G1 X155.55 Y159.5 E27.949
G1 X153.82 Y160.32 E28.013
G1 X151.97 Y160.82 E28.077
G1 X150.06 Y161 E28.14
G1 X148.15 Y160.84 E28.204
G1 X146.29 Y160.36 E28.268
G1 X144.55 Y159.55 E28.332
G1 X142.97 Y158.46 E28.395
G1 X141.61 Y157.11 E28.459
G1 X140.5 Y155.55 E28.523
G1 X139.68 Y153.82 E28.587
G1 X139.18 Y151.97 E28.651
G1 X139 Y150.06 E28.714
G1 X139.16 Y148.15 E28.778
G1 X139.64 Y146.29 E28.842
G1 X140.45 Y144.55 E28.906
G1 X141.54 Y142.97 E28.969
G1 X142.89 Y141.61 E29.033
G1 X144.45 Y140.5 E29.097
G1 X146.18 Y139.68 E29.161
G1 X148.03 Y139.18 E29.224
G1 X149.94 Y139 E29.288
G1 X151.85 Y139.16 E29.352
G1 X153.71 Y139.64 E29.416
G1 X155.45 Y140.45 E29.48
G1 X157.03 Y141.54 E29.543
G1 X158.39 Y142.89 E29.607
G1 X159.5 Y144.45 E29.671
G1 X160.32 Y146.18 E29.735
G1 X160.82 Y148.03 E29.798
G1 X161 Y149.94 E29.862
G1 X160.6 Y149.94 F7200
G1 X160.45 Y151.79 E29.924 F1200
G1 X159.98 Y153.57 E29.985
G1 X159.21 Y155.25 E30.046
G1 X158.15 Y156.77 E30.108
G1 X156.85 Y158.08 E30.169
G1 X155.35 Y159.15 E30.231
G1 X153.68 Y159.94 E30.292
G1 X151.9 Y160.43 E30.354
G1 X150.05 Y160.6 E30.415
G1 X148.21 Y160.45 E30.477
G1 X146.43 Y159.98 E30.538
G1 X144.75 Y159.21 E30.599
G1 X143.23 Y158.15 E30.661
G1 X141.92 Y156.85 E30.722
G1 X140.85 Y155.35 E30.784
G1 X140.06 Y153.68 E30.845
G1 X139.57 Y151.9 E30.907
G1 X139.4 Y150.05 E30.968
G1 X139.55 Y148.21 E31.03
G1 X140.02 Y146.43 E31.091
G1 X140.79 Y144.75 E31.152
G1 X141.85 Y143.23 E31.214
G1 X143.15 Y141.92 E31.275
G1 X144.65 Y140.85 E31.337
G1 X146.32 Y140.06 E31.398
G1 X148.1 Y139.57 E31.46
G1 X149.95 Y139.4 E31.521
G1 X151.79 Y139.55 E31.583
G1 X153.57 Y140.02 E31.644
G1 X155.25 Y140.79 E31.705
G1 X156.77 Y141.85 E31.767
G1 X158.08 Y143.15 E31.828
G1 X159.15 Y144.65 E31.89
G1 X159.94 Y146.32 E31.951
G1 X160.43 Y148.1 E32.013
G1 X160.6 Y149.94 E32.074
G1 X160.2 Y149.95 F7200
G1 X160.05 Y151.72 E32.133 F1200
G1 X159.6 Y153.44 E32.192
G1 X158.86 Y155.05 E32.251
G1 X157.84 Y156.51 E32.311
G1 X156.59 Y157.78 E32.37
G1 X155.14 Y158.8 E32.429
G1 X153.54 Y159.56 E32.488
G1 X151.82 Y160.03 E32.547
G1 X150.05 Y160.2 E32.606
G1 X148.28 Y160.05 E32.665
G1 X146.56 Y159.6 E32.724
G1 X144.95 Y158.86 E32.783
G1 X143.49 Y157.84 E32.843
G1 X142.22 Y156.59 E32.902
G1 X141.2 Y155.14 E32.961
G1 X140.44 Y153.54 E33.02
G1 X139.97 Y151.82 E33.079
G1 X139.8 Y150.05 E33.138
G1 X139.95 Y148.28 E33.197
G1 X140.4 Y146.56 E33.256
G1 X141.14 Y144.95 E33.315
G1 X142.16 Y143.49 E33.375
G1 X143.41 Y142.22 E33.434
G1 X144.86 Y141.2 E33.493
G1 X146.46 Y140.44 E33.552
G1 X148.18 Y139.97 E33.611
G1 X149.95 Y139.8 E33.67
G1 X151.72 Y139.95 E33.729
G1 X153.44 Y140.4 E33.788
G1 X155.05 Y141.14 E33.847
G1 X156.51 Y142.16 E33.907
G1 X157.78 Y143.41 E33.966
G1 X158.8 Y144.86 E34.025
G1 X159.56 Y146.46 E34.084
G1 X160.03 Y148.18 E34.143
G1 X160.2 Y149.95 E34.202
G1 X150.05 Y158.99 F7200
; TYPE:WALL-INNER
G1 X148.48 Y158.86 E34.254 F1200
G1 X146.97 Y158.47 E34.306
G1 X145.54 Y157.81 E34.359
G1 X144.26 Y156.92 E34.411
G1 X143.14 Y155.82 E34.463
G1 X142.24 Y154.53 E34.515
G1 X141.57 Y153.12 E34.567
G1 X141.15 Y151.61 E34.619
G1 X141.01 Y150.05 E34.671
G1 X141.14 Y148.48 E34.724
G1 X141.53 Y146.97 E34.775
G1 X142.19 Y145.54 E34.828
G1 X143.08 Y144.26 E34.88
G1 X144.18 Y143.14 E34.932
G1 X145.46 Y142.24 E34.984
G1 X146.88 Y141.57 E35.036
G1 X148.39 Y141.15 E35.088
G1 X149.95 Y141.01 E35.14
G1 X151.52 Y141.14 E35.193
G1 X153.03 Y141.53 E35.245
G1 X154.46 Y142.19 E35.297
G1 X155.74 Y143.08 E35.349
G1 X156.86 Y144.18 E35.401
G1 X157.76 Y145.46 E35.453
G1 X158.43 Y146.88 E35.505
G1 X158.85 Y148.39 E35.557
G1 X158.99 Y149.95 E35.609
G1 X158.86 Y151.52 E35.662
G1 X158.47 Y153.03 E35.714
G1 X157.81 Y154.46 E35.766
G1 X156.92 Y155.74 E35.818
G1 X155.82 Y156.86 E35.87
G1 X154.54 Y157.76 E35.922
G1 X153.12 Y158.43 E35.975
G1 X151.61 Y158.85 E36.027
G1 X150.09 Y158.99 E36.078
G1 X150.05 Y158.99
G1 X150.05 Y159.79 F7200
; TYPE:WALL-OUTER
G1 X148.35 Y159.66 E36.134 F1200
G1 X146.7 Y159.22 E36.191
G1 X145.14 Y158.51 E36.248
G1 X143.75 Y157.54 E36.305
G1 X142.53 Y156.33 E36.361
G1 X141.54 Y154.94 E36.418
G1 X140.81 Y153.4 E36.475
G1 X140.36 Y151.75 E36.532
G1 X140.21 Y150.05 E36.589
G1 X140.34 Y148.35 E36.645
G1 X140.78 Y146.7 E36.702
G1 X141.49 Y145.14 E36.759
G1 X142.46 Y143.75 E36.816
G1 X143.67 Y142.53 E36.873
G1 X145.06 Y141.54 E36.929
G1 X146.6 Y140.81 E36.986
G1 X148.25 Y140.36 E37.043
G1 X149.95 Y140.21 E37.1
G1 X151.65 Y140.34 E37.156
G1 X153.3 Y140.78 E37.213
G1 X154.86 Y141.49 E37.27
G1 X156.25 Y142.46 E37.327
G1 X157.47 Y143.67 E37.384
G1 X158.46 Y145.06 E37.44
G1 X159.19 Y146.6 E37.497
G1 X159.64 Y148.25 E37.554
G1 X159.79 Y149.95 E37.611
G1 X159.66 Y151.65 E37.667
G1 X159.22 Y153.3 E37.724
G1 X158.51 Y154.86 E37.781
G1 X157.54 Y156.25 E37.838
G1 X156.33 Y157.47 E37.895
G1 X154.94 Y158.46 E37.951
G1 X153.4 Y159.19 E38.008
G1 X151.75 Y159.64 E38.065
G1 X150.09 Y159.79 E38.121
G1 X150.05 Y159.79
G1 X148.35 Y159.66
G1 X147.1 Y159.33
G1 X150.05 Y159.39 F7200
; TYPE:WALL-INNER
G1 X148.42 Y159.26 E38.175 F1200
G1 X146.83 Y158.84 E38.229
G1 X145.35 Y158.16 E38.284
G1 X144 Y157.23 E38.338
G1 X142.84 Y156.08 E38.393
G1 X141.89 Y154.74 E38.447
G1 X141.19 Y153.26 E38.502
G1 X140.76 Y151.68 E38.556
G1 X140.61 Y150.05 E38.611
G1 X140.74 Y148.42 E38.665
G1 X141.16 Y146.83 E38.72
G1 X141.84 Y145.34 E38.774
G1 X142.77 Y144 E38.829
G1 X143.92 Y142.84 E38.883
G1 X145.26 Y141.89 E38.938
G1 X146.74 Y141.19 E38.992
G1 X148.32 Y140.76 E39.046
G1 X149.95 Y140.61 E39.101
G1 X151.58 Y140.74 E39.155
G1 X153.17 Y141.16 E39.21
G1 X154.65 Y141.84 E39.264
G1 X156 Y142.77 E39.319
G1 X157.16 Y143.92 E39.373
G1 X158.11 Y145.26 E39.428
G1 X158.81 Y146.74 E39.482
G1 X159.24 Y148.32 E39.537
G1 X159.39 Y149.95 E39.591
G1 X159.26 Y151.58 E39.645
G1 X158.84 Y153.17 E39.7
G1 X158.16 Y154.65 E39.754
G1 X157.23 Y156 E39.809
G1 X156.08 Y157.16 E39.863
G1 X154.74 Y158.11 E39.918
G1 X153.26 Y158.81 E39.972
G1 X151.68 Y159.24 E40.027
G1 X150.09 Y159.39 E40.08
G1 X150.05 Y159.39
G1 X155.24 Y157.02 F7200
; TYPE:BOTTOM-FILL
G1 X157.03 Y155.23 E40.164 F1200
G1 X157.89 Y153.8 F7200
G1 X153.81 Y157.88 E40.356 F1200
G1 X152.82 Y158.3 F7200
G1 X158.32 Y152.81 E40.614 F1200
G1 X158.52 Y152.04 F7200
G1 X152.04 Y158.52 E40.919 F1200
G1 X151.32 Y158.67 F7200
G1 X158.68 Y151.32 E41.265 F1200
G1 X158.73 Y150.7 F7200
G1 X150.7 Y158.73 E41.642 F1200
G1 X150.08 Y158.79 F7200
G1 X158.78 Y150.09 E42.051 F1200
G1 X158.75 Y149.55 F7200
G1 X149.55 Y158.75 E42.484 F1200
G1 X149.03 Y158.71 F7200
G1 X158.7 Y149.03 E42.939 F1200
G1 X158.66 Y148.51 F7200
G1 X148.51 Y158.66 E43.417 F1200
G1 X148.06 Y158.54 F7200
G1 X158.55 Y148.05 E43.91 F1200
G1 X158.43 Y147.61 F7200
G1 X147.61 Y158.43 E44.419 F1200
G1 X147.16 Y158.31 F7200
G1 X158.3 Y147.17 E44.943 F1200
G1 X158.15 Y146.75 F7200
G1 X146.76 Y158.15 E45.479 F1200
G1 X146.37 Y157.97 F7200
G1 X157.97 Y146.37 E46.024 F1200
G1 X157.79 Y145.99 F7200
G1 X145.98 Y157.79 E46.579 F1200
G1 X145.6 Y157.61 F7200
G1 X157.61 Y145.6 E47.144 F1200
G1 X157.38 Y145.27 F7200
G1 X145.27 Y157.37 E47.714 F1200
G1 X144.93 Y157.14 F7200
G1 X157.14 Y144.93 E48.288 F1200
G1 X156.91 Y144.6 F7200
G1 X144.6 Y156.91 E48.867 F1200
G1 X144.28 Y156.66 F7200
G1 X156.67 Y144.28 E49.449 F1200
G1 X156.38 Y144 F7200
G1 X144 Y156.38 E50.032 F1200
G1 X143.71 Y156.1 F7200
G1 X156.1 Y143.72 E50.614 F1200
G1 X155.81 Y143.43 F7200
G1 X143.43 Y155.82 E51.197 F1200
G1 X143.17 Y155.51 F7200
G1 X155.51 Y143.17 E51.777 F1200
G1 X155.18 Y142.94 F7200
G1 X142.94 Y155.18 E52.353 F1200
G1 X142.7 Y154.85 F7200
G1 X154.85 Y142.7 E52.924 F1200
G1 X154.51 Y142.47 F7200
G1 X142.47 Y154.52 E53.491 F1200
G1 X142.27 Y154.15 F7200
G1 X154.15 Y142.27 E54.05 F1200
G1 X153.76 Y142.09 F7200
G1 X142.09 Y153.76 E54.598 F1200
G1 X141.91 Y153.38 F7200
G1 X153.37 Y141.91 E55.138 F1200
G1 X152.99 Y141.73 F7200
G1 X141.74 Y152.98 E55.667 F1200
G1 X141.62 Y152.54 F7200
G1 X152.54 Y141.61 E56.181 F1200
G1 X152.1 Y141.49 F7200
G1 X141.49 Y152.1 E56.68 F1200
G1 X141.37 Y151.65 F7200
G1 X151.65 Y141.38 E57.163 F1200
G1 X151.15 Y141.31 F7200
G1 X141.31 Y151.15 E57.626 F1200
G1 X141.26 Y150.63 F7200
G1 X150.63 Y141.27 E58.066 F1200
G1 X150.11 Y141.22 F7200
G1 X141.22 Y150.11 E58.484 F1200
G1 X141.25 Y149.51 F7200
G1 X149.51 Y141.25 E58.873 F1200
G1 X148.89 Y141.31 F7200
G1 X141.3 Y148.89 E59.23 F1200
G1 X141.41 Y148.22 F7200
G1 X148.23 Y141.4 E59.55 F1200
G1 X147.45 Y141.62 F7200
G1 X141.61 Y147.45 E59.825 F1200
G1 X141.94 Y146.56 F7200
G1 X146.56 Y141.94 E60.042 F1200
G1 X145.43 Y142.5 F7200
G1 X142.53 Y145.4 E60.178 F1200
; Layer Change GCode
; LAYER:1
; LAYER_HEIGHT:0.2
; TYPE:FILL
M400
M106 S255
G1 X146.27 Y152.2 Z0.3 F7200
G1 X150 Y159 Z0.4
; TYPE:WALL-INNER
G1 X148.44 Y158.86 E60.23 F2430
G1 X146.92 Y158.45 E60.282
G1 X145.51 Y157.79 E60.334
G1 X144.22 Y156.89 E60.387
G1 X143.11 Y155.78 E60.439
G1 X142.21 Y154.49 E60.491
G1 X141.55 Y153.08 E60.543
G1 X141.14 Y151.56 E60.595
G1 X141 Y150 E60.647
G1 X141.14 Y148.44 E60.7
G1 X141.55 Y146.92 E60.752
G1 X142.21 Y145.5 E60.804
G1 X143.11 Y144.22 E60.856
G1 X144.22 Y143.11 E60.908
G1 X145.51 Y142.21 E60.961
G1 X146.92 Y141.55 E61.012
G1 X148.44 Y141.14 E61.065
G1 X150 Y141 E61.117
G1 X151.56 Y141.14 E61.169
G1 X153.08 Y141.55 E61.221
G1 X154.49 Y142.21 E61.273
G1 X155.78 Y143.11 E61.326
G1 X156.89 Y144.22 E61.378
G1 X157.79 Y145.51 E61.43
G1 X158.45 Y146.92 E61.482
G1 X158.86 Y148.44 E61.534
G1 X159 Y150 E61.586
G1 X158.86 Y151.56 E61.638
G1 X158.45 Y153.08 E61.691
G1 X157.79 Y154.49 E61.743
G1 X156.89 Y155.78 E61.795
G1 X155.78 Y156.89 E61.847
G1 X154.49 Y157.79 E61.899
G1 X153.08 Y158.45 E61.951
G1 X151.56 Y158.86 E62.004
G1 X150.04 Y158.99 E62.054
G1 X150 Y159
G1 Y159.4 F7200
G1 X148.36 Y159.25 E62.109 F2430
G1 X146.79 Y158.83 E62.163
G1 X145.3 Y158.14 E62.218
G1 X143.96 Y157.2 E62.272
G1 X142.8 Y156.04 E62.327
G1 X141.86 Y154.7 E62.381
G1 X141.17 Y153.21 E62.436
G1 X140.75 Y151.64 E62.49
G1 X140.6 Y150 E62.545
G1 X140.75 Y148.36 E62.599
G1 X141.17 Y146.79 E62.654
G1 X141.86 Y145.3 E62.708
G1 X142.8 Y143.96 E62.763
G1 X143.96 Y142.8 E62.817
G1 X145.3 Y141.86 E62.872
G1 X146.79 Y141.17 E62.926
G1 X148.36 Y140.75 E62.98
G1 X150 Y140.6 E63.035
G1 X151.64 Y140.75 E63.09
G1 X153.21 Y141.17 E63.144
G1 X154.7 Y141.86 E63.199
G1 X156.04 Y142.8 E63.253
G1 X157.2 Y143.96 E63.308
G1 X158.14 Y145.3 E63.362
G1 X158.83 Y146.79 E63.417
G1 X159.25 Y148.36 E63.471
G1 X159.4 Y150 E63.525
G1 X159.25 Y151.64 E63.58
G1 X158.83 Y153.21 E63.634
G1 X158.14 Y154.7 E63.689
G1 X157.2 Y156.04 E63.743
G1 X156.04 Y157.2 E63.798
G1 X154.7 Y158.14 E63.852
G1 X153.21 Y158.83 E63.907
G1 X151.64 Y159.25 E63.961
G1 X150.04 Y159.39 E64.015
G1 X150 Y159.4
G1 Y159.8 F7200
; TYPE:WALL-OUTER
G1 X148.3 Y159.65 E64.071 F1620
G1 X146.65 Y159.21 E64.128
G1 X145.1 Y158.49 E64.185
G1 X143.7 Y157.5 E64.242
G1 X142.5 Y156.3 E64.298
G1 X141.51 Y154.9 E64.356
G1 X140.79 Y153.35 E64.412
G1 X140.35 Y151.7 E64.469
G1 X140.2 Y150 E64.526
G1 X140.35 Y148.3 E64.583
G1 X140.79 Y146.65 E64.64
G1 X141.51 Y145.1 E64.696
G1 X142.5 Y143.7 E64.753
G1 X143.7 Y142.5 E64.81
G1 X145.1 Y141.51 E64.867
G1 X146.65 Y140.79 E64.923
G1 X148.3 Y140.35 E64.98
G1 X150 Y140.2 E65.037
G1 X151.7 Y140.35 E65.094
G1 X153.35 Y140.79 E65.151
G1 X154.9 Y141.51 E65.207
G1 X156.3 Y142.5 E65.265
G1 X157.5 Y143.7 E65.321
G1 X158.49 Y145.1 E65.378
G1 X159.21 Y146.65 E65.435
G1 X159.65 Y148.3 E65.492
G1 X159.8 Y150 E65.548
G1 X159.65 Y151.7 E65.605
G1 X159.21 Y153.35 E65.662
G1 X158.49 Y154.9 E65.719
G1 X157.5 Y156.3 E65.776
G1 X156.3 Y157.5 E65.832
G1 X154.9 Y158.49 E65.889
G1 X153.35 Y159.21 E65.946
G1 X151.7 Y159.65 E66.003
G1 X150.04 Y159.8 E66.058
G1 X150 Y159.8
G1 X148.3 Y159.65
G1 X147.05 Y159.32
G1 X150 Y159 F7200
G1 X145.85 Y157.73
; TYPE:FILL
G1 X142.26 Y154.14 E66.227 F3240
G1 X141.77 Y153.08 F7200
G1 X144.34 Y155.66 E66.348 F3240
G1 X146.91 Y158.23 E66.469
G1 X147.71 Y158.46 F7200
G1 X144.62 Y155.37 E66.614 F3240
G1 X141.54 Y152.29 E66.759
G1 X141.34 Y151.52 F7200
G1 X143.72 Y153.9 E66.871 F3240
G1 X146.1 Y156.28 E66.983
G1 X148.48 Y158.66 E67.095
G1 X149.1 Y158.72 F7200
G1 X146.49 Y156.11 E67.218 F3240
G1 X143.89 Y153.5 E67.34
G1 X141.28 Y150.9 E67.463
G1 X141.23 Y150.28 F7200
G1 X144.06 Y153.11 E67.596 F3240
G1 X146.89 Y155.94 E67.729
G1 X149.72 Y158.77 E67.862
G1 X150.28 Y158.77 F7200
G1 X147.27 Y155.75 E68.004 F3240
G1 X144.25 Y152.73 E68.146
G1 X141.23 Y149.72 E68.288
G1 X141.27 Y149.19 F7200
G1 X144.45 Y152.37 E68.438 F3240
G1 X147.63 Y155.55 E68.587
G1 X150.8 Y158.72 E68.736
G1 X151.33 Y158.68 F7200
G1 X147.99 Y155.34 E68.893 F3240
G1 X144.65 Y152.01 E69.05
G1 X141.32 Y148.67 E69.207
G1 X141.41 Y148.2 F7200
G1 X144.87 Y151.66 E69.37 F3240
G1 X148.34 Y155.12 E69.533
G1 X151.8 Y158.59 E69.696
G1 X152.25 Y158.47 F7200
G1 X149.57 Y155.79 E69.822 F3240
G1 X146.89 Y153.11 E69.948
G1 X144.21 Y150.43 E70.074
G1 X141.53 Y147.75 E70.2
G1 X141.65 Y147.31 F7200
G1 X144.41 Y150.07 E70.33 F3240
G1 X147.17 Y152.83 E70.46
G1 X149.93 Y155.59 E70.589
G1 X152.69 Y158.35 E70.719
G1 X153.12 Y158.21 F7200
G1 X150.29 Y155.38 E70.853 F3240
G1 X147.45 Y152.54 E70.986
G1 X144.62 Y149.71 E71.119
G1 X141.79 Y146.88 E71.253
G1 X141.97 Y146.49 F7200
G1 X144.85 Y149.38 E71.388 F3240
G1 X147.74 Y152.26 E71.524
G1 X150.62 Y155.15 E71.66
G1 X153.51 Y158.03 E71.795
G1 X153.89 Y157.85 F7200
G1 X150.95 Y154.91 E71.933 F3240
G1 X148.02 Y151.98 E72.072
G1 X145.08 Y149.04 E72.21
G1 X142.15 Y146.11 E72.348
G1 X142.33 Y145.72 F7200
G1 X145.31 Y148.71 E72.488 F3240
G1 X148.3 Y151.7 E72.629
G1 X151.29 Y154.68 E72.769
G1 X154.28 Y157.67 E72.91
G1 X154.63 Y157.46 F7200
G1 X151.61 Y154.43 E73.052 F3240
G1 X148.58 Y151.41 E73.194
G1 X145.56 Y148.39 E73.336
G1 X142.54 Y145.37 E73.478
G1 X142.78 Y145.04 F7200
G1 X145.82 Y148.08 E73.622 F3240
G1 X148.87 Y151.13 E73.765
G1 X151.91 Y154.18 E73.908
G1 X154.96 Y157.22 E74.051
G1 X155.29 Y156.99 F7200
G1 X152.22 Y153.92 E74.196 F3240
G1 X149.15 Y150.85 E74.34
G1 X146.08 Y147.78 E74.485
G1 X143.01 Y144.71 E74.629
G1 X143.24 Y144.37 F7200
G1 X146.34 Y147.47 E74.775 F3240
G1 X149.43 Y150.56 E74.92
G1 X152.53 Y153.66 E75.066
G1 X155.62 Y156.76 E75.212
G1 X155.91 Y156.48 F7200
G1 X152.81 Y153.38 E75.357 F3240
G1 X149.72 Y150.28 E75.503
G1 X146.62 Y147.18 E75.649
G1 X143.52 Y144.09 E75.794
G1 X143.8 Y143.8 F7200
G1 X146.9 Y146.9 E75.94 F3240
G1 X150 Y150 E76.086
G1 X153.1 Y153.1 E76.232
G1 X156.19 Y156.19 E76.377
G1 X156.48 Y155.91 F7200
G1 X153.38 Y152.81 E76.523 F3240
G1 X150.28 Y149.72 E76.669
G1 X147.18 Y146.62 E76.814
G1 X144.09 Y143.52 E76.96
G1 X144.37 Y143.24 F7200
G1 X147.47 Y146.34 E77.106 F3240
G1 X150.56 Y149.43 E77.251
G1 X153.66 Y152.53 E77.397
G1 X156.76 Y155.62 E77.542
G1 X156.99 Y155.29 F7200
G1 X153.92 Y152.22 E77.687 F3240
G1 X150.85 Y149.15 E77.831
G1 X147.78 Y146.08 E77.976
G1 X144.71 Y143.01 E78.12
G1 X145.04 Y142.78 F7200
G1 X148.08 Y145.82 E78.263 F3240
G1 X151.13 Y148.87 E78.407
G1 X154.18 Y151.91 E78.55
G1 X157.22 Y154.96 E78.693
G1 X157.46 Y154.63 F7200
G1 X154.43 Y151.61 E78.835 F3240
G1 X151.41 Y148.58 E78.977
G1 X148.39 Y145.56 E79.119
G1 X145.37 Y142.54 E79.262
G1 X145.72 Y142.33 F7200
G1 X148.71 Y145.31 E79.402 F3240
G1 X151.7 Y148.3 E79.543
G1 X154.68 Y151.29 E79.683
G1 X157.67 Y154.28 E79.824
G1 X157.85 Y153.89 F7200
G1 X154.91 Y150.95 E79.962 F3240
G1 X151.98 Y148.02 E80.1
G1 X149.04 Y145.08 E80.238
G1 X146.11 Y142.15 E80.376
G1 X146.49 Y141.97 F7200
G1 X149.38 Y144.85 E80.512 F3240
G1 X152.26 Y147.74 E80.648
G1 X155.15 Y150.62 E80.783
G1 X158.03 Y153.51 E80.919
G1 X158.21 Y153.12 F7200
G1 X155.38 Y150.29 E81.052 F3240
G1 X152.54 Y147.45 E81.186
G1 X149.71 Y144.62 E81.319
G1 X146.88 Y141.79 E81.452
G1 X147.31 Y141.65 F7200
G1 X150.07 Y144.41 E81.582 F3240
G1 X152.83 Y147.17 E81.712
G1 X155.59 Y149.93 E81.842
G1 X158.35 Y152.69 E81.972
G1 X158.47 Y152.25 F7200
G1 X155.79 Y149.57 E82.098 F3240
G1 X153.11 Y146.89 E82.224
G1 X150.43 Y144.21 E82.35
G1 X147.75 Y141.53 E82.476
G1 X148.2 Y141.41 F7200
G1 X151.66 Y144.87 E82.639 F3240
G1 X155.12 Y148.34 E82.801
G1 X158.59 Y151.8 E82.964
G1 X158.68 Y151.33 F7200
G1 X155.34 Y147.99 E83.121 F3240
G1 X152.01 Y144.65 E83.278
G1 X148.67 Y141.32 E83.435
G1 X149.19 Y141.27 F7200
G1 X152.37 Y144.45 E83.584 F3240
G1 X155.55 Y147.63 E83.734
G1 X158.72 Y150.8 E83.883
G1 X158.77 Y150.28 F7200
G1 X155.75 Y147.27 E84.025 F3240
G1 X152.73 Y144.25 E84.167
G1 X149.72 Y141.23 E84.309
G1 X150.28 Y141.23 F7200
G1 X153.11 Y144.06 E84.442 F3240
G1 X155.94 Y146.89 E84.575
G1 X158.77 Y149.72 E84.708
G1 X158.72 Y149.1 F7200
G1 X156.11 Y146.49 E84.831 F3240
G1 X153.5 Y143.89 E84.954
G1 X150.9 Y141.28 E85.076
G1 X151.52 Y141.34 F7200
G1 X153.9 Y143.72 E85.188 F3240
G1 X156.28 Y146.1 E85.3
G1 X158.66 Y148.48 E85.412
G1 X158.46 Y147.71 F7200
G1 X155.37 Y144.62 E85.557 F3240
G1 X152.29 Y141.54 E85.702
G1 X153.08 Y141.77 F7200
G1 X155.66 Y144.34 E85.823 F3240
G1 X158.23 Y146.91 E85.944
G1 X157.73 Y145.85 F7200
G1 X154.14 Y142.26 E86.113 F3240
; Layer Change GCode
; LAYER:2
; LAYER_HEIGHT:0.2
; TYPE:FILL
G1 X152.07 Y150.63 Z0.5 F7200
G1 X150 Y159 Z0.6
; TYPE:WALL-INNER
G1 X148.44 Y158.86 E86.165 F2160
G1 X146.92 Y158.45 E86.217
G1 X145.51 Y157.79 E86.269
G1 X144.22 Y156.89 E86.322
G1 X143.11 Y155.78 E86.374
G1 X142.21 Y154.49 E86.426
G1 X141.55 Y153.08 E86.478
G1 X141.14 Y151.56 E86.53
G1 X141 Y150 E86.582
G1 X141.14 Y148.44 E86.635
G1 X141.55 Y146.92 E86.687
G1 X142.21 Y145.5 E86.739
G1 X143.11 Y144.22 E86.791
G1 X144.22 Y143.11 E86.843
G1 X145.51 Y142.21 E86.896
G1 X146.92 Y141.55 E86.947
G1 X148.44 Y141.14 E87
G1 X150 Y141 E87.052
G1 X151.56 Y141.14 E87.104
G1 X153.08 Y141.55 E87.156
G1 X154.49 Y142.21 E87.208
G1 X155.78 Y143.11 E87.261
G1 X156.89 Y144.22 E87.313
G1 X157.79 Y145.51 E87.365
G1 X158.45 Y146.92 E87.417
G1 X158.86 Y148.44 E87.469
G1 X159 Y150 E87.521
G1 X158.86 Y151.56 E87.573
G1 X158.45 Y153.08 E87.626
G1 X157.79 Y154.49 E87.678
G1 X156.89 Y155.78 E87.73
G1 X155.78 Y156.89 E87.782
G1 X154.49 Y157.79 E87.834
G1 X153.08 Y158.45 E87.886
G1 X151.56 Y158.86 E87.939
G1 X150.04 Y158.99 E87.989
G1 X150 Y159
G1 Y159.4 F7200
G1 X148.36 Y159.25 E88.044 F2160
G1 X146.79 Y158.83 E88.098
G1 X145.3 Y158.14 E88.153
G1 X143.96 Y157.2 E88.207
G1 X142.8 Y156.04 E88.262
G1 X141.86 Y154.7 E88.316
G1 X141.17 Y153.21 E88.371
G1 X140.75 Y151.64 E88.425
G1 X140.6 Y150 E88.48
G1 X140.75 Y148.36 E88.534
G1 X141.17 Y146.79 E88.589
G1 X141.86 Y145.3 E88.643
G1 X142.8 Y143.96 E88.698
G1 X143.96 Y142.8 E88.752
G1 X145.3 Y141.86 E88.807
G1 X146.79 Y141.17 E88.861
G1 X148.36 Y140.75 E88.915
G1 X150 Y140.6 E88.97
G1 X151.64 Y140.75 E89.025
G1 X153.21 Y141.17 E89.079
G1 X154.7 Y141.86 E89.134
G1 X156.04 Y142.8 E89.188
G1 X157.2 Y143.96 E89.243
G1 X158.14 Y145.3 E89.297
G1 X158.83 Y146.79 E89.352
G1 X159.25 Y148.36 E89.406
G1 X159.4 Y150 E89.46
G1 X159.25 Y151.64 E89.515
G1 X158.83 Y153.21 E89.569
G1 X158.14 Y154.7 E89.624
G1 X157.2 Y156.04 E89.678
G1 X156.04 Y157.2 E89.733
G1 X154.7 Y158.14 E89.787
G1 X153.21 Y158.83 E89.842
G1 X151.64 Y159.25 E89.896
G1 X150.04 Y159.39 E89.95
G1 X150 Y159.4
G1 Y159.8 F7200
; TYPE:WALL-OUTER
G1 X148.3 Y159.65 E90.006 F1440
G1 X146.65 Y159.21 E90.063
G1 X145.1 Y158.49 E90.12
G1 X143.7 Y157.5 E90.177
G1 X142.5 Y156.3 E90.233
G1 X141.51 Y154.9 E90.291
G1 X140.79 Y153.35 E90.347
G1 X140.35 Y151.7 E90.404
G1 X140.2 Y150 E90.461
G1 X140.35 Y148.3 E90.518
G1 X140.79 Y146.65 E90.575
G1 X141.51 Y145.1 E90.631
G1 X142.5 Y143.7 E90.688
G1 X143.7 Y142.5 E90.745
G1 X145.1 Y141.51 E90.802
G1 X146.65 Y140.79 E90.858
G1 X148.3 Y140.35 E90.915
G1 X150 Y140.2 E90.972
G1 X151.7 Y140.35 E91.029
G1 X153.35 Y140.79 E91.086
G1 X154.9 Y141.51 E91.142
G1 X156.3 Y142.5 E91.2
G1 X157.5 Y143.7 E91.256
G1 X158.49 Y145.1 E91.313
G1 X159.21 Y146.65 E91.37
G1 X159.65 Y148.3 E91.427
G1 X159.8 Y150 E91.483
G1 X159.65 Y151.7 E91.54
G1 X159.21 Y153.35 E91.597
G1 X158.49 Y154.9 E91.654
G1 X157.5 Y156.3 E91.711
G1 X156.3 Y157.5 E91.767
G1 X154.9 Y158.49 E91.824
G1 X153.35 Y159.21 E91.881
G1 X151.7 Y159.65 E91.938
G1 X150.04 Y159.8 E91.993
G1 X150 Y159.8
G1 X148.3 Y159.65
G1 X147.05 Y159.32
G1 X150 Y159 F7200
G1 X155.22 Y157.04
; TYPE:FILL
G1 X157.04 Y155.22 E92.079 F2880
G1 X157.9 Y153.8 F7200
G1 X155.85 Y155.85 E92.176 F2880
G1 X153.8 Y157.9 E92.272
G1 X152.81 Y158.32 F7200
G1 X155.56 Y155.56 E92.402 F2880
G1 X158.32 Y152.81 E92.531
G1 X158.53 Y152.04 F7200
G1 X155.28 Y155.28 E92.684 F2880
G1 X152.04 Y158.53 E92.837
G1 X151.32 Y158.68 F7200
G1 X153.77 Y156.22 E92.952 F2880
G1 X156.22 Y153.77 E93.068
G1 X158.68 Y151.32 E93.183
G1 X158.73 Y150.7 F7200
G1 X156.05 Y153.38 E93.309 F2880
G1 X153.38 Y156.05 E93.435
G1 X150.7 Y158.73 E93.561
G1 X150.08 Y158.79 F7200
G1 X152.98 Y155.88 E93.698 F2880
G1 X155.88 Y152.98 E93.834
G1 X158.79 Y150.08 E93.971
G1 X158.75 Y149.54 F7200
G1 X155.68 Y152.61 E94.115 F2880
G1 X152.61 Y155.68 E94.259
G1 X149.54 Y158.75 E94.404
G1 X149.02 Y158.71 F7200
G1 X152.25 Y155.48 E94.556 F2880
G1 X155.48 Y152.25 E94.708
G1 X158.71 Y149.02 E94.859
G1 X158.66 Y148.5 F7200
G1 X155.28 Y151.89 E95.019 F2880
G1 X151.89 Y155.28 E95.178
G1 X148.5 Y158.66 E95.337
G1 X148.05 Y158.55 F7200
G1 X151.55 Y155.05 E95.502 F2880
G1 X155.05 Y151.55 E95.667
G1 X158.55 Y148.05 E95.831
G1 X158.43 Y147.61 F7200
G1 X155.72 Y150.31 E95.958 F2880
G1 X153.02 Y153.02 E96.086
G1 X150.31 Y155.72 E96.213
G1 X147.61 Y158.43 E96.34
G1 X147.16 Y158.31 F7200
G1 X149.95 Y155.52 E96.471 F2880
G1 X152.73 Y152.73 E96.602
G1 X155.52 Y149.95 E96.733
G1 X158.31 Y147.16 E96.865
G1 X158.15 Y146.75 F7200
G1 X155.3 Y149.6 E96.999 F2880
G1 X152.45 Y152.45 E97.133
G1 X149.6 Y155.3 E97.267
G1 X146.75 Y158.15 E97.401
G1 X146.37 Y157.97 F7200
G1 X149.27 Y155.07 E97.537 F2880
G1 X152.17 Y152.17 E97.674
G1 X155.07 Y149.27 E97.81
G1 X157.97 Y146.37 E97.947
G1 X157.79 Y145.98 F7200
G1 X154.84 Y148.93 E98.086 F2880
G1 X151.89 Y151.89 E98.225
G1 X148.93 Y154.84 E98.363
G1 X145.98 Y157.79 E98.502
G1 X145.6 Y157.61 F7200
G1 X148.6 Y154.61 E98.644 F2880
G1 X151.6 Y151.6 E98.785
G1 X154.61 Y148.6 E98.926
G1 X157.61 Y145.6 E99.067
G1 X157.38 Y145.26 F7200
G1 X154.35 Y148.29 E99.21 F2880
G1 X151.32 Y151.32 E99.352
G1 X148.29 Y154.35 E99.495
G1 X145.26 Y157.38 E99.637
G1 X144.93 Y157.15 F7200
G1 X147.98 Y154.09 E99.781 F2880
G1 X151.04 Y151.04 E99.924
G1 X154.09 Y147.98 E100.068
G1 X157.15 Y144.93 E100.212
G1 X156.91 Y144.6 F7200
G1 X153.83 Y147.68 E100.357 F2880
G1 X150.75 Y150.75 E100.501
G1 X147.68 Y153.83 E100.646
G1 X144.6 Y156.91 E100.791
G1 X144.28 Y156.67 F7200
G1 X147.37 Y153.57 E100.937 F2880
G1 X150.47 Y150.47 E101.082
G1 X153.57 Y147.37 E101.228
G1 X156.67 Y144.28 E101.374
G1 X156.38 Y143.99 F7200
G1 X153.29 Y147.09 E101.519 F2880
G1 X150.19 Y150.19 E101.665
G1 X147.09 Y153.29 E101.811
G1 X143.99 Y156.38 E101.957
G1 X143.71 Y156.1 F7200
G1 X146.81 Y153 E102.102 F2880
G1 X149.91 Y149.91 E102.248
G1 X153 Y146.81 E102.394
G1 X156.1 Y143.71 E102.539
G1 X155.82 Y143.43 F7200
G1 X152.72 Y146.53 E102.685 F2880
G1 X149.62 Y149.62 E102.831
G1 X146.53 Y152.72 E102.976
G1 X143.43 Y155.82 E103.122
G1 X143.17 Y155.52 F7200
G1 X146.25 Y152.43 E103.267 F2880
G1 X149.34 Y149.34 E103.413
G1 X152.43 Y146.25 E103.558
G1 X155.52 Y143.17 E103.703
G1 X155.18 Y142.93 F7200
G1 X152.12 Y146 E103.847 F2880
G1 X149.06 Y149.06 E103.991
G1 X146 Y152.12 E104.135
G1 X142.93 Y155.18 E104.279
G1 X142.7 Y154.85 F7200
G1 X145.74 Y151.81 E104.422 F2880
G1 X148.78 Y148.78 E104.565
G1 X151.81 Y145.74 E104.708
G1 X154.85 Y142.7 E104.851
G1 X154.52 Y142.47 F7200
G1 X151.5 Y145.48 E104.992 F2880
G1 X148.49 Y148.49 E105.134
G1 X145.48 Y151.5 E105.276
G1 X142.47 Y154.52 E105.417
G1 X142.27 Y154.15 F7200
G1 X145.24 Y151.18 E105.557 F2880
G1 X148.21 Y148.21 E105.697
G1 X151.18 Y145.24 E105.836
G1 X154.15 Y142.27 E105.976
G1 X153.77 Y142.09 F7200
G1 X150.85 Y145.01 E106.113 F2880
G1 X147.93 Y147.93 E106.251
G1 X145.01 Y150.85 E106.388
G1 X142.09 Y153.77 E106.525
G1 X141.91 Y153.38 F7200
G1 X144.78 Y150.51 E106.66 F2880
G1 X147.64 Y147.64 E106.795
G1 X150.51 Y144.78 E106.93
G1 X153.38 Y141.91 E107.065
G1 X152.99 Y141.73 F7200
G1 X150.18 Y144.55 E107.197 F2880
G1 X147.36 Y147.36 E107.33
G1 X144.55 Y150.18 E107.462
G1 X141.73 Y152.99 E107.595
G1 X141.61 Y152.55 F7200
G1 X144.34 Y149.81 E107.723 F2880
G1 X147.08 Y147.08 E107.852
G1 X149.81 Y144.34 E107.98
G1 X152.55 Y141.61 E108.109
G1 X152.1 Y141.49 F7200
G1 X149.45 Y144.14 E108.234 F2880
G1 X146.8 Y146.8 E108.359
G1 X144.14 Y149.45 E108.483
G1 X141.49 Y152.1 E108.608
G1 X141.37 Y151.65 F7200
G1 X144.8 Y148.23 E108.769 F2880
G1 X148.23 Y144.8 E108.93
G1 X151.65 Y141.37 E109.092
G1 X151.15 Y141.3 F7200
G1 X147.87 Y144.59 E109.246 F2880
G1 X144.59 Y147.87 E109.401
G1 X141.3 Y151.15 E109.555
G1 X141.26 Y150.63 F7200
G1 X144.38 Y147.51 E109.702 F2880
G1 X147.51 Y144.38 E109.849
G1 X150.63 Y141.26 E109.996
G1 X150.11 Y141.21 F7200
G1 X147.15 Y144.18 E110.135 F2880
G1 X144.18 Y147.15 E110.275
G1 X141.21 Y150.11 E110.414
G1 X141.25 Y149.52 F7200
G1 X144 Y146.76 E110.544 F2880
G1 X146.76 Y144 E110.674
G1 X149.52 Y141.25 E110.803
G1 X148.9 Y141.3 F7200
G1 X146.36 Y143.83 E110.923 F2880
G1 X143.83 Y146.36 E111.042
G1 X141.3 Y148.9 E111.161
G1 X141.4 Y148.23 F7200
G1 X144.82 Y144.82 E111.321 F2880
G1 X148.23 Y141.4 E111.482
G1 X147.46 Y141.61 F7200
G1 X144.53 Y144.53 E111.619 F2880
G1 X141.61 Y147.46 E111.757
G1 X141.93 Y146.57 F7200
G1 X144.25 Y144.25 E111.866 F2880
G1 X146.57 Y141.93 E111.975
G1 X145.43 Y142.5 F7200
G1 X142.5 Y145.43 E112.113 F2880
; Layer Change GCode
; LAYER:3
; LAYER_HEIGHT:0.2
; TYPE:FILL
G1 X146.25 Y152.21 Z0.7 F7200
G1 X150 Y159 Z0.8
; TYPE:WALL-INNER
G1 X148.44 Y158.86 E112.165 F1890
G1 X146.92 Y158.45 E112.218
G1 X145.51 Y157.79 E112.269
G1 X144.22 Y156.89 E112.322
G1 X143.11 Y155.78 E112.374
G1 X142.21 Y154.49 E112.426
G1 X141.55 Y153.08 E112.478
G1 X141.14 Y151.56 E112.53
G1 X141 Y150 E112.582
G1 X141.14 Y148.44 E112.635
G1 X141.55 Y146.92 E112.687
G1 X142.21 Y145.5 E112.739
G1 X143.11 Y144.22 E112.791
G1 X144.22 Y143.11 E112.843
G1 X145.51 Y142.21 E112.896
G1 X146.92 Y141.55 E112.947
G1 X148.44 Y141.14 E113
G1 X150 Y141 E113.052
G1 X151.56 Y141.14 E113.104
G1 X153.08 Y141.55 E113.156
G1 X154.49 Y142.21 E113.208
G1 X155.78 Y143.11 E113.261
G1 X156.89 Y144.22 E113.313
G1 X157.79 Y145.51 E113.365
G1 X158.45 Y146.92 E113.417
G1 X158.86 Y148.44 E113.469
G1 X159 Y150 E113.521
G1 X158.86 Y151.56 E113.573
G1 X158.45 Y153.08 E113.626
G1 X157.79 Y154.49 E113.678
G1 X156.89 Y155.78 E113.73
G1 X155.78 Y156.89 E113.782
G1 X154.49 Y157.79 E113.834
G1 X153.08 Y158.45 E113.886
G1 X151.56 Y158.86 E113.939
G1 X150.04 Y158.99 E113.989
G1 X150 Y159
G1 Y159.4 F7200
G1 X148.36 Y159.25 E114.044 F1890
G1 X146.79 Y158.83 E114.098
G1 X145.3 Y158.14 E114.153
G1 X143.96 Y157.2 E114.207
G1 X142.8 Y156.04 E114.262
G1 X141.86 Y154.7 E114.316
G1 X141.17 Y153.21 E114.371
G1 X140.75 Y151.64 E114.425
G1 X140.6 Y150 E114.48
G1 X140.75 Y148.36 E114.534
G1 X141.17 Y146.79 E114.589
G1 X141.86 Y145.3 E114.643
G1 X142.8 Y143.96 E114.698
G1 X143.96 Y142.8 E114.752
G1 X145.3 Y141.86 E114.807
G1 X146.79 Y141.17 E114.861
G1 X148.36 Y140.75 E114.916
G1 X150 Y140.6 E114.97
G1 X151.64 Y140.75 E115.025
G1 X153.21 Y141.17 E115.079
G1 X154.7 Y141.86 E115.134
G1 X156.04 Y142.8 E115.188
G1 X157.2 Y143.96 E115.243
G1 X158.14 Y145.3 E115.297
G1 X158.83 Y146.79 E115.352
G1 X159.25 Y148.36 E115.406
G1 X159.4 Y150 E115.46
G1 X159.25 Y151.64 E115.515
G1 X158.83 Y153.21 E115.569
G1 X158.14 Y154.7 E115.624
G1 X157.2 Y156.04 E115.678
G1 X156.04 Y157.2 E115.733
G1 X154.7 Y158.14 E115.787
G1 X153.21 Y158.83 E115.842
G1 X151.64 Y159.25 E115.896
G1 X150.04 Y159.39 E115.95
G1 X150 Y159.4
G1 Y159.8 F7200
; TYPE:WALL-OUTER
G1 X148.3 Y159.65 E116.006 F1260
G1 X146.65 Y159.21 E116.063
G1 X145.1 Y158.49 E116.12
G1 X143.7 Y157.5 E116.177
G1 X142.5 Y156.3 E116.233
G1 X141.51 Y154.9 E116.291
G1 X140.79 Y153.35 E116.347
G1 X140.35 Y151.7 E116.404
G1 X140.2 Y150 E116.461
G1 X140.35 Y148.3 E116.518
G1 X140.79 Y146.65 E116.575
G1 X141.51 Y145.1 E116.631
G1 X142.5 Y143.7 E116.688
G1 X143.7 Y142.5 E116.745
G1 X145.1 Y141.51 E116.802
G1 X146.65 Y140.79 E116.858
G1 X148.3 Y140.35 E116.915
G1 X150 Y140.2 E116.972
G1 X151.7 Y140.35 E117.029
G1 X153.35 Y140.79 E117.086
G1 X154.9 Y141.51 E117.142
G1 X156.3 Y142.5 E117.2
G1 X157.5 Y143.7 E117.256
G1 X158.49 Y145.1 E117.313
G1 X159.21 Y146.65 E117.37
G1 X159.65 Y148.3 E117.427
G1 X159.8 Y150 E117.483
G1 X159.65 Y151.7 E117.54
G1 X159.21 Y153.35 E117.597
G1 X158.49 Y154.9 E117.654
G1 X157.5 Y156.3 E117.711
G1 X156.3 Y157.5 E117.767
G1 X154.9 Y158.49 E117.825
G1 X153.35 Y159.21 E117.881
G1 X151.7 Y159.65 E117.938
G1 X150.04 Y159.8 E117.994
G1 X150 Y159.8
G1 X148.3 Y159.65
G1 X147.05 Y159.32
G1 X150 Y159 F7200
G1 X145.85 Y157.73
; TYPE:FILL
G1 X144.06 Y155.94 E118.078 F2520
G1 X142.26 Y154.14 E118.162
G1 X141.77 Y153.08 F7200
G1 X144.34 Y155.66 E118.283 F2520
G1 X146.91 Y158.23 E118.404
G1 X147.71 Y158.46 F7200
G1 X144.62 Y155.37 E118.549 F2520
G1 X141.54 Y152.29 E118.694
G1 X141.34 Y151.52 F7200
G1 X143.72 Y153.9 E118.806 F2520
G1 X146.1 Y156.28 E118.918
G1 X148.48 Y158.66 E119.03
G1 X149.1 Y158.72 F7200
G1 X146.49 Y156.11 E119.153 F2520
G1 X143.89 Y153.5 E119.276
G1 X141.28 Y150.9 E119.398
G1 X141.23 Y150.28 F7200
G1 X144.06 Y153.11 E119.531 F2520
G1 X146.89 Y155.94 E119.664
G1 X149.72 Y158.77 E119.797
G1 X150.28 Y158.77 F7200
G1 X147.27 Y155.75 E119.939 F2520
G1 X144.25 Y152.73 E120.081
G1 X141.23 Y149.72 E120.223
G1 X141.27 Y149.19 F7200
G1 X144.45 Y152.37 E120.373 F2520
G1 X147.63 Y155.55 E120.522
G1 X150.8 Y158.72 E120.672
G1 X151.33 Y158.68 F7200
G1 X147.99 Y155.34 E120.828 F2520
G1 X144.65 Y152.01 E120.985
G1 X141.32 Y148.67 E121.142
G1 X141.41 Y148.2 F7200
G1 X144.87 Y151.66 E121.305 F2520
G1 X148.34 Y155.12 E121.468
G1 X151.8 Y158.59 E121.631
G1 X152.25 Y158.47 F7200
G1 X149.57 Y155.79 E121.757 F2520
G1 X146.89 Y153.11 E121.883
G1 X144.21 Y150.43 E122.009
G1 X141.53 Y147.75 E122.135
G1 X141.65 Y147.31 F7200
G1 X144.41 Y150.07 E122.265 F2520
G1 X147.17 Y152.83 E122.395
G1 X149.93 Y155.59 E122.525
G1 X152.69 Y158.35 E122.654
G1 X153.12 Y158.21 F7200
G1 X150.29 Y155.38 E122.788 F2520
G1 X147.45 Y152.54 E122.921
G1 X144.62 Y149.71 E123.054
G1 X141.79 Y146.88 E123.188
G1 X141.97 Y146.49 F7200
G1 X144.85 Y149.38 E123.323 F2520
G1 X147.74 Y152.26 E123.459
G1 X150.62 Y155.15 E123.595
G1 X153.51 Y158.03 E123.73
G1 X153.89 Y157.85 F7200
G1 X150.95 Y154.91 E123.868 F2520
G1 X148.02 Y151.98 E124.007
G1 X145.08 Y149.04 E124.145
G1 X142.15 Y146.11 E124.283
G1 X142.33 Y145.72 F7200
G1 X145.31 Y148.71 E124.423 F2520
G1 X148.3 Y151.7 E124.564
G1 X151.29 Y154.68 E124.704
G1 X154.28 Y157.67 E124.845
G1 X154.63 Y157.46 F7200
G1 X151.61 Y154.43 E124.987 F2520
G1 X148.58 Y151.41 E125.129
G1 X145.56 Y148.39 E125.271
G1 X142.54 Y145.37 E125.413
G1 X142.78 Y145.04 F7200
G1 X145.82 Y148.08 E125.557 F2520
G1 X148.87 Y151.13 E125.7
G1 X151.91 Y154.18 E125.843
G1 X154.96 Y157.22 E125.986
G1 X155.29 Y156.99 F7200
G1 X152.22 Y153.92 E126.131 F2520
G1 X149.15 Y150.85 E126.275
G1 X146.08 Y147.78 E126.42
G1 X143.01 Y144.71 E126.564
G1 X143.24 Y144.37 F7200
G1 X146.34 Y147.47 E126.71 F2520
G1 X149.43 Y150.56 E126.855
G1 X152.53 Y153.66 E127.001
G1 X155.62 Y156.76 E127.147
G1 X155.91 Y156.48 F7200
G1 X152.81 Y153.38 E127.292 F2520
G1 X149.72 Y150.28 E127.438
G1 X146.62 Y147.18 E127.584
G1 X143.52 Y144.09 E127.729
G1 X143.8 Y143.8 F7200
G1 X146.9 Y146.9 E127.875 F2520
G1 X150 Y150 E128.021
G1 X153.1 Y153.1 E128.167
G1 X156.19 Y156.19 E128.312
G1 X156.48 Y155.91 F7200
G1 X153.38 Y152.81 E128.458 F2520
G1 X150.28 Y149.72 E128.604
G1 X147.18 Y146.62 E128.749
G1 X144.09 Y143.52 E128.895
G1 X144.37 Y143.24 F7200
G1 X147.47 Y146.34 E129.041 F2520
G1 X150.56 Y149.43 E129.186
G1 X153.66 Y152.53 E129.332
G1 X156.76 Y155.62 E129.478
G1 X156.99 Y155.29 F7200
G1 X153.92 Y152.22 E129.622 F2520
G1 X150.85 Y149.15 E129.766
G1 X147.78 Y146.08 E129.911
G1 X144.71 Y143.01 E130.055
G1 X145.04 Y142.78 F7200
G1 X148.08 Y145.82 E130.198 F2520
G1 X151.13 Y148.87 E130.342
G1 X154.18 Y151.91 E130.485
G1 X157.22 Y154.96 E130.628
G1 X157.46 Y154.63 F7200
G1 X154.43 Y151.61 E130.77 F2520
G1 X151.41 Y148.58 E130.912
G1 X148.39 Y145.56 E131.055
G1 X145.37 Y142.54 E131.197
G1 X145.72 Y142.33 F7200
G1 X148.71 Y145.31 E131.337 F2520
G1 X151.7 Y148.3 E131.478
G1 X154.68 Y151.29 E131.618
G1 X157.67 Y154.28 E131.759
G1 X157.85 Y153.89 F7200
G1 X154.91 Y150.95 E131.897 F2520
G1 X151.98 Y148.02 E132.035
G1 X149.04 Y145.08 E132.173
G1 X146.11 Y142.15 E132.311
G1 X146.49 Y141.97 F7200
G1 X149.38 Y144.85 E132.447 F2520
G1 X152.26 Y147.74 E132.583
G1 X155.15 Y150.62 E132.718
G1 X158.03 Y153.51 E132.854
G1 X158.21 Y153.12 F7200
G1 X155.38 Y150.29 E132.987 F2520
G1 X152.54 Y147.45 E133.121
G1 X149.71 Y144.62 E133.254
G1 X146.88 Y141.79 E133.387
G1 X147.31 Y141.65 F7200
G1 X150.07 Y144.41 E133.517 F2520
G1 X152.83 Y147.17 E133.647
G1 X155.59 Y149.93 E133.777
G1 X158.35 Y152.69 E133.907
G1 X158.47 Y152.25 F7200
G1 X155.79 Y149.57 E134.033 F2520
G1 X153.11 Y146.89 E134.159
G1 X150.43 Y144.21 E134.285
G1 X147.75 Y141.53 E134.411
G1 X148.2 Y141.41 F7200
G1 X151.66 Y144.87 E134.574 F2520
G1 X155.12 Y148.34 E134.737
G1 X158.59 Y151.8 E134.899
G1 X158.68 Y151.33 F7200
G1 X155.34 Y147.99 E135.056 F2520
G1 X152.01 Y144.65 E135.213
G1 X148.67 Y141.32 E135.37
G1 X149.19 Y141.27 F7200
G1 X152.37 Y144.45 E135.52 F2520
G1 X155.55 Y147.63 E135.669
G1 X158.72 Y150.8 E135.818
G1 X158.77 Y150.28 F7200
G1 X155.75 Y147.27 E135.96 F2520
G1 X152.73 Y144.25 E136.102
G1 X149.72 Y141.23 E136.244
G1 X150.28 Y141.23 F7200
G1 X153.11 Y144.06 E136.377 F2520
G1 X155.94 Y146.89 E136.51
G1 X158.77 Y149.72 E136.644
G1 X158.72 Y149.1 F7200
G1 X156.11 Y146.49 E136.766 F2520
G1 X153.5 Y143.89 E136.889
G1 X150.9 Y141.28 E137.011
G1 X151.52 Y141.34 F7200
G1 X153.9 Y143.72 E137.123 F2520
G1 X156.28 Y146.1 E137.235
G1 X158.66 Y148.48 E137.347
G1 X158.46 Y147.71 F7200
G1 X155.37 Y144.62 E137.492 F2520
G1 X152.29 Y141.54 E137.637
G1 X153.08 Y141.77 F7200
G1 X155.66 Y144.34 E137.758 F2520
G1 X158.23 Y146.91 E137.879
G1 X157.73 Y145.85 F7200
G1 X155.94 Y144.06 E137.964 F2520
G1 X154.14 Y142.26 E138.048
; Layer Change GCode
; LAYER:4
; LAYER_HEIGHT:0.2
; TYPE:FILL
G1 X152.07 Y150.63 Z0.9 F7200
G1 X150 Y159 Z1
; TYPE:WALL-INNER
G1 X148.44 Y158.86 E138.1 F1620
G1 X146.92 Y158.45 E138.152
G1 X145.51 Y157.79 E138.204
G1 X144.22 Y156.89 E138.257
G1 X143.11 Y155.78 E138.309
G1 X142.21 Y154.49 E138.361
G1 X141.55 Y153.08 E138.413
G1 X141.14 Y151.56 E138.465
G1 X141 Y150 E138.517
G1 X141.14 Y148.44 E138.57
G1 X141.55 Y146.92 E138.622
G1 X142.21 Y145.5 E138.674
G1 X143.11 Y144.22 E138.726
G1 X144.22 Y143.11 E138.778
G1 X145.51 Y142.21 E138.831
G1 X146.92 Y141.55 E138.882
G1 X148.44 Y141.14 E138.935
G1 X150 Y141 E138.987
G1 X151.56 Y141.14 E139.039
G1 X153.08 Y141.55 E139.091
G1 X154.49 Y142.21 E139.143
G1 X155.78 Y143.11 E139.196
G1 X156.89 Y144.22 E139.248
G1 X157.79 Y145.51 E139.3
G1 X158.45 Y146.92 E139.352
G1 X158.86 Y148.44 E139.404
G1 X159 Y150 E139.456
G1 X158.86 Y151.56 E139.508
G1 X158.45 Y153.08 E139.561
G1 X157.79 Y154.49 E139.613
G1 X156.89 Y155.78 E139.665
G1 X155.78 Y156.89 E139.717
G1 X154.49 Y157.79 E139.769
G1 X153.08 Y158.45 E139.821
G1 X151.56 Y158.86 E139.874
G1 X150.04 Y158.99 E139.924
G1 X150 Y159
G1 Y159.4 F7200
G1 X148.36 Y159.25 E139.979 F1620
G1 X146.79 Y158.83 E140.033
G1 X145.3 Y158.14 E140.088
G1 X143.96 Y157.2 E140.142
G1 X142.8 Y156.04 E140.197
G1 X141.86 Y154.7 E140.251
G1 X141.17 Y153.21 E140.306
G1 X140.75 Y151.64 E140.36
G1 X140.6 Y150 E140.415
G1 X140.75 Y148.36 E140.469
G1 X141.17 Y146.79 E140.524
G1 X141.86 Y145.3 E140.578
G1 X142.8 Y143.96 E140.633
G1 X143.96 Y142.8 E140.687
G1 X145.3 Y141.86 E140.742
G1 X146.79 Y141.17 E140.796
G1 X148.36 Y140.75 E140.851
G1 X150 Y140.6 E140.905
G1 X151.64 Y140.75 E140.96
G1 X153.21 Y141.17 E141.014
G1 X154.7 Y141.86 E141.069
G1 X156.04 Y142.8 E141.123
G1 X157.2 Y143.96 E141.178
G1 X158.14 Y145.3 E141.232
G1 X158.83 Y146.79 E141.287
G1 X159.25 Y148.36 E141.341
G1 X159.4 Y150 E141.395
G1 X159.25 Y151.64 E141.45
G1 X158.83 Y153.21 E141.504
G1 X158.14 Y154.7 E141.559
G1 X157.2 Y156.04 E141.613
G1 X156.04 Y157.2 E141.668
G1 X154.7 Y158.14 E141.722
G1 X153.21 Y158.83 E141.777
G1 X151.64 Y159.25 E141.831
G1 X150.04 Y159.39 E141.885
G1 X150 Y159.4
G1 Y159.8 F7200
; TYPE:WALL-OUTER
G1 X148.3 Y159.65 E141.941 F1080
G1 X146.65 Y159.21 E141.998
G1 X145.1 Y158.49 E142.055
G1 X143.7 Y157.5 E142.112
G1 X142.5 Y156.3 E142.168
G1 X141.51 Y154.9 E142.226
G1 X140.79 Y153.35 E142.282
G1 X140.35 Y151.7 E142.339
G1 X140.2 Y150 E142.396
G1 X140.35 Y148.3 E142.453
G1 X140.79 Y146.65 E142.51
G1 X141.51 Y145.1 E142.566
G1 X142.5 Y143.7 E142.623
G1 X143.7 Y142.5 E142.68
G1 X145.1 Y141.51 E142.737
G1 X146.65 Y140.79 E142.793
G1 X148.3 Y140.35 E142.85
G1 X150 Y140.2 E142.907
G1 X151.7 Y140.35 E142.964
G1 X153.35 Y140.79 E143.021
G1 X154.9 Y141.51 E143.077
G1 X156.3 Y142.5 E143.135
G1 X157.5 Y143.7 E143.191
G1 X158.49 Y145.1 E143.248
G1 X159.21 Y146.65 E143.305
G1 X159.65 Y148.3 E143.362
G1 X159.8 Y150 E143.418
G1 X159.65 Y151.7 E143.475
G1 X159.21 Y153.35 E143.532
G1 X158.49 Y154.9 E143.589
G1 X157.5 Y156.3 E143.646
G1 X156.3 Y157.5 E143.702
G1 X154.9 Y158.49 E143.76
G1 X153.35 Y159.21 E143.816
G1 X151.7 Y159.65 E143.873
G1 X150.04 Y159.8 E143.929
G1 X150 Y159.8
G1 X148.3 Y159.65
G1 X147.05 Y159.32
G1 X150 Y159 F7200
G1 X147.16 Y158.31
; TYPE:FILL
G1 X149.95 Y155.52 E144.06 F2160
G1 X152.73 Y152.73 E144.191
G1 X155.52 Y149.95 E144.322
G1 X158.31 Y147.16 E144.453
G1 X158.23 Y146.91 F7200
G1 X155.66 Y144.34 E144.574 F2160
G1 X153.08 Y141.77 E144.695
G1 X152.55 Y141.61 F7200
G1 X149.81 Y144.34 E144.823 F2160
G1 X147.08 Y147.08 E144.952
G1 X144.34 Y149.81 E145.081
G1 X141.61 Y152.55 E145.209
G1 X141.77 Y153.08 F7200
G1 X144.34 Y155.66 E145.33 F2160
G1 X146.91 Y158.23 E145.451
G1 X156.19 Y156.19 F7200
G1 X153.1 Y153.1 E145.597 F2160
G1 X150 Y150 E145.743
G1 X146.9 Y146.9 E145.888
G1 X143.8 Y143.8 E146.034
; Layer Change GCode
; LAYER:5
; LAYER_HEIGHT:0.2
; TYPE:FILL
G1 X146.9 Y151.4 Z1.1 F7200
G1 X150 Y159 Z1.2
; TYPE:WALL-INNER
G1 X148.44 Y158.86 E146.086 F1350
G1 X146.92 Y158.45 E146.138
G1 X145.51 Y157.79 E146.19
G1 X144.22 Y156.89 E146.243
G1 X143.11 Y155.78 E146.295
G1 X142.21 Y154.49 E146.347
G1 X141.55 Y153.08 E146.399
G1 X141.14 Y151.56 E146.451
G1 X141 Y150 E146.503
G1 X141.14 Y148.44 E146.555
G1 X141.55 Y146.92 E146.608
G1 X142.21 Y145.5 E146.66
G1 X143.11 Y144.22 E146.712
G1 X144.22 Y143.11 E146.764
G1 X145.51 Y142.21 E146.816
G1 X146.92 Y141.55 E146.868
G1 X148.44 Y141.14 E146.921
G1 X150 Y141 E146.973
G1 X151.56 Y141.14 E147.025
G1 X153.08 Y141.55 E147.077
G1 X154.49 Y142.21 E147.129
G1 X155.78 Y143.11 E147.181
G1 X156.89 Y144.22 E147.234
G1 X157.79 Y145.51 E147.286
G1 X158.45 Y146.92 E147.338
G1 X158.86 Y148.44 E147.39
G1 X159 Y150 E147.442
G1 X158.86 Y151.56 E147.494
G1 X158.45 Y153.08 E147.547
G1 X157.79 Y154.49 E147.599
G1 X156.89 Y155.78 E147.651
G1 X155.78 Y156.89 E147.703
G1 X154.49 Y157.79 E147.755
G1 X153.08 Y158.45 E147.807
G1 X151.56 Y158.86 E147.86
G1 X150.04 Y158.99 E147.91
G1 X150 Y159
G1 Y159.4 F7200
G1 X148.36 Y159.25 E147.965 F1350
G1 X146.79 Y158.83 E148.019
G1 X145.3 Y158.14 E148.074
G1 X143.96 Y157.2 E148.128
G1 X142.8 Y156.04 E148.183
G1 X141.86 Y154.7 E148.237
G1 X141.17 Y153.21 E148.292
G1 X140.75 Y151.64 E148.346
G1 X140.6 Y150 E148.401
G1 X140.75 Y148.36 E148.455
G1 X141.17 Y146.79 E148.51
G1 X141.86 Y145.3 E148.564
G1 X142.8 Y143.96 E148.619
G1 X143.96 Y142.8 E148.673
G1 X145.3 Y141.86 E148.728
G1 X146.79 Y141.17 E148.782
G1 X148.36 Y140.75 E148.836
G1 X150 Y140.6 E148.891
G1 X151.64 Y140.75 E148.946
G1 X153.21 Y141.17 E149
G1 X154.7 Y141.86 E149.055
G1 X156.04 Y142.8 E149.109
G1 X157.2 Y143.96 E149.163
G1 X158.14 Y145.3 E149.218
G1 X158.83 Y146.79 E149.272
G1 X159.25 Y148.36 E149.327
G1 X159.4 Y150 E149.381
G1 X159.25 Y151.64 E149.436
G1 X158.83 Y153.21 E149.49
G1 X158.14 Y154.7 E149.545
G1 X157.2 Y156.04 E149.599
G1 X156.04 Y157.2 E149.654
G1 X154.7 Y158.14 E149.708
G1 X153.21 Y158.83 E149.763
G1 X151.64 Y159.25 E149.817
G1 X150.04 Y159.39 E149.87
G1 X150 Y159.4
G1 Y159.8 F7200
; TYPE:WALL-OUTER
G1 X148.3 Y159.65 E149.927 F900
G1 X146.65 Y159.21 E149.984
G1 X145.1 Y158.49 E150.041
G1 X143.7 Y157.5 E150.098
G1 X142.5 Y156.3 E150.154
G1 X141.51 Y154.9 E150.211
G1 X140.79 Y153.35 E150.268
G1 X140.35 Y151.7 E150.325
G1 X140.2 Y150 E150.382
G1 X140.35 Y148.3 E150.439
G1 X140.79 Y146.65 E150.495
G1 X141.51 Y145.1 E150.552
G1 X142.5 Y143.7 E150.609
G1 X143.7 Y142.5 E150.666
G1 X145.1 Y141.51 E150.723
G1 X146.65 Y140.79 E150.779
G1 X148.3 Y140.35 E150.836
G1 X150 Y140.2 E150.893
G1 X151.7 Y140.35 E150.95
G1 X153.35 Y140.79 E151.007
G1 X154.9 Y141.51 E151.063
G1 X156.3 Y142.5 E151.121
G1 X157.5 Y143.7 E151.177
G1 X158.49 Y145.1 E151.234
G1 X159.21 Y146.65 E151.291
G1 X159.65 Y148.3 E151.348
G1 X159.8 Y150 E151.404
G1 X159.65 Y151.7 E151.461
G1 X159.21 Y153.35 E151.518
G1 X158.49 Y154.9 E151.575
G1 X157.5 Y156.3 E151.632
G1 X156.3 Y157.5 E151.688
G1 X154.9 Y158.49 E151.745
G1 X153.35 Y159.21 E151.802
G1 X151.7 Y159.65 E151.859
G1 X150.04 Y159.8 E151.914
G1 X150 Y159.8
G1 X148.3 Y159.65
G1 X147.05 Y159.32
G1 X150 Y159 F7200
G1 X147.16 Y158.31
; TYPE:FILL
G1 X149.95 Y155.52 E152.046 F1800
G1 X152.73 Y152.73 E152.177
G1 X155.52 Y149.95 E152.308
G1 X158.31 Y147.16 E152.439
G1 X158.23 Y146.91 F7200
G1 X155.66 Y144.34 E152.56 F1800
G1 X153.08 Y141.77 E152.681
G1 X152.55 Y141.61 F7200
G1 X149.81 Y144.34 E152.809 F1800
G1 X147.08 Y147.08 E152.938
G1 X144.34 Y149.81 E153.067
G1 X141.61 Y152.55 E153.195
G1 X141.77 Y153.08 F7200
G1 X144.34 Y155.66 E153.316 F1800
G1 X146.91 Y158.23 E153.437
G1 X156.19 Y156.19 F7200
G1 X153.1 Y153.1 E153.583 F1800
G1 X150 Y150 E153.728
G1 X146.9 Y146.9 E153.874
G1 X143.8 Y143.8 E154.02
; Layer Change GCode
; LAYER:6
; LAYER_HEIGHT:0.2
; TYPE:FILL
G1 X146.9 Y151.4 Z1.3 F7200
G1 X150 Y159 Z1.4
; TYPE:WALL-INNER
G1 X148.44 Y158.86 E154.072 F1080
G1 X146.92 Y158.45 E154.124
G1 X145.51 Y157.79 E154.176
G1 X144.22 Y156.89 E154.229
G1 X143.11 Y155.78 E154.281
G1 X142.21 Y154.49 E154.333
G1 X141.55 Y153.08 E154.385
G1 X141.14 Y151.56 E154.437
G1 X141 Y150 E154.489
G1 X141.14 Y148.44 E154.541
G1 X141.55 Y146.92 E154.594
G1 X142.21 Y145.5 E154.646
G1 X143.11 Y144.22 E154.698
G1 X144.22 Y143.11 E154.75
G1 X145.51 Y142.21 E154.802
G1 X146.92 Y141.55 E154.854
G1 X148.44 Y141.14 E154.907
G1 X150 Y141 E154.959
G1 X151.56 Y141.14 E155.011
G1 X153.08 Y141.55 E155.063
G1 X154.49 Y142.21 E155.115
G1 X155.78 Y143.11 E155.167
G1 X156.89 Y144.22 E155.219
G1 X157.79 Y145.51 E155.272
G1 X158.45 Y146.92 E155.324
G1 X158.86 Y148.44 E155.376
G1 X159 Y150 E155.428
G1 X158.86 Y151.56 E155.48
G1 X158.45 Y153.08 E155.533
G1 X157.79 Y154.49 E155.584
G1 X156.89 Y155.78 E155.637
G1 X155.78 Y156.89 E155.689
G1 X154.49 Y157.79 E155.741
G1 X153.08 Y158.45 E155.793
G1 X151.56 Y158.86 E155.845
G1 X150.04 Y158.99 E155.896
G1 X150 Y159
G1 Y159.4 F7200
G1 X148.36 Y159.25 E155.951 F1080
G1 X146.79 Y158.83 E156.005
G1 X145.3 Y158.14 E156.06
G1 X143.96 Y157.2 E156.114
G1 X142.8 Y156.04 E156.169
G1 X141.86 Y154.7 E156.223
G1 X141.17 Y153.21 E156.278
G1 X140.75 Y151.64 E156.332
G1 X140.6 Y150 E156.387
G1 X140.75 Y148.36 E156.441
G1 X141.17 Y146.79 E156.496
G1 X141.86 Y145.3 E156.55
G1 X142.8 Y143.96 E156.605
G1 X143.96 Y142.8 E156.659
G1 X145.3 Y141.86 E156.713
G1 X146.79 Y141.17 E156.768
G1 X148.36 Y140.75 E156.822
G1 X150 Y140.6 E156.877
G1 X151.64 Y140.75 E156.932
G1 X153.21 Y141.17 E156.986
G1 X154.7 Y141.86 E157.04
G1 X156.04 Y142.8 E157.095
G1 X157.2 Y143.96 E157.149
G1 X158.14 Y145.3 E157.204
G1 X158.83 Y146.79 E157.258
G1 X159.25 Y148.36 E157.313
G1 X159.4 Y150 E157.367
G1 X159.25 Y151.64 E157.422
G1 X158.83 Y153.21 E157.476
G1 X158.14 Y154.7 E157.531
G1 X157.2 Y156.04 E157.585
G1 X156.04 Y157.2 E157.64
G1 X154.7 Y158.14 E157.694
G1 X153.21 Y158.83 E157.749
G1 X151.64 Y159.25 E157.803
G1 X150.04 Y159.39 E157.856
G1 X150 Y159.4
G1 Y159.8 F7200
; TYPE:WALL-OUTER
G1 X148.3 Y159.65 E157.913 F720
G1 X146.65 Y159.21 E157.97
G1 X145.1 Y158.49 E158.027
G1 X143.7 Y157.5 E158.084
G1 X142.5 Y156.3 E158.14
G1 X141.51 Y154.9 E158.197
G1 X140.79 Y153.35 E158.254
G1 X140.35 Y151.7 E158.311
G1 X140.2 Y150 E158.368
G1 X140.35 Y148.3 E158.424
G1 X140.79 Y146.65 E158.481
G1 X141.51 Y145.1 E158.538
G1 X142.5 Y143.7 E158.595
G1 X143.7 Y142.5 E158.652
G1 X145.1 Y141.51 E158.709
G1 X146.65 Y140.79 E158.765
G1 X148.3 Y140.35 E158.822
G1 X150 Y140.2 E158.879
G1 X151.7 Y140.35 E158.936
G1 X153.35 Y140.79 E158.993
G1 X154.9 Y141.51 E159.049
G1 X156.3 Y142.5 E159.106
G1 X157.5 Y143.7 E159.163
G1 X158.49 Y145.1 E159.22
G1 X159.21 Y146.65 E159.277
G1 X159.65 Y148.3 E159.334
G1 X159.8 Y150 E159.39
G1 X159.65 Y151.7 E159.447
G1 X159.21 Y153.35 E159.504
G1 X158.49 Y154.9 E159.561
G1 X157.5 Y156.3 E159.618
G1 X156.3 Y157.5 E159.674
G1 X154.9 Y158.49 E159.731
G1 X153.35 Y159.21 E159.788
G1 X151.7 Y159.65 E159.845
G1 X150.04 Y159.8 E159.9
G1 X150 Y159.8
G1 X148.3 Y159.65
G1 X147.05 Y159.32
G1 X150 Y159 F7200
G1 X147.16 Y158.31
; TYPE:FILL
G1 X149.95 Y155.52 E160.031 F1440
G1 X152.73 Y152.73 E160.163
G1 X155.52 Y149.95 E160.294
G1 X158.31 Y147.16 E160.425
G1 X158.23 Y146.91 F7200
G1 X155.66 Y144.34 E160.546 F1440
G1 X153.08 Y141.77 E160.667
G1 X152.55 Y141.61 F7200
G1 X149.81 Y144.34 E160.795 F1440
G1 X147.08 Y147.08 E160.924
G1 X144.34 Y149.81 E161.052
G1 X141.61 Y152.55 E161.181
G1 X141.77 Y153.08 F7200
G1 X144.34 Y155.66 E161.302 F1440
G1 X146.91 Y158.23 E161.423
G1 X156.19 Y156.19 F7200
G1 X153.1 Y153.1 E161.569 F1440
G1 X150 Y150 E161.714
G1 X146.9 Y146.9 E161.86
G1 X143.8 Y143.8 E162.006
; Layer Change GCode
; LAYER:7
; LAYER_HEIGHT:0.2
; TYPE:FILL
G1 X146.9 Y151.4 Z1.5 F7200
G1 X150 Y159 Z1.6
; TYPE:WALL-INNER
G1 X148.44 Y158.86 E162.058 F810
G1 X146.92 Y158.45 E162.11
G1 X145.51 Y157.79 E162.162
G1 X144.22 Y156.89 E162.214
G1 X143.11 Y155.78 E162.267
G1 X142.21 Y154.49 E162.319
G1 X141.55 Y153.08 E162.371
G1 X141.14 Y151.56 E162.423
G1 X141 Y150 E162.475
G1 X141.14 Y148.44 E162.527
G1 X141.55 Y146.92 E162.58
G1 X142.21 Y145.5 E162.632
G1 X143.11 Y144.22 E162.684
G1 X144.22 Y143.11 E162.736
G1 X145.51 Y142.21 E162.788
G1 X146.92 Y141.55 E162.84
G1 X148.44 Y141.14 E162.893
G1 X150 Y141 E162.945
G1 X151.56 Y141.14 E162.997
G1 X153.08 Y141.55 E163.049
G1 X154.49 Y142.21 E163.101
G1 X155.78 Y143.11 E163.153
G1 X156.89 Y144.22 E163.205
G1 X157.79 Y145.51 E163.258
G1 X158.45 Y146.92 E163.31
G1 X158.86 Y148.44 E163.362
G1 X159 Y150 E163.414
G1 X158.86 Y151.56 E163.466
G1 X158.45 Y153.08 E163.519
G1 X157.79 Y154.49 E163.57
G1 X156.89 Y155.78 E163.623
G1 X155.78 Y156.89 E163.675
G1 X154.49 Y157.79 E163.727
G1 X153.08 Y158.45 E163.779
G1 X151.56 Y158.86 E163.831
G1 X150.04 Y158.99 E163.882
G1 X150 Y159
G1 Y159.4 F7200
G1 X148.36 Y159.25 E163.937 F810
G1 X146.79 Y158.83 E163.991
G1 X145.3 Y158.14 E164.046
G1 X143.96 Y157.2 E164.1
G1 X142.8 Y156.04 E164.155
G1 X141.86 Y154.7 E164.209
G1 X141.17 Y153.21 E164.264
G1 X140.75 Y151.64 E164.318
G1 X140.6 Y150 E164.373
G1 X140.75 Y148.36 E164.427
G1 X141.17 Y146.79 E164.481
G1 X141.86 Y145.3 E164.536
G1 X142.8 Y143.96 E164.59
G1 X143.96 Y142.8 E164.645
G1 X145.3 Y141.86 E164.699
G1 X146.79 Y141.17 E164.754
G1 X148.36 Y140.75 E164.808
G1 X150 Y140.6 E164.863
G1 X151.64 Y140.75 E164.918
G1 X153.21 Y141.17 E164.972
G1 X154.7 Y141.86 E165.026
G1 X156.04 Y142.8 E165.081
G1 X157.2 Y143.96 E165.135
G1 X158.14 Y145.3 E165.19
G1 X158.83 Y146.79 E165.244
G1 X159.25 Y148.36 E165.299
G1 X159.4 Y150 E165.353
G1 X159.25 Y151.64 E165.408
G1 X158.83 Y153.21 E165.462
G1 X158.14 Y154.7 E165.517
G1 X157.2 Y156.04 E165.571
G1 X156.04 Y157.2 E165.626
G1 X154.7 Y158.14 E165.68
G1 X153.21 Y158.83 E165.735
G1 X151.64 Y159.25 E165.789
G1 X150.04 Y159.39 E165.842
G1 X150 Y159.4
G1 Y159.8 F7200
; TYPE:WALL-OUTER
G1 X148.3 Y159.65 E165.899 F600
G1 X146.65 Y159.21 E165.956
G1 X145.1 Y158.49 E166.013
G1 X143.7 Y157.5 E166.07
G1 X142.5 Y156.3 E166.126
G1 X141.51 Y154.9 E166.183
G1 X140.79 Y153.35 E166.24
G1 X140.35 Y151.7 E166.297
G1 X140.2 Y150 E166.354
G1 X140.35 Y148.3 E166.41
G1 X140.79 Y146.65 E166.467
G1 X141.51 Y145.1 E166.524
G1 X142.5 Y143.7 E166.581
G1 X143.7 Y142.5 E166.638
G1 X145.1 Y141.51 E166.695
G1 X146.65 Y140.79 E166.751
G1 X148.3 Y140.35 E166.808
G1 X150 Y140.2 E166.865
G1 X151.7 Y140.35 E166.922
G1 X153.35 Y140.79 E166.979
G1 X154.9 Y141.51 E167.035
G1 X156.3 Y142.5 E167.092
G1 X157.5 Y143.7 E167.149
G1 X158.49 Y145.1 E167.206
G1 X159.21 Y146.65 E167.263
G1 X159.65 Y148.3 E167.319
G1 X159.8 Y150 E167.376
G1 X159.65 Y151.7 E167.433
G1 X159.21 Y153.35 E167.49
G1 X158.49 Y154.9 E167.547
G1 X157.5 Y156.3 E167.604
G1 X156.3 Y157.5 E167.66
G1 X154.9 Y158.49 E167.717
G1 X153.35 Y159.21 E167.774
G1 X151.7 Y159.65 E167.831
G1 X150.04 Y159.8 E167.886
G1 X150 Y159.8
G1 X148.3 Y159.65
G1 X147.05 Y159.32
G1 X150 Y159 F7200
G1 X147.16 Y158.31
; TYPE:FILL
G1 X149.95 Y155.52 E168.017 F1080
G1 X152.73 Y152.73 E168.148
G1 X155.52 Y149.95 E168.28
G1 X158.31 Y147.16 E168.411
G1 X158.23 Y146.91 F7200
G1 X155.66 Y144.34 E168.532 F1080
G1 X153.08 Y141.77 E168.653
G1 X152.55 Y141.61 F7200
G1 X149.81 Y144.34 E168.781 F1080
G1 X147.08 Y147.08 E168.91
G1 X144.34 Y149.81 E169.038
G1 X141.61 Y152.55 E169.167
G1 X141.77 Y153.08 F7200
G1 X144.34 Y155.66 E169.288 F1080
G1 X146.91 Y158.23 E169.409
G1 X156.19 Y156.19 F7200
G1 X153.1 Y153.1 E169.555 F1080
G1 X150 Y150 E169.7
G1 X146.9 Y146.9 E169.846
G1 X143.8 Y143.8 E169.992
; Layer Change GCode
; LAYER:8
; LAYER_HEIGHT:0.2
; TYPE:FILL
G1 X146.9 Y151.4 Z1.7 F7200
G1 X150 Y159 Z1.8
; TYPE:WALL-INNER
G1 X148.44 Y158.86 E170.044 F600
G1 X146.92 Y158.45 E170.096
G1 X145.51 Y157.79 E170.148
G1 X144.22 Y156.89 E170.2
G1 X143.11 Y155.78 E170.252
G1 X142.21 Y154.49 E170.305
G1 X141.55 Y153.08 E170.357
G1 X141.14 Y151.56 E170.409
G1 X141 Y150 E170.461
G1 X141.14 Y148.44 E170.513
G1 X141.55 Y146.92 E170.566
G1 X142.21 Y145.5 E170.618
G1 X143.11 Y144.22 E170.67
G1 X144.22 Y143.11 E170.722
G1 X145.51 Y142.21 E170.774
G1 X146.92 Y141.55 E170.826
G1 X148.44 Y141.14 E170.878
G1 X150 Y141 E170.931
G1 X151.56 Y141.14 E170.983
G1 X153.08 Y141.55 E171.035
G1 X154.49 Y142.21 E171.087
G1 X155.78 Y143.11 E171.139
G1 X156.89 Y144.22 E171.191
G1 X157.79 Y145.51 E171.244
G1 X158.45 Y146.92 E171.296
G1 X158.86 Y148.44 E171.348
G1 X159 Y150 E171.4
G1 X158.86 Y151.56 E171.452
G1 X158.45 Y153.08 E171.504
G1 X157.79 Y154.49 E171.556
G1 X156.89 Y155.78 E171.609
G1 X155.78 Y156.89 E171.661
G1 X154.49 Y157.79 E171.713
G1 X153.08 Y158.45 E171.765
G1 X151.56 Y158.86 E171.817
G1 X150.04 Y158.99 E171.868
G1 X150 Y159
G1 Y159.4 F7200
G1 X148.36 Y159.25 E171.923 F600
G1 X146.79 Y158.83 E171.977
G1 X145.3 Y158.14 E172.032
G1 X143.96 Y157.2 E172.086
G1 X142.8 Y156.04 E172.141
G1 X141.86 Y154.7 E172.195
G1 X141.17 Y153.21 E172.25
G1 X140.75 Y151.64 E172.304
G1 X140.6 Y150 E172.358
G1 X140.75 Y148.36 E172.413
G1 X141.17 Y146.79 E172.467
G1 X141.86 Y145.3 E172.522
G1 X142.8 Y143.96 E172.576
G1 X143.96 Y142.8 E172.631
G1 X145.3 Y141.86 E172.685
G1 X146.79 Y141.17 E172.74
G1 X148.36 Y140.75 E172.794
G1 X150 Y140.6 E172.849
G1 X151.64 Y140.75 E172.903
G1 X153.21 Y141.17 E172.958
G1 X154.7 Y141.86 E173.012
G1 X156.04 Y142.8 E173.067
G1 X157.2 Y143.96 E173.121
G1 X158.14 Y145.3 E173.176
G1 X158.83 Y146.79 E173.23
G1 X159.25 Y148.36 E173.285
G1 X159.4 Y150 E173.339
G1 X159.25 Y151.64 E173.394
G1 X158.83 Y153.21 E173.448
G1 X158.14 Y154.7 E173.503
G1 X157.2 Y156.04 E173.557
G1 X156.04 Y157.2 E173.612
G1 X154.7 Y158.14 E173.666
G1 X153.21 Y158.83 E173.721
G1 X151.64 Y159.25 E173.775
G1 X150.04 Y159.39 E173.828
G1 X150 Y159.4
G1 Y159.8 F7200
; TYPE:WALL-OUTER
G1 X148.3 Y159.65 E173.885 F600
G1 X146.65 Y159.21 E173.942
G1 X145.1 Y158.49 E173.999
G1 X143.7 Y157.5 E174.056
G1 X142.5 Y156.3 E174.112
G1 X141.51 Y154.9 E174.169
G1 X140.79 Y153.35 E174.226
G1 X140.35 Y151.7 E174.283
G1 X140.2 Y150 E174.34
G1 X140.35 Y148.3 E174.396
G1 X140.79 Y146.65 E174.453
G1 X141.51 Y145.1 E174.51
G1 X142.5 Y143.7 E174.567
G1 X143.7 Y142.5 E174.623
G1 X145.1 Y141.51 E174.681
G1 X146.65 Y140.79 E174.737
G1 X148.3 Y140.35 E174.794
G1 X150 Y140.2 E174.851
G1 X151.7 Y140.35 E174.908
G1 X153.35 Y140.79 E174.965
G1 X154.9 Y141.51 E175.021
G1 X156.3 Y142.5 E175.078
G1 X157.5 Y143.7 E175.135
G1 X158.49 Y145.1 E175.192
G1 X159.21 Y146.65 E175.248
G1 X159.65 Y148.3 E175.305
G1 X159.8 Y150 E175.362
G1 X159.65 Y151.7 E175.419
G1 X159.21 Y153.35 E175.476
G1 X158.49 Y154.9 E175.532
G1 X157.5 Y156.3 E175.59
G1 X156.3 Y157.5 E175.646
G1 X154.9 Y158.49 E175.703
G1 X153.35 Y159.21 E175.76
G1 X151.7 Y159.65 E175.817
G1 X150.04 Y159.8 E175.872
G1 X150 Y159.8
G1 X148.3 Y159.65
G1 X147.05 Y159.32
G1 X150 Y159 F7200
G1 X147.16 Y158.31
; TYPE:FILL
G1 X149.95 Y155.52 E176.003 F750
G1 X152.73 Y152.73 E176.134
G1 X155.52 Y149.95 E176.266
G1 X158.31 Y147.16 E176.397
G1 X158.23 Y146.91 F7200
G1 X155.66 Y144.34 E176.518 F750
G1 X153.08 Y141.77 E176.639
G1 X152.55 Y141.61 F7200
G1 X149.81 Y144.34 E176.767 F750
G1 X147.08 Y147.08 E176.896
G1 X144.34 Y149.81 E177.024
G1 X141.61 Y152.55 E177.153
G1 X141.77 Y153.08 F7200
G1 X144.34 Y155.66 E177.274 F750
G1 X146.91 Y158.23 E177.395
G1 X156.19 Y156.19 F7200
G1 X153.1 Y153.1 E177.541 F750
G1 X150 Y150 E177.686
G1 X146.9 Y146.9 E177.832
G1 X143.8 Y143.8 E177.978
; Layer Change GCode
; LAYER:9
; LAYER_HEIGHT:0.2
; TYPE:FILL
G1 X146.9 Y151.4 Z1.9 F7200
G1 X150 Y159 Z2
; TYPE:WALL-INNER
G1 X148.44 Y158.86 E178.03 F600
G1 X146.92 Y158.45 E178.082
G1 X145.51 Y157.79 E178.134
G1 X144.22 Y156.89 E178.186
G1 X143.11 Y155.78 E178.238
G1 X142.21 Y154.49 E178.291
G1 X141.55 Y153.08 E178.343
G1 X141.14 Y151.56 E178.395
G1 X141 Y150 E178.447
G1 X141.14 Y148.44 E178.499
G1 X141.55 Y146.92 E178.552
G1 X142.21 Y145.5 E178.603
G1 X143.11 Y144.22 E178.656
G1 X144.22 Y143.11 E178.708
G1 X145.51 Y142.21 E178.76
G1 X146.92 Y141.55 E178.812
G1 X148.44 Y141.14 E178.864
G1 X150 Y141 E178.917
G1 X151.56 Y141.14 E178.969
G1 X153.08 Y141.55 E179.021
G1 X154.49 Y142.21 E179.073
G1 X155.78 Y143.11 E179.125
G1 X156.89 Y144.22 E179.177
G1 X157.79 Y145.51 E179.23
G1 X158.45 Y146.92 E179.281
G1 X158.86 Y148.44 E179.334
G1 X159 Y150 E179.386
G1 X158.86 Y151.56 E179.438
G1 X158.45 Y153.08 E179.49
G1 X157.79 Y154.49 E179.542
G1 X156.89 Y155.78 E179.595
G1 X155.78 Y156.89 E179.647
G1 X154.49 Y157.79 E179.699
G1 X153.08 Y158.45 E179.751
G1 X151.56 Y158.86 E179.803
G1 X150.04 Y158.99 E179.854
G1 X150 Y159
G1 Y159.4 F7200
G1 X148.36 Y159.25 E179.909 F600
G1 X146.79 Y158.83 E179.963
G1 X145.3 Y158.14 E180.018
G1 X143.96 Y157.2 E180.072
G1 X142.8 Y156.04 E180.126
G1 X141.86 Y154.7 E180.181
G1 X141.17 Y153.21 E180.235
G1 X140.75 Y151.64 E180.29
G1 X140.6 Y150 E180.344
G1 X140.75 Y148.36 E180.399
G1 X141.17 Y146.79 E180.453
G1 X141.86 Y145.3 E180.508
G1 X142.8 Y143.96 E180.562
G1 X143.96 Y142.8 E180.617
G1 X145.3 Y141.86 E180.671
G1 X146.79 Y141.17 E180.726
G1 X148.36 Y140.75 E180.78
G1 X150 Y140.6 E180.835
G1 X151.64 Y140.75 E180.889
G1 X153.21 Y141.17 E180.944
G1 X154.7 Y141.86 E180.998
G1 X156.04 Y142.8 E181.053
G1 X157.2 Y143.96 E181.107
G1 X158.14 Y145.3 E181.162
G1 X158.83 Y146.79 E181.216
G1 X159.25 Y148.36 E181.271
G1 X159.4 Y150 E181.325
G1 X159.25 Y151.64 E181.38
G1 X158.83 Y153.21 E181.434
G1 X158.14 Y154.7 E181.489
G1 X157.2 Y156.04 E181.543
G1 X156.04 Y157.2 E181.598
G1 X154.7 Y158.14 E181.652
G1 X153.21 Y158.83 E181.707
G1 X151.64 Y159.25 E181.761
G1 X150.04 Y159.39 E181.814
G1 X150 Y159.4
G1 Y159.8 F7200
; TYPE:WALL-OUTER
G1 X148.3 Y159.65 E181.871 F600
G1 X146.65 Y159.21 E181.928
G1 X145.1 Y158.49 E181.984
G1 X143.7 Y157.5 E182.042
G1 X142.5 Y156.3 E182.098
G1 X141.51 Y154.9 E182.155
G1 X140.79 Y153.35 E182.212
G1 X140.35 Y151.7 E182.269
G1 X140.2 Y150 E182.325
G1 X140.35 Y148.3 E182.382
G1 X140.79 Y146.65 E182.439
G1 X141.51 Y145.1 E182.496
G1 X142.5 Y143.7 E182.553
G1 X143.7 Y142.5 E182.609
G1 X145.1 Y141.51 E182.667
G1 X146.65 Y140.79 E182.723
G1 X148.3 Y140.35 E182.78
G1 X150 Y140.2 E182.837
G1 X151.7 Y140.35 E182.894
G1 X153.35 Y140.79 E182.95
G1 X154.9 Y141.51 E183.007
G1 X156.3 Y142.5 E183.064
G1 X157.5 Y143.7 E183.121
G1 X158.49 Y145.1 E183.178
G1 X159.21 Y146.65 E183.234
G1 X159.65 Y148.3 E183.291
G1 X159.8 Y150 E183.348
G1 X159.65 Y151.7 E183.405
G1 X159.21 Y153.35 E183.462
G1 X158.49 Y154.9 E183.518
G1 X157.5 Y156.3 E183.576
G1 X156.3 Y157.5 E183.632
G1 X154.9 Y158.49 E183.689
G1 X153.35 Y159.21 E183.746
G1 X151.7 Y159.65 E183.803
G1 X150.04 Y159.8 E183.858
G1 X150 Y159.8
G1 X148.3 Y159.65
G1 X147.05 Y159.32
G1 X150 Y159 F7200
G1 X147.16 Y158.31
; TYPE:FILL
G1 X149.95 Y155.52 E183.989 F600
G1 X152.73 Y152.73 E184.12
G1 X155.52 Y149.95 E184.251
G1 X158.31 Y147.16 E184.383
G1 X158.23 Y146.91 F7200
G1 X155.66 Y144.34 E184.504 F600
G1 X153.08 Y141.77 E184.624
G1 X152.55 Y141.61 F7200
G1 X149.81 Y144.34 E184.753 F600
G1 X147.08 Y147.08 E184.882
G1 X144.34 Y149.81 E185.01
G1 X141.61 Y152.55 E185.139
G1 X141.77 Y153.08 F7200
G1 X144.34 Y155.66 E185.26 F600
G1 X146.91 Y158.23 E185.381
G1 X156.19 Y156.19 F7200
G1 X153.1 Y153.1 E185.526 F600
G1 X150 Y150 E185.672
G1 X146.9 Y146.9 E185.818
G1 X143.8 Y143.8 E185.964
; Layer Change GCode
; LAYER:10
; LAYER_HEIGHT:0.2
; TYPE:FILL
G1 X146.9 Y151.4 Z2.1 F7200
G1 X150 Y159 Z2.2
; TYPE:WALL-INNER
G1 X148.44 Y158.86 E186.016 F600
G1 X146.92 Y158.45 E186.068
G1 X145.51 Y157.79 E186.12
G1 X144.22 Y156.89 E186.172
G1 X143.11 Y155.78 E186.224
G1 X142.21 Y154.49 E186.277
G1 X141.55 Y153.08 E186.329
G1 X141.14 Y151.56 E186.381
G1 X141 Y150 E186.433
G1 X141.14 Y148.44 E186.485
G1 X141.55 Y146.92 E186.537
G1 X142.21 Y145.5 E186.589
G1 X143.11 Y144.22 E186.642
G1 X144.22 Y143.11 E186.694
G1 X145.51 Y142.21 E186.746
G1 X146.92 Y141.55 E186.798
G1 X148.44 Y141.14 E186.85
G1 X150 Y141 E186.902
G1 X151.56 Y141.14 E186.955
G1 X153.08 Y141.55 E187.007
G1 X154.49 Y142.21 E187.059
G1 X155.78 Y143.11 E187.111
G1 X156.89 Y144.22 E187.163
G1 X157.79 Y145.51 E187.216
G1 X158.45 Y146.92 E187.267
G1 X158.86 Y148.44 E187.32
G1 X159 Y150 E187.372
G1 X158.86 Y151.56 E187.424
G1 X158.45 Y153.08 E187.476
G1 X157.79 Y154.49 E187.528
G1 X156.89 Y155.78 E187.581
G1 X155.78 Y156.89 E187.633
G1 X154.49 Y157.79 E187.685
G1 X153.08 Y158.45 E187.737
G1 X151.56 Y158.86 E187.789
G1 X150.04 Y158.99 E187.84
G1 X150 Y159
G1 Y159.4 F7200
G1 X148.36 Y159.25 E187.895 F600
G1 X146.79 Y158.83 E187.949
G1 X145.3 Y158.14 E188.003
G1 X143.96 Y157.2 E188.058
G1 X142.8 Y156.04 E188.112
G1 X141.86 Y154.7 E188.167
G1 X141.17 Y153.21 E188.221
G1 X140.75 Y151.64 E188.276
G1 X140.6 Y150 E188.33
G1 X140.75 Y148.36 E188.385
G1 X141.17 Y146.79 E188.439
G1 X141.86 Y145.3 E188.494
G1 X142.8 Y143.96 E188.548
G1 X143.96 Y142.8 E188.603
G1 X145.3 Y141.86 E188.657
G1 X146.79 Y141.17 E188.712
G1 X148.36 Y140.75 E188.766
G1 X150 Y140.6 E188.821
G1 X151.64 Y140.75 E188.875
G1 X153.21 Y141.17 E188.93
G1 X154.7 Y141.86 E188.984
G1 X156.04 Y142.8 E189.039
G1 X157.2 Y143.96 E189.093
G1 X158.14 Y145.3 E189.148
G1 X158.83 Y146.79 E189.202
G1 X159.25 Y148.36 E189.256
G1 X159.4 Y150 E189.311
G1 X159.25 Y151.64 E189.366
G1 X158.83 Y153.21 E189.42
G1 X158.14 Y154.7 E189.475
G1 X157.2 Y156.04 E189.529
G1 X156.04 Y157.2 E189.583
G1 X154.7 Y158.14 E189.638
G1 X153.21 Y158.83 E189.692
G1 X151.64 Y159.25 E189.747
G1 X150.04 Y159.39 E189.8
G1 X150 Y159.4
G1 Y159.8 F7200
; TYPE:WALL-OUTER
G1 X148.3 Y159.65 E189.857 F600
G1 X146.65 Y159.21 E189.914
G1 X145.1 Y158.49 E189.97
G1 X143.7 Y157.5 E190.027
G1 X142.5 Y156.3 E190.084
G1 X141.51 Y154.9 E190.141
G1 X140.79 Y153.35 E190.198
G1 X140.35 Y151.7 E190.255
G1 X140.2 Y150 E190.311
G1 X140.35 Y148.3 E190.368
G1 X140.79 Y146.65 E190.425
G1 X141.51 Y145.1 E190.482
G1 X142.5 Y143.7 E190.539
G1 X143.7 Y142.5 E190.595
G1 X145.1 Y141.51 E190.652
G1 X146.65 Y140.79 E190.709
G1 X148.3 Y140.35 E190.766
G1 X150 Y140.2 E190.823
G1 X151.7 Y140.35 E190.879
G1 X153.35 Y140.79 E190.936
G1 X154.9 Y141.51 E190.993
G1 X156.3 Y142.5 E191.05
G1 X157.5 Y143.7 E191.107
G1 X158.49 Y145.1 E191.164
G1 X159.21 Y146.65 E191.22
G1 X159.65 Y148.3 E191.277
G1 X159.8 Y150 E191.334
G1 X159.65 Y151.7 E191.391
G1 X159.21 Y153.35 E191.448
G1 X158.49 Y154.9 E191.504
G1 X157.5 Y156.3 E191.561
G1 X156.3 Y157.5 E191.618
G1 X154.9 Y158.49 E191.675
G1 X153.35 Y159.21 E191.732
G1 X151.7 Y159.65 E191.789
G1 X150.04 Y159.8 E191.844
G1 X150 Y159.8
G1 X148.3 Y159.65
G1 X147.05 Y159.32
G1 X150 Y159 F7200
G1 X147.16 Y158.31
; TYPE:FILL
G1 X149.95 Y155.52 E191.975 F600
G1 X152.73 Y152.73 E192.106
G1 X155.52 Y149.95 E192.237
G1 X158.31 Y147.16 E192.368
G1 X158.23 Y146.91 F7200
G1 X155.66 Y144.34 E192.489 F600
G1 X153.08 Y141.77 E192.61
G1 X152.55 Y141.61 F7200
G1 X149.81 Y144.34 E192.739 F600
G1 X147.08 Y147.08 E192.868
G1 X144.34 Y149.81 E192.996
G1 X141.61 Y152.55 E193.125
G1 X141.77 Y153.08 F7200
G1 X144.34 Y155.66 E193.246 F600
G1 X146.91 Y158.23 E193.367
G1 X156.19 Y156.19 F7200
G1 X153.1 Y153.1 E193.512 F600
G1 X150 Y150 E193.658
G1 X146.9 Y146.9 E193.804
G1 X143.8 Y143.8 E193.95
; Layer Change GCode
; LAYER:11
; LAYER_HEIGHT:0.2
; TYPE:FILL
G1 X146.9 Y151.4 Z2.3 F7200
G1 X150 Y159 Z2.4
; TYPE:WALL-INNER
G1 X148.44 Y158.86 E194.002 F600
G1 X146.92 Y158.45 E194.054
G1 X145.51 Y157.79 E194.106
G1 X144.22 Y156.89 E194.158
G1 X143.11 Y155.78 E194.21
G1 X142.21 Y154.49 E194.263
G1 X141.55 Y153.08 E194.314
G1 X141.14 Y151.56 E194.367
G1 X141 Y150 E194.419
G1 X141.14 Y148.44 E194.471
G1 X141.55 Y146.92 E194.523
G1 X142.21 Y145.5 E194.575
G1 X143.11 Y144.22 E194.628
G1 X144.22 Y143.11 E194.68
G1 X145.51 Y142.21 E194.732
G1 X146.92 Y141.55 E194.784
G1 X148.44 Y141.14 E194.836
G1 X150 Y141 E194.888
G1 X151.56 Y141.14 E194.94
G1 X153.08 Y141.55 E194.993
G1 X154.49 Y142.21 E195.045
G1 X155.78 Y143.11 E195.097
G1 X156.89 Y144.22 E195.149
G1 X157.79 Y145.51 E195.201
G1 X158.45 Y146.92 E195.253
G1 X158.86 Y148.44 E195.306
G1 X159 Y150 E195.358
G1 X158.86 Y151.56 E195.41
G1 X158.45 Y153.08 E195.462
G1 X157.79 Y154.49 E195.514
G1 X156.89 Y155.78 E195.566
G1 X155.78 Y156.89 E195.619
G1 X154.49 Y157.79 E195.671
G1 X153.08 Y158.45 E195.723
G1 X151.56 Y158.86 E195.775
G1 X150.04 Y158.99 E195.826
G1 X150 Y159
G1 Y159.4 F7200
G1 X148.36 Y159.25 E195.88 F600
G1 X146.79 Y158.83 E195.935
G1 X145.3 Y158.14 E195.989
G1 X143.96 Y157.2 E196.044
G1 X142.8 Y156.04 E196.098
G1 X141.86 Y154.7 E196.153
G1 X141.17 Y153.21 E196.207
G1 X140.75 Y151.64 E196.262
G1 X140.6 Y150 E196.316
G1 X140.75 Y148.36 E196.371
G1 X141.17 Y146.79 E196.425
G1 X141.86 Y145.3 E196.48
G1 X142.8 Y143.96 E196.534
G1 X143.96 Y142.8 E196.589
G1 X145.3 Y141.86 E196.643
G1 X146.79 Y141.17 E196.698
G1 X148.36 Y140.75 E196.752
G1 X150 Y140.6 E196.807
G1 X151.64 Y140.75 E196.861
G1 X153.21 Y141.17 E196.916
G1 X154.7 Y141.86 E196.97
G1 X156.04 Y142.8 E197.025
G1 X157.2 Y143.96 E197.079
G1 X158.14 Y145.3 E197.133
G1 X158.83 Y146.79 E197.188
G1 X159.25 Y148.36 E197.242
G1 X159.4 Y150 E197.297
G1 X159.25 Y151.64 E197.352
G1 X158.83 Y153.21 E197.406
G1 X158.14 Y154.7 E197.46
G1 X157.2 Y156.04 E197.515
G1 X156.04 Y157.2 E197.569
G1 X154.7 Y158.14 E197.624
G1 X153.21 Y158.83 E197.678
G1 X151.64 Y159.25 E197.733
G1 X150.04 Y159.39 E197.786
G1 X150 Y159.4
G1 Y159.8 F7200
; TYPE:WALL-OUTER
G1 X148.3 Y159.65 E197.843 F600
G1 X146.65 Y159.21 E197.9
G1 X145.1 Y158.49 E197.956
G1 X143.7 Y157.5 E198.013
G1 X142.5 Y156.3 E198.07
G1 X141.51 Y154.9 E198.127
G1 X140.79 Y153.35 E198.184
G1 X140.35 Y151.7 E198.241
G1 X140.2 Y150 E198.297
G1 X140.35 Y148.3 E198.354
G1 X140.79 Y146.65 E198.411
G1 X141.51 Y145.1 E198.468
G1 X142.5 Y143.7 E198.525
G1 X143.7 Y142.5 E198.581
G1 X145.1 Y141.51 E198.638
G1 X146.65 Y140.79 E198.695
G1 X148.3 Y140.35 E198.752
G1 X150 Y140.2 E198.809
G1 X151.7 Y140.35 E198.865
G1 X153.35 Y140.79 E198.922
G1 X154.9 Y141.51 E198.979
G1 X156.3 Y142.5 E199.036
G1 X157.5 Y143.7 E199.093
G1 X158.49 Y145.1 E199.15
G1 X159.21 Y146.65 E199.206
G1 X159.65 Y148.3 E199.263
G1 X159.8 Y150 E199.32
G1 X159.65 Y151.7 E199.377
G1 X159.21 Y153.35 E199.434
G1 X158.49 Y154.9 E199.49
G1 X157.5 Y156.3 E199.547
G1 X156.3 Y157.5 E199.604
G1 X154.9 Y158.49 E199.661
G1 X153.35 Y159.21 E199.718
G1 X151.7 Y159.65 E199.775
G1 X150.04 Y159.8 E199.83
G1 X150 Y159.8
G1 X148.3 Y159.65
G1 X147.05 Y159.32
G1 X150 Y159 F7200
G1 X147.16 Y158.31
; TYPE:FILL
G1 X149.95 Y155.52 E199.961 F600
G1 X152.73 Y152.73 E200.092
G1 X155.52 Y149.95 E200.223
G1 X158.31 Y147.16 E200.354
G1 X158.23 Y146.91 F7200
G1 X155.66 Y144.34 E200.475 F600
G1 X153.08 Y141.77 E200.596
G1 X152.55 Y141.61 F7200
G1 X149.81 Y144.34 E200.725 F600
G1 X147.08 Y147.08 E200.854
G1 X144.34 Y149.81 E200.982
G1 X141.61 Y152.55 E201.111
G1 X141.77 Y153.08 F7200
G1 X144.34 Y155.66 E201.232 F600
G1 X146.91 Y158.23 E201.353
G1 X156.19 Y156.19 F7200
G1 X153.1 Y153.1 E201.498 F600
G1 X150 Y150 E201.644
G1 X146.9 Y146.9 E201.79
G1 X143.8 Y143.8 E201.935
; Layer Change GCode
; LAYER:12
; LAYER_HEIGHT:0.2
; TYPE:FILL
G1 X146.9 Y151.4 Z2.5 F7200
G1 X150 Y159 Z2.6
; TYPE:WALL-INNER
G1 X148.44 Y158.86 E201.988 F600
G1 X146.92 Y158.45 E202.04
G1 X145.51 Y157.79 E202.092
G1 X144.22 Y156.89 E202.144
G1 X143.11 Y155.78 E202.196
G1 X142.21 Y154.49 E202.249
G1 X141.55 Y153.08 E202.3
G1 X141.14 Y151.56 E202.353
G1 X141 Y150 E202.405
G1 X141.14 Y148.44 E202.457
G1 X141.55 Y146.92 E202.509
G1 X142.21 Y145.5 E202.561
G1 X143.11 Y144.22 E202.614
G1 X144.22 Y143.11 E202.666
G1 X145.51 Y142.21 E202.718
G1 X146.92 Y141.55 E202.77
G1 X148.44 Y141.14 E202.822
G1 X150 Y141 E202.874
G1 X151.56 Y141.14 E202.926
G1 X153.08 Y141.55 E202.979
G1 X154.49 Y142.21 E203.031
G1 X155.78 Y143.11 E203.083
G1 X156.89 Y144.22 E203.135
G1 X157.79 Y145.51 E203.187
G1 X158.45 Y146.92 E203.239
G1 X158.86 Y148.44 E203.292
G1 X159 Y150 E203.344
G1 X158.86 Y151.56 E203.396
G1 X158.45 Y153.08 E203.448
G1 X157.79 Y154.49 E203.5
G1 X156.89 Y155.78 E203.552
G1 X155.78 Y156.89 E203.604
G1 X154.49 Y157.79 E203.657
G1 X153.08 Y158.45 E203.709
G1 X151.56 Y158.86 E203.761
G1 X150.04 Y158.99 E203.812
G1 X150 Y159
G1 Y159.4 F7200
G1 X148.36 Y159.25 E203.866 F600
G1 X146.79 Y158.83 E203.921
G1 X145.3 Y158.14 E203.975
G1 X143.96 Y157.2 E204.03
G1 X142.8 Y156.04 E204.084
G1 X141.86 Y154.7 E204.139
G1 X141.17 Y153.21 E204.193
G1 X140.75 Y151.64 E204.248
G1 X140.6 Y150 E204.302
G1 X140.75 Y148.36 E204.357
G1 X141.17 Y146.79 E204.411
G1 X141.86 Y145.3 E204.466
G1 X142.8 Y143.96 E204.52
G1 X143.96 Y142.8 E204.575
G1 X145.3 Y141.86 E204.629
G1 X146.79 Y141.17 E204.684
G1 X148.36 Y140.75 E204.738
G1 X150 Y140.6 E204.793
G1 X151.64 Y140.75 E204.847
G1 X153.21 Y141.17 E204.901
G1 X154.7 Y141.86 E204.956
G1 X156.04 Y142.8 E205.01
G1 X157.2 Y143.96 E205.065
G1 X158.14 Y145.3 E205.119
G1 X158.83 Y146.79 E205.174
G1 X159.25 Y148.36 E205.228
G1 X159.4 Y150 E205.283
G1 X159.25 Y151.64 E205.337
G1 X158.83 Y153.21 E205.392
G1 X158.14 Y154.7 E205.446
G1 X157.2 Y156.04 E205.501
G1 X156.04 Y157.2 E205.555
G1 X154.7 Y158.14 E205.61
G1 X153.21 Y158.83 E205.664
G1 X151.64 Y159.25 E205.719
G1 X150.04 Y159.39 E205.772
G1 X150 Y159.4
G1 Y159.8 F7200
; TYPE:WALL-OUTER
G1 X148.3 Y159.65 E205.829 F600
G1 X146.65 Y159.21 E205.886
G1 X145.1 Y158.49 E205.942
G1 X143.7 Y157.5 E205.999
G1 X142.5 Y156.3 E206.056
G1 X141.51 Y154.9 E206.113
G1 X140.79 Y153.35 E206.17
G1 X140.35 Y151.7 E206.226
G1 X140.2 Y150 E206.283
G1 X140.35 Y148.3 E206.34
G1 X140.79 Y146.65 E206.397
G1 X141.51 Y145.1 E206.454
G1 X142.5 Y143.7 E206.511
G1 X143.7 Y142.5 E206.567
G1 X145.1 Y141.51 E206.624
G1 X146.65 Y140.79 E206.681
G1 X148.3 Y140.35 E206.738
G1 X150 Y140.2 E206.795
G1 X151.7 Y140.35 E206.851
G1 X153.35 Y140.79 E206.908
G1 X154.9 Y141.51 E206.965
G1 X156.3 Y142.5 E207.022
G1 X157.5 Y143.7 E207.078
G1 X158.49 Y145.1 E207.136
G1 X159.21 Y146.65 E207.192
G1 X159.65 Y148.3 E207.249
G1 X159.8 Y150 E207.306
G1 X159.65 Y151.7 E207.363
G1 X159.21 Y153.35 E207.42
G1 X158.49 Y154.9 E207.476
G1 X157.5 Y156.3 E207.533
G1 X156.3 Y157.5 E207.59
G1 X154.9 Y158.49 E207.647
G1 X153.35 Y159.21 E207.704
G1 X151.7 Y159.65 E207.76
G1 X150.04 Y159.8 E207.816
G1 X150 Y159.8
G1 X148.3 Y159.65
G1 X147.05 Y159.32
G1 X150 Y159 F7200
G1 X147.16 Y158.31
; TYPE:FILL
G1 X149.95 Y155.52 E207.947 F600
G1 X152.73 Y152.73 E208.078
G1 X155.52 Y149.95 E208.209
G1 X158.31 Y147.16 E208.34
G1 X158.23 Y146.91 F7200
G1 X155.66 Y144.34 E208.461 F600
G1 X153.08 Y141.77 E208.582
G1 X152.55 Y141.61 F7200
G1 X149.81 Y144.34 E208.711 F600
G1 X147.08 Y147.08 E208.839
G1 X144.34 Y149.81 E208.968
G1 X141.61 Y152.55 E209.097
G1 X141.77 Y153.08 F7200
G1 X144.34 Y155.66 E209.218 F600
G1 X146.91 Y158.23 E209.339
G1 X156.19 Y156.19 F7200
G1 X153.1 Y153.1 E209.484 F600
G1 X150 Y150 E209.63
G1 X146.9 Y146.9 E209.776
G1 X143.8 Y143.8 E209.921
; Layer Change GCode
; LAYER:13
; LAYER_HEIGHT:0.2
; TYPE:FILL
G1 X146.9 Y151.4 Z2.7 F7200
G1 X150 Y159 Z2.8
; TYPE:WALL-INNER
G1 X148.44 Y158.86 E209.973 F600
G1 X146.92 Y158.45 E210.026
G1 X145.51 Y157.79 E210.078
G1 X144.22 Y156.89 E210.13
G1 X143.11 Y155.78 E210.182
G1 X142.21 Y154.49 E210.234
G1 X141.55 Y153.08 E210.286
G1 X141.14 Y151.56 E210.339
G1 X141 Y150 E210.391
G1 X141.14 Y148.44 E210.443
G1 X141.55 Y146.92 E210.495
G1 X142.21 Y145.5 E210.547
G1 X143.11 Y144.22 E210.599
G1 X144.22 Y143.11 E210.652
G1 X145.51 Y142.21 E210.704
G1 X146.92 Y141.55 E210.756
G1 X148.44 Y141.14 E210.808
G1 X150 Y141 E210.86
G1 X151.56 Y141.14 E210.912
G1 X153.08 Y141.55 E210.965
G1 X154.49 Y142.21 E211.017
G1 X155.78 Y143.11 E211.069
G1 X156.89 Y144.22 E211.121
G1 X157.79 Y145.51 E211.173
G1 X158.45 Y146.92 E211.225
G1 X158.86 Y148.44 E211.278
G1 X159 Y150 E211.33
G1 X158.86 Y151.56 E211.382
G1 X158.45 Y153.08 E211.434
G1 X157.79 Y154.49 E211.486
G1 X156.89 Y155.78 E211.538
G1 X155.78 Y156.89 E211.59
G1 X154.49 Y157.79 E211.643
G1 X153.08 Y158.45 E211.695
G1 X151.56 Y158.86 E211.747
G1 X150.04 Y158.99 E211.798
G1 X150 Y159
G1 Y159.4 F7200
G1 X148.36 Y159.25 E211.852 F600
G1 X146.79 Y158.83 E211.907
G1 X145.3 Y158.14 E211.961
G1 X143.96 Y157.2 E212.016
G1 X142.8 Y156.04 E212.07
G1 X141.86 Y154.7 E212.125
G1 X141.17 Y153.21 E212.179
G1 X140.75 Y151.64 E212.233
G1 X140.6 Y150 E212.288
G1 X140.75 Y148.36 E212.343
G1 X141.17 Y146.79 E212.397
G1 X141.86 Y145.3 E212.452
G1 X142.8 Y143.96 E212.506
G1 X143.96 Y142.8 E212.561
G1 X145.3 Y141.86 E212.615
G1 X146.79 Y141.17 E212.67
G1 X148.36 Y140.75 E212.724
G1 X150 Y140.6 E212.778
G1 X151.64 Y140.75 E212.833
G1 X153.21 Y141.17 E212.887
G1 X154.7 Y141.86 E212.942
G1 X156.04 Y142.8 E212.996
G1 X157.2 Y143.96 E213.051
G1 X158.14 Y145.3 E213.105
G1 X158.83 Y146.79 E213.16
G1 X159.25 Y148.36 E213.214
G1 X159.4 Y150 E213.269
G1 X159.25 Y151.64 E213.323
G1 X158.83 Y153.21 E213.378
G1 X158.14 Y154.7 E213.432
G1 X157.2 Y156.04 E213.487
G1 X156.04 Y157.2 E213.541
G1 X154.7 Y158.14 E213.596
G1 X153.21 Y158.83 E213.65
G1 X151.64 Y159.25 E213.705
G1 X150.04 Y159.39 E213.758
G1 X150 Y159.4
G1 Y159.8 F7200
; TYPE:WALL-OUTER
G1 X148.3 Y159.65 E213.815 F600
G1 X146.65 Y159.21 E213.872
G1 X145.1 Y158.49 E213.928
G1 X143.7 Y157.5 E213.985
G1 X142.5 Y156.3 E214.042
G1 X141.51 Y154.9 E214.099
G1 X140.79 Y153.35 E214.155
G1 X140.35 Y151.7 E214.212
G1 X140.2 Y150 E214.269
G1 X140.35 Y148.3 E214.326
G1 X140.79 Y146.65 E214.383
G1 X141.51 Y145.1 E214.439
G1 X142.5 Y143.7 E214.497
G1 X143.7 Y142.5 E214.553
G1 X145.1 Y141.51 E214.61
G1 X146.65 Y140.79 E214.667
G1 X148.3 Y140.35 E214.724
G1 X150 Y140.2 E214.781
G1 X151.7 Y140.35 E214.837
G1 X153.35 Y140.79 E214.894
G1 X154.9 Y141.51 E214.951
G1 X156.3 Y142.5 E215.008
G1 X157.5 Y143.7 E215.064
G1 X158.49 Y145.1 E215.122
G1 X159.21 Y146.65 E215.178
G1 X159.65 Y148.3 E215.235
G1 X159.8 Y150 E215.292
G1 X159.65 Y151.7 E215.349
G1 X159.21 Y153.35 E215.406
G1 X158.49 Y154.9 E215.462
G1 X157.5 Y156.3 E215.519
G1 X156.3 Y157.5 E215.576
G1 X154.9 Y158.49 E215.633
G1 X153.35 Y159.21 E215.689
G1 X151.7 Y159.65 E215.746
G1 X150.04 Y159.8 E215.802
G1 X150 Y159.8
G1 X148.3 Y159.65
G1 X147.05 Y159.32
G1 X150 Y159 F7200
G1 X147.16 Y158.31
; TYPE:FILL
G1 X149.95 Y155.52 E215.933 F600
G1 X152.73 Y152.73 E216.064
G1 X155.52 Y149.95 E216.195
G1 X158.31 Y147.16 E216.326
G1 X158.23 Y146.91 F7200
G1 X155.66 Y144.34 E216.447 F600
G1 X153.08 Y141.77 E216.568
G1 X152.55 Y141.61 F7200
G1 X149.81 Y144.34 E216.697 F600
G1 X147.08 Y147.08 E216.825
G1 X144.34 Y149.81 E216.954
G1 X141.61 Y152.55 E217.083
G1 X141.77 Y153.08 F7200
G1 X144.34 Y155.66 E217.204 F600
G1 X146.91 Y158.23 E217.324
G1 X156.19 Y156.19 F7200
G1 X153.1 Y153.1 E217.47 F600
G1 X150 Y150 E217.616
G1 X146.9 Y146.9 E217.762
G1 X143.8 Y143.8 E217.907
; Layer Change GCode
; LAYER:14
; LAYER_HEIGHT:0.2
; TYPE:FILL
G1 X146.9 Y151.4 Z2.9 F7200
G1 X150 Y159 Z3
; TYPE:WALL-INNER
G1 X148.44 Y158.86 E217.959 F600
G1 X146.92 Y158.45 E218.012
G1 X145.51 Y157.79 E218.064
G1 X144.22 Y156.89 E218.116
G1 X143.11 Y155.78 E218.168
G1 X142.21 Y154.49 E218.22
G1 X141.55 Y153.08 E218.272
G1 X141.14 Y151.56 E218.325
G1 X141 Y150 E218.377
G1 X141.14 Y148.44 E218.429
G1 X141.55 Y146.92 E218.481
G1 X142.21 Y145.5 E218.533
G1 X143.11 Y144.22 E218.585
G1 X144.22 Y143.11 E218.637
G1 X145.51 Y142.21 E218.69
G1 X146.92 Y141.55 E218.742
G1 X148.44 Y141.14 E218.794
G1 X150 Y141 E218.846
G1 X151.56 Y141.14 E218.898
G1 X153.08 Y141.55 E218.951
G1 X154.49 Y142.21 E219.002
G1 X155.78 Y143.11 E219.055
G1 X156.89 Y144.22 E219.107
G1 X157.79 Y145.51 E219.159
G1 X158.45 Y146.92 E219.211
G1 X158.86 Y148.44 E219.263
G1 X159 Y150 E219.316
G1 X158.86 Y151.56 E219.368
G1 X158.45 Y153.08 E219.42
G1 X157.79 Y154.49 E219.472
G1 X156.89 Y155.78 E219.524
G1 X155.78 Y156.89 E219.576
G1 X154.49 Y157.79 E219.629
G1 X153.08 Y158.45 E219.681
G1 X151.56 Y158.86 E219.733
G1 X150.04 Y158.99 E219.784
G1 X150 Y159
G1 Y159.4 F7200
G1 X148.36 Y159.25 E219.838 F600
G1 X146.79 Y158.83 E219.893
G1 X145.3 Y158.14 E219.947
G1 X143.96 Y157.2 E220.002
G1 X142.8 Y156.04 E220.056
G1 X141.86 Y154.7 E220.11
G1 X141.17 Y153.21 E220.165
G1 X140.75 Y151.64 E220.219
G1 X140.6 Y150 E220.274
G1 X140.75 Y148.36 E220.329
G1 X141.17 Y146.79 E220.383
G1 X141.86 Y145.3 E220.438
G1 X142.8 Y143.96 E220.492
G1 X143.96 Y142.8 E220.546
G1 X145.3 Y141.86 E220.601
G1 X146.79 Y141.17 E220.655
G1 X148.36 Y140.75 E220.71
G1 X150 Y140.6 E220.764
G1 X151.64 Y140.75 E220.819
G1 X153.21 Y141.17 E220.873
G1 X154.7 Y141.86 E220.928
G1 X156.04 Y142.8 E220.982
G1 X157.2 Y143.96 E221.037
G1 X158.14 Y145.3 E221.091
G1 X158.83 Y146.79 E221.146
G1 X159.25 Y148.36 E221.2
G1 X159.4 Y150 E221.255
G1 X159.25 Y151.64 E221.309
G1 X158.83 Y153.21 E221.364
G1 X158.14 Y154.7 E221.418
G1 X157.2 Y156.04 E221.473
G1 X156.04 Y157.2 E221.527
G1 X154.7 Y158.14 E221.582
G1 X153.21 Y158.83 E221.636
G1 X151.64 Y159.25 E221.69
G1 X150.04 Y159.39 E221.744
G1 X150 Y159.4
G1 Y159.8 F7200
; TYPE:WALL-OUTER
G1 X148.3 Y159.65 E221.801 F600
G1 X146.65 Y159.21 E221.857
G1 X145.1 Y158.49 E221.914
G1 X143.7 Y157.5 E221.971
G1 X142.5 Y156.3 E222.028
G1 X141.51 Y154.9 E222.085
G1 X140.79 Y153.35 E222.141
G1 X140.35 Y151.7 E222.198
G1 X140.2 Y150 E222.255
G1 X140.35 Y148.3 E222.312
G1 X140.79 Y146.65 E222.369
G1 X141.51 Y145.1 E222.425
G1 X142.5 Y143.7 E222.483
G1 X143.7 Y142.5 E222.539
G1 X145.1 Y141.51 E222.596
G1 X146.65 Y140.79 E222.653
G1 X148.3 Y140.35 E222.71
G1 X150 Y140.2 E222.766
G1 X151.7 Y140.35 E222.823
G1 X153.35 Y140.79 E222.88
G1 X154.9 Y141.51 E222.937
G1 X156.3 Y142.5 E222.994
G1 X157.5 Y143.7 E223.05
G1 X158.49 Y145.1 E223.107
G1 X159.21 Y146.65 E223.164
G1 X159.65 Y148.3 E223.221
G1 X159.8 Y150 E223.278
G1 X159.65 Y151.7 E223.335
G1 X159.21 Y153.35 E223.391
G1 X158.49 Y154.9 E223.448
G1 X157.5 Y156.3 E223.505
G1 X156.3 Y157.5 E223.562
G1 X154.9 Y158.49 E223.619
G1 X153.35 Y159.21 E223.675
G1 X151.7 Y159.65 E223.732
G1 X150.04 Y159.8 E223.788
G1 X150 Y159.8
G1 X148.3 Y159.65
G1 X147.05 Y159.32
G1 X150 Y159 F7200
G1 X147.16 Y158.31
; TYPE:FILL
G1 X149.95 Y155.52 E223.919 F600
G1 X152.73 Y152.73 E224.05
G1 X155.52 Y149.95 E224.181
G1 X158.31 Y147.16 E224.312
G1 X158.23 Y146.91 F7200
G1 X155.66 Y144.34 E224.433 F600
G1 X153.08 Y141.77 E224.554
G1 X152.55 Y141.61 F7200
G1 X149.81 Y144.34 E224.683 F600
G1 X147.08 Y147.08 E224.811
G1 X144.34 Y149.81 E224.94
G1 X141.61 Y152.55 E225.068
G1 X141.77 Y153.08 F7200
G1 X144.34 Y155.66 E225.189 F600
G1 X146.91 Y158.23 E225.31
G1 X156.19 Y156.19 F7200
G1 X153.1 Y153.1 E225.456 F600
G1 X150 Y150 E225.602
G1 X146.9 Y146.9 E225.748
G1 X143.8 Y143.8 E225.893
; Layer Change GCode
; LAYER:15
; LAYER_HEIGHT:0.2
; TYPE:FILL
G1 X146.9 Y151.4 Z3.1 F7200
G1 X150 Y159 Z3.2
; TYPE:WALL-INNER
G1 X148.44 Y158.86 E225.945 F600
G1 X146.92 Y158.45 E225.998
G1 X145.51 Y157.79 E226.05
G1 X144.22 Y156.89 E226.102
G1 X143.11 Y155.78 E226.154
G1 X142.21 Y154.49 E226.206
G1 X141.55 Y153.08 E226.258
G1 X141.14 Y151.56 E226.311
G1 X141 Y150 E226.363
G1 X141.14 Y148.44 E226.415
G1 X141.55 Y146.92 E226.467
G1 X142.21 Y145.5 E226.519
G1 X143.11 Y144.22 E226.571
G1 X144.22 Y143.11 E226.623
G1 X145.51 Y142.21 E226.676
G1 X146.92 Y141.55 E226.728
G1 X148.44 Y141.14 E226.78
G1 X150 Y141 E226.832
G1 X151.56 Y141.14 E226.884
G1 X153.08 Y141.55 E226.936
G1 X154.49 Y142.21 E226.988
G1 X155.78 Y143.11 E227.041
G1 X156.89 Y144.22 E227.093
G1 X157.79 Y145.51 E227.145
G1 X158.45 Y146.92 E227.197
G1 X158.86 Y148.44 E227.249
G1 X159 Y150 E227.301
G1 X158.86 Y151.56 E227.354
G1 X158.45 Y153.08 E227.406
G1 X157.79 Y154.49 E227.458
G1 X156.89 Y155.78 E227.51
G1 X155.78 Y156.89 E227.562
G1 X154.49 Y157.79 E227.615
G1 X153.08 Y158.45 E227.666
G1 X151.56 Y158.86 E227.719
G1 X150.04 Y158.99 E227.77
G1 X150 Y159
G1 Y159.4 F7200
G1 X148.36 Y159.25 E227.824 F600
G1 X146.79 Y158.83 E227.878
G1 X145.3 Y158.14 E227.933
G1 X143.96 Y157.2 E227.988
G1 X142.8 Y156.04 E228.042
G1 X141.86 Y154.7 E228.096
G1 X141.17 Y153.21 E228.151
G1 X140.75 Y151.64 E228.205
G1 X140.6 Y150 E228.26
G1 X140.75 Y148.36 E228.315
G1 X141.17 Y146.79 E228.369
G1 X141.86 Y145.3 E228.423
G1 X142.8 Y143.96 E228.478
G1 X143.96 Y142.8 E228.532
G1 X145.3 Y141.86 E228.587
G1 X146.79 Y141.17 E228.641
G1 X148.36 Y140.75 E228.696
G1 X150 Y140.6 E228.75
G1 X151.64 Y140.75 E228.805
G1 X153.21 Y141.17 E228.859
G1 X154.7 Y141.86 E228.914
G1 X156.04 Y142.8 E228.968
G1 X157.2 Y143.96 E229.023
G1 X158.14 Y145.3 E229.077
G1 X158.83 Y146.79 E229.132
G1 X159.25 Y148.36 E229.186
G1 X159.4 Y150 E229.241
G1 X159.25 Y151.64 E229.295
G1 X158.83 Y153.21 E229.35
G1 X158.14 Y154.7 E229.404
G1 X157.2 Y156.04 E229.459
G1 X156.04 Y157.2 E229.513
G1 X154.7 Y158.14 E229.567
G1 X153.21 Y158.83 E229.622
G1 X151.64 Y159.25 E229.676
G1 X150.04 Y159.39 E229.73
G1 X150 Y159.4
G1 Y159.8 F7200
; TYPE:WALL-OUTER
G1 X148.3 Y159.65 E229.786 F600
G1 X146.65 Y159.21 E229.843
G1 X145.1 Y158.49 E229.9
G1 X143.7 Y157.5 E229.957
G1 X142.5 Y156.3 E230.014
G1 X141.51 Y154.9 E230.071
G1 X140.79 Y153.35 E230.127
G1 X140.35 Y151.7 E230.184
G1 X140.2 Y150 E230.241
G1 X140.35 Y148.3 E230.298
G1 X140.79 Y146.65 E230.355
G1 X141.51 Y145.1 E230.411
G1 X142.5 Y143.7 E230.468
G1 X143.7 Y142.5 E230.525
G1 X145.1 Y141.51 E230.582
G1 X146.65 Y140.79 E230.639
G1 X148.3 Y140.35 E230.696
G1 X150 Y140.2 E230.752
G1 X151.7 Y140.35 E230.809
G1 X153.35 Y140.79 E230.866
G1 X154.9 Y141.51 E230.923
G1 X156.3 Y142.5 E230.98
G1 X157.5 Y143.7 E231.036
G1 X158.49 Y145.1 E231.093
G1 X159.21 Y146.65 E231.15
G1 X159.65 Y148.3 E231.207
G1 X159.8 Y150 E231.264
G1 X159.65 Y151.7 E231.32
G1 X159.21 Y153.35 E231.377
G1 X158.49 Y154.9 E231.434
G1 X157.5 Y156.3 E231.491
G1 X156.3 Y157.5 E231.548
G1 X154.9 Y158.49 E231.605
G1 X153.35 Y159.21 E231.661
G1 X151.7 Y159.65 E231.718
G1 X150.04 Y159.8 E231.774
G1 X150 Y159.8
G1 X148.3 Y159.65
G1 X147.05 Y159.32
G1 X150 Y159 F7200
G1 X147.16 Y158.31
; TYPE:FILL
G1 X149.95 Y155.52 E231.905 F600
G1 X152.73 Y152.73 E232.036
G1 X155.52 Y149.95 E232.167
G1 X158.31 Y147.16 E232.298
G1 X158.23 Y146.91 F7200
G1 X155.66 Y144.34 E232.419 F600
G1 X153.08 Y141.77 E232.54
G1 X152.55 Y141.61 F7200
G1 X149.81 Y144.34 E232.669 F600
G1 X147.08 Y147.08 E232.797
G1 X144.34 Y149.81 E232.926
G1 X141.61 Y152.55 E233.054
G1 X141.77 Y153.08 F7200
G1 X144.34 Y155.66 E233.175 F600
G1 X146.91 Y158.23 E233.296
G1 X156.19 Y156.19 F7200
G1 X153.1 Y153.1 E233.442 F600
G1 X150 Y150 E233.588
G1 X146.9 Y146.9 E233.733
G1 X143.8 Y143.8 E233.879
; Layer Change GCode
; LAYER:16
; LAYER_HEIGHT:0.2
; TYPE:FILL
G1 X146.9 Y151.4 Z3.3 F7200
G1 X150 Y159 Z3.4
; TYPE:WALL-INNER
G1 X148.44 Y158.86 E233.931 F600
G1 X146.92 Y158.45 E233.984
G1 X145.51 Y157.79 E234.035
G1 X144.22 Y156.89 E234.088
G1 X143.11 Y155.78 E234.14
G1 X142.21 Y154.49 E234.192
G1 X141.55 Y153.08 E234.244
G1 X141.14 Y151.56 E234.296
G1 X141 Y150 E234.349
G1 X141.14 Y148.44 E234.401
G1 X141.55 Y146.92 E234.453
G1 X142.21 Y145.5 E234.505
G1 X143.11 Y144.22 E234.557
G1 X144.22 Y143.11 E234.609
G1 X145.51 Y142.21 E234.662
G1 X146.92 Y141.55 E234.714
G1 X148.44 Y141.14 E234.766
G1 X150 Y141 E234.818
G1 X151.56 Y141.14 E234.87
G1 X153.08 Y141.55 E234.922
G1 X154.49 Y142.21 E234.974
G1 X155.78 Y143.11 E235.027
G1 X156.89 Y144.22 E235.079
G1 X157.79 Y145.51 E235.131
G1 X158.45 Y146.92 E235.183
G1 X158.86 Y148.45 E235.236
G1 X159 Y150 E235.287
G1 X158.86 Y151.56 E235.339
G1 X158.45 Y153.08 E235.392
G1 X157.79 Y154.49 E235.444
G1 X156.89 Y155.78 E235.496
G1 X155.78 Y156.89 E235.548
G1 X154.49 Y157.79 E235.6
G1 X153.08 Y158.45 E235.652
G1 X151.56 Y158.86 E235.705
G1 X150.04 Y158.99 E235.756
G1 X150 Y159
G1 Y159.4 F7200
G1 X148.36 Y159.25 E235.81 F600
G1 X146.79 Y158.83 E235.864
G1 X145.3 Y158.14 E235.919
G1 X143.96 Y157.2 E235.973
G1 X142.8 Y156.04 E236.028
G1 X141.86 Y154.7 E236.082
G1 X141.17 Y153.21 E236.137
G1 X140.75 Y151.64 E236.191
G1 X140.6 Y150 E236.246
G1 X140.75 Y148.36 E236.3
G1 X141.17 Y146.79 E236.355
G1 X141.86 Y145.3 E236.409
G1 X142.8 Y143.96 E236.464
G1 X143.96 Y142.8 E236.518
G1 X145.3 Y141.86 E236.573
G1 X146.79 Y141.17 E236.627
G1 X148.36 Y140.75 E236.682
G1 X150 Y140.6 E236.736
G1 X151.64 Y140.75 E236.791
G1 X153.21 Y141.17 E236.845
G1 X154.7 Y141.86 E236.9
G1 X156.04 Y142.8 E236.954
G1 X157.2 Y143.96 E237.009
G1 X158.14 Y145.3 E237.063
G1 X158.83 Y146.78 E237.118
G1 X159.26 Y148.38 E237.173
G1 X159.4 Y150 E237.227
G1 X159.25 Y151.64 E237.281
G1 X158.83 Y153.21 E237.335
G1 X158.14 Y154.7 E237.39
G1 X157.2 Y156.04 E237.444
G1 X156.04 Y157.2 E237.499
G1 X154.7 Y158.14 E237.553
G1 X153.21 Y158.83 E237.608
G1 X151.64 Y159.25 E237.662
G1 X150.04 Y159.39 E237.716
G1 X150 Y159.4
G1 Y159.8 F7200
; TYPE:WALL-OUTER
G1 X148.3 Y159.65 E237.772 F600
G1 X146.65 Y159.21 E237.829
G1 X145.1 Y158.49 E237.886
G1 X143.7 Y157.5 E237.943
G1 X142.5 Y156.3 E238
G1 X141.51 Y154.9 E238.057
G1 X140.79 Y153.35 E238.113
G1 X140.35 Y151.7 E238.17
G1 X140.2 Y150 E238.227
G1 X140.35 Y148.3 E238.284
G1 X140.79 Y146.65 E238.341
G1 X141.51 Y145.1 E238.397
G1 X142.5 Y143.7 E238.454
G1 X143.7 Y142.5 E238.511
G1 X145.1 Y141.51 E238.568
G1 X146.65 Y140.79 E238.625
G1 X148.3 Y140.35 E238.681
G1 X150 Y140.2 E238.738
G1 X151.7 Y140.35 E238.795
G1 X153.35 Y140.79 E238.852
G1 X154.9 Y141.51 E238.909
G1 X156.3 Y142.5 E238.966
G1 X157.5 Y143.7 E239.022
G1 X158.49 Y145.1 E239.079
G1 X159.21 Y146.65 E239.136
G1 X159.65 Y148.31 E239.193
G1 X159.8 Y150 E239.25
G1 X159.65 Y151.7 E239.306
G1 X159.21 Y153.35 E239.363
G1 X158.49 Y154.9 E239.42
G1 X157.5 Y156.3 E239.477
G1 X156.3 Y157.5 E239.533
G1 X154.9 Y158.49 E239.591
G1 X153.35 Y159.21 E239.647
G1 X151.7 Y159.65 E239.704
G1 X150.04 Y159.8 E239.76
G1 X150 Y159.8
G1 X148.3 Y159.65
G1 X147.05 Y159.32
G1 X150 Y159 F7200
G1 X147.16 Y158.31
; TYPE:FILL
G1 X149.95 Y155.52 E239.891 F600
G1 X152.73 Y152.74 E240.022
G1 X155.52 Y149.95 E240.153
G1 X158.31 Y147.16 E240.284
G1 X158.23 Y146.91 F7200
G1 X155.66 Y144.34 E240.405 F600
G1 X153.08 Y141.77 E240.526
G1 X152.55 Y141.61 F7200
G1 X149.81 Y144.34 E240.654 F600
G1 X147.08 Y147.08 E240.783
G1 X144.34 Y149.81 E240.912
G1 X141.61 Y152.55 E241.04
G1 X141.77 Y153.08 F7200
G1 X144.34 Y155.66 E241.161 F600
G1 X146.91 Y158.23 E241.282
G1 X156.19 Y156.19 F7200
G1 X153.1 Y153.1 E241.428 F600
G1 X150 Y150 E241.574
G1 X146.9 Y146.9 E241.719
G1 X143.8 Y143.8 E241.865
; Layer Change GCode
; LAYER:17
; LAYER_HEIGHT:0.2
; TYPE:FILL
G1 X146.9 Y151.4 Z3.5 F7200
G1 X150 Y159 Z3.6
; TYPE:WALL-INNER
G1 X148.44 Y158.86 E241.917 F600
G1 X146.92 Y158.45 E241.969
G1 X145.51 Y157.79 E242.021
G1 X144.22 Y156.89 E242.074
G1 X143.11 Y155.78 E242.126
G1 X142.21 Y154.49 E242.178
G1 X141.55 Y153.08 E242.23
G1 X141.14 Y151.56 E242.282
G1 X141 Y150 E242.334
G1 X141.14 Y148.44 E242.386
G1 X141.55 Y146.92 E242.439
G1 X142.21 Y145.5 E242.491
G1 X143.11 Y144.22 E242.543
G1 X144.22 Y143.11 E242.595
G1 X145.51 Y142.21 E242.647
G1 X146.92 Y141.55 E242.699
G1 X148.44 Y141.14 E242.752
G1 X150 Y141 E242.804
G1 X151.56 Y141.14 E242.856
G1 X153.08 Y141.55 E242.908
G1 X154.49 Y142.21 E242.96
G1 X155.78 Y143.11 E243.012
G1 X156.89 Y144.22 E243.065
G1 X157.79 Y145.51 E243.117
G1 X158.45 Y146.92 E243.169
G1 X158.86 Y148.44 E243.221
G1 X159 Y150 E243.273
G1 X158.86 Y151.56 E243.325
G1 X158.45 Y153.08 E243.378
G1 X157.79 Y154.49 E243.43
G1 X156.89 Y155.78 E243.482
G1 X155.78 Y156.89 E243.534
G1 X154.49 Y157.79 E243.586
G1 X153.08 Y158.45 E243.638
G1 X151.56 Y158.86 E243.691
G1 X150.04 Y158.99 E243.741
G1 X150 Y159
G1 Y159.4 F7200
G1 X148.36 Y159.25 E243.796 F600
G1 X146.79 Y158.83 E243.85
G1 X145.3 Y158.14 E243.905
G1 X143.96 Y157.2 E243.959
G1 X142.8 Y156.04 E244.014
G1 X141.86 Y154.7 E244.068
G1 X141.17 Y153.21 E244.123
G1 X140.75 Y151.64 E244.177
G1 X140.6 Y150 E244.232
G1 X140.75 Y148.36 E244.286
G1 X141.17 Y146.79 E244.341
G1 X141.86 Y145.3 E244.395
G1 X142.8 Y143.96 E244.45
G1 X143.96 Y142.8 E244.504
G1 X145.3 Y141.86 E244.559
G1 X146.79 Y141.17 E244.613
G1 X148.36 Y140.75 E244.667
G1 X150 Y140.6 E244.722
G1 X151.64 Y140.75 E244.777
G1 X153.21 Y141.17 E244.831
G1 X154.7 Y141.86 E244.886
G1 X156.04 Y142.8 E244.94
G1 X157.2 Y143.96 E244.994
G1 X158.14 Y145.3 E245.049
G1 X158.83 Y146.79 E245.103
G1 X159.25 Y148.36 E245.158
G1 X159.4 Y150 E245.212
G1 X159.25 Y151.64 E245.267
G1 X158.83 Y153.21 E245.321
G1 X158.14 Y154.7 E245.376
G1 X157.2 Y156.04 E245.43
G1 X156.04 Y157.2 E245.485
G1 X154.7 Y158.14 E245.539
G1 X153.21 Y158.83 E245.594
G1 X151.64 Y159.25 E245.648
G1 X150.04 Y159.39 E245.701
G1 X150 Y159.4
G1 Y159.8 F7200
; TYPE:WALL-OUTER
G1 X148.3 Y159.65 E245.758 F600
G1 X146.65 Y159.21 E245.815
G1 X145.1 Y158.49 E245.872
G1 X143.7 Y157.5 E245.929
G1 X142.5 Y156.3 E245.985
G1 X141.51 Y154.9 E246.042
G1 X140.79 Y153.35 E246.099
G1 X140.35 Y151.7 E246.156
G1 X140.2 Y150 E246.213
G1 X140.35 Y148.3 E246.27
G1 X140.79 Y146.65 E246.326
G1 X141.51 Y145.1 E246.383
G1 X142.5 Y143.7 E246.44
G1 X143.7 Y142.5 E246.497
G1 X145.1 Y141.51 E246.554
G1 X146.65 Y140.79 E246.61
G1 X148.3 Y140.35 E246.667
G1 X150 Y140.2 E246.724
G1 X151.7 Y140.35 E246.781
G1 X153.35 Y140.79 E246.838
G1 X154.9 Y141.51 E246.894
G1 X156.3 Y142.5 E246.951
G1 X157.5 Y143.7 E247.008
G1 X158.49 Y145.1 E247.065
G1 X159.21 Y146.65 E247.122
G1 X159.65 Y148.3 E247.179
G1 X159.8 Y150 E247.235
G1 X159.65 Y151.7 E247.292
G1 X159.21 Y153.35 E247.349
G1 X158.49 Y154.9 E247.406
G1 X157.5 Y156.3 E247.463
G1 X156.3 Y157.5 E247.519
G1 X154.9 Y158.49 E247.576
G1 X153.35 Y159.21 E247.633
G1 X151.7 Y159.65 E247.69
G1 X150.04 Y159.8 E247.745
G1 X150 Y159.8
G1 X148.3 Y159.65
G1 X147.05 Y159.32
G1 X150 Y159 F7200
G1 X147.16 Y158.31
; TYPE:FILL
G1 X149.95 Y155.52 E247.877 F600
G1 X152.73 Y152.73 E248.008
G1 X155.52 Y149.95 E248.139
G1 X158.31 Y147.16 E248.27
G1 X158.23 Y146.91 F7200
G1 X155.66 Y144.34 E248.391 F600
G1 X153.08 Y141.77 E248.512
G1 X152.55 Y141.61 F7200
G1 X149.81 Y144.34 E248.64 F600
G1 X147.08 Y147.08 E248.769
G1 X144.34 Y149.81 E248.898
G1 X141.61 Y152.55 E249.026
G1 X141.77 Y153.08 F7200
G1 X144.34 Y155.66 E249.147 F600
G1 X146.91 Y158.23 E249.268
G1 X156.19 Y156.19 F7200
G1 X153.1 Y153.1 E249.414 F600
G1 X150 Y150 E249.559
G1 X146.9 Y146.9 E249.705
G1 X143.8 Y143.8 E249.851
; Layer Change GCode
; LAYER:18
; LAYER_HEIGHT:0.2
; TYPE:FILL
G1 X146.9 Y151.4 Z3.7 F7200
G1 X150 Y159 Z3.8
; TYPE:WALL-INNER
G1 X148.44 Y158.86 E249.903 F600
G1 X146.92 Y158.45 E249.955
G1 X145.51 Y157.79 E250.007
G1 X144.22 Y156.89 E250.06
G1 X143.11 Y155.78 E250.112
G1 X142.21 Y154.49 E250.164
G1 X141.55 Y153.08 E250.216
G1 X141.14 Y151.56 E250.268
G1 X141 Y150 E250.32
G1 X141.14 Y148.44 E250.372
G1 X141.55 Y146.92 E250.425
G1 X142.21 Y145.5 E250.477
G1 X143.11 Y144.22 E250.529
G1 X144.22 Y143.11 E250.581
G1 X145.51 Y142.21 E250.633
G1 X146.92 Y141.55 E250.685
G1 X148.44 Y141.14 E250.738
G1 X150 Y141 E250.79
G1 X151.56 Y141.14 E250.842
G1 X153.08 Y141.55 E250.894
G1 X154.49 Y142.21 E250.946
G1 X155.78 Y143.11 E250.998
G1 X156.89 Y144.22 E251.05
G1 X157.79 Y145.51 E251.103
G1 X158.45 Y146.92 E251.155
G1 X158.86 Y148.44 E251.207
G1 X159 Y150 E251.259
G1 X158.86 Y151.56 E251.311
G1 X158.45 Y153.08 E251.364
G1 X157.79 Y154.49 E251.415
G1 X156.89 Y155.78 E251.468
G1 X155.78 Y156.89 E251.52
G1 X154.49 Y157.79 E251.572
G1 X153.08 Y158.45 E251.624
G1 X151.56 Y158.86 E251.676
G1 X150.04 Y158.99 E251.727
G1 X150 Y159
G1 Y159.4 F7200
G1 X148.36 Y159.25 E251.782 F600
G1 X146.79 Y158.83 E251.836
G1 X145.3 Y158.14 E251.891
G1 X143.96 Y157.2 E251.945
G1 X142.8 Y156.04 E252
G1 X141.86 Y154.7 E252.054
G1 X141.17 Y153.21 E252.109
G1 X140.75 Y151.64 E252.163
G1 X140.6 Y150 E252.218
G1 X140.75 Y148.36 E252.272
G1 X141.17 Y146.79 E252.327
G1 X141.86 Y145.3 E252.381
G1 X142.8 Y143.96 E252.436
G1 X143.96 Y142.8 E252.49
G1 X145.3 Y141.86 E252.544
G1 X146.79 Y141.17 E252.599
G1 X148.36 Y140.75 E252.653
G1 X150 Y140.6 E252.708
G1 X151.64 Y140.75 E252.763
G1 X153.21 Y141.17 E252.817
G1 X154.7 Y141.86 E252.871
G1 X156.04 Y142.8 E252.926
G1 X157.2 Y143.96 E252.98
G1 X158.14 Y145.3 E253.035
G1 X158.83 Y146.79 E253.089
G1 X159.25 Y148.36 E253.144
G1 X159.4 Y150 E253.198
G1 X159.25 Y151.64 E253.253
G1 X158.83 Y153.21 E253.307
G1 X158.14 Y154.7 E253.362
G1 X157.2 Y156.04 E253.416
G1 X156.04 Y157.2 E253.471
G1 X154.7 Y158.14 E253.525
G1 X153.21 Y158.83 E253.58
G1 X151.64 Y159.25 E253.634
G1 X150.04 Y159.39 E253.687
G1 X150 Y159.4
G1 Y159.8 F7200
; TYPE:WALL-OUTER
G1 X148.3 Y159.65 E253.744 F600
G1 X146.65 Y159.21 E253.801
G1 X145.1 Y158.49 E253.858
