; Generated with MatterSlice 2.22.04
; filamentDiameter = 1.75
; extrusionWidth = 0.4
; firstLayerExtrusionWidth = 0.4
; layerThickness = 0.15
; firstLayerThickness = 0.2
; automatic settings before start_gcode
G21 ; set units to millimeters
M107 ; fan off
T0 ; set the active extruder to 0
; settings from start_gcode
M104 S200
M140 S40
G28 W       ; Home without mesh level
G0 Z5 F5000
M117 Heating
M109 S200
M190 S40
G80         ; Probe
; Priming Line
G0 Y-3 F10800
G92 E0.0
G1 X60 E9 F1000
G1 X100 E12.5
G92 E0.0
M117 Printing
; automatic settings after start_gcode
T0 ; set the active extruder to 0
G90 ; use absolute coordinates
G92 E0 ; reset the expected extruder position
M82 ; use absolute distance for extrusion
; Layer count: 53
; Layer Change GCode
; LAYER:0
; LAYER_HEIGHT:0.2
; TYPE:FILL
M400
M107
G0 X122.86 Y37.52 Z0.8 F10800
; TYPE:SKIRT
G0 Z0.2
G0 F2100
G1 X124.84 Y38.03 E0.064 F1200
G1 X126.68 Y38.86 E0.128
G1 X128.35 Y40 E0.192
G1 X129.81 Y41.41 E0.256
G1 X130.99 Y43.06 E0.32
G1 X131.87 Y44.88 E0.384
G1 X132.42 Y46.84 E0.449
G1 X132.62 Y48.84 E0.512
G1 X132.48 Y50.86 E0.576
G1 X131.97 Y52.84 E0.641
G1 X131.14 Y54.68 E0.704
G1 X130 Y56.35 E0.768
G1 X128.59 Y57.81 E0.833
G1 X126.94 Y58.99 E0.897
G1 X125.12 Y59.87 E0.961
G1 X123.16 Y60.42 E1.025
G1 X121.16 Y60.62 E1.089
G1 X119.14 Y60.48 E1.153
G1 X117.16 Y59.97 E1.217
G1 X115.32 Y59.14 E1.281
G1 X113.65 Y58 E1.345
G1 X112.19 Y56.59 E1.409
G1 X111.01 Y54.94 E1.473
G1 X110.13 Y53.12 E1.537
G1 X109.58 Y51.16 E1.601
G1 X109.38 Y49.16 E1.665
G1 X109.52 Y47.14 E1.729
G1 X110.03 Y45.17 E1.793
G1 X110.86 Y43.32 E1.857
G1 X112 Y41.64 E1.921
G1 X113.41 Y40.19 E1.985
G1 X115.06 Y39.01 E2.049
G1 X116.88 Y38.13 E2.113
G1 X118.84 Y37.58 E2.177
G1 X120.84 Y37.38 E2.241
G1 X122.86 Y37.52 E2.305
G0 X122.8 Y37.92 F10800
G1 X124.7 Y38.41 E2.367 F1200
G1 X126.48 Y39.21 E2.429
G1 X128.1 Y40.31 E2.491
G1 X129.5 Y41.67 E2.552
G1 X130.65 Y43.27 E2.614
G1 X131.5 Y45.03 E2.676
G1 X132.03 Y46.91 E2.738
G1 X132.22 Y48.85 E2.8
G1 X132.08 Y50.8 E2.861
G1 X131.59 Y52.7 E2.923
G1 X130.79 Y54.48 E2.985
G1 X129.69 Y56.1 E3.047
G1 X128.33 Y57.5 E3.109
G1 X126.73 Y58.65 E3.171
G1 X124.97 Y59.5 E3.232
G1 X123.09 Y60.03 E3.294
G1 X121.15 Y60.22 E3.356
G1 X119.2 Y60.08 E3.418
G1 X117.3 Y59.59 E3.48
G1 X115.52 Y58.79 E3.541
G1 X113.9 Y57.69 E3.603
G1 X112.5 Y56.33 E3.665
G1 X111.35 Y54.73 E3.727
G1 X110.5 Y52.97 E3.789
G1 X109.97 Y51.09 E3.851
G1 X109.78 Y49.15 E3.912
G1 X109.92 Y47.2 E3.974
G1 X110.4 Y45.3 E4.036
G1 X111.21 Y43.51 E4.098
G1 X112.31 Y41.9 E4.16
G1 X113.67 Y40.5 E4.221
G1 X115.27 Y39.35 E4.283
G1 X117.03 Y38.5 E4.345
G1 X118.91 Y37.97 E4.407
G1 X120.85 Y37.78 E4.469
G1 X122.8 Y37.92 E4.53
G0 X122.73 Y38.32 F10800
G1 X124.57 Y38.78 E4.59 F1200
G1 X126.29 Y39.56 E4.65
G1 X127.85 Y40.62 E4.709
G1 X129.2 Y41.94 E4.769
G1 X130.3 Y43.47 E4.829
G1 X131.12 Y45.17 E4.888
G1 X131.63 Y46.98 E4.948
G1 X131.82 Y48.85 E5.007
G1 X131.68 Y50.73 E5.067
G1 X131.22 Y52.57 E5.127
G1 X130.44 Y54.29 E5.186
G1 X129.38 Y55.85 E5.246
G1 X128.06 Y57.2 E5.305
G1 X126.53 Y58.3 E5.365
G1 X124.83 Y59.12 E5.425
G1 X123.01 Y59.63 E5.484
G1 X121.14 Y59.82 E5.544
G1 X119.27 Y59.68 E5.603
G1 X117.43 Y59.22 E5.663
G1 X115.71 Y58.44 E5.723
G1 X114.15 Y57.38 E5.782
G1 X112.8 Y56.06 E5.842
G1 X111.7 Y54.53 E5.902
G1 X110.88 Y52.83 E5.961
G1 X110.37 Y51.01 E6.021
G1 X110.18 Y49.14 E6.08
G1 X110.32 Y47.27 E6.14
G1 X110.78 Y45.43 E6.199
G1 X111.56 Y43.71 E6.259
G1 X112.62 Y42.15 E6.319
G1 X113.94 Y40.8 E6.378
G1 X115.47 Y39.7 E6.438
G1 X117.17 Y38.88 E6.498
G1 X118.99 Y38.37 E6.557
G1 X120.86 Y38.18 E6.617
G1 X122.73 Y38.32 E6.676
G0 X122.67 Y38.71 F10800
G1 X124.44 Y39.16 E6.734 F1200
G1 X126.09 Y39.91 E6.791
G1 X127.59 Y40.93 E6.848
G1 X128.9 Y42.2 E6.906
G1 X129.96 Y43.68 E6.963
G1 X130.74 Y45.31 E7.021
G1 X131.24 Y47.06 E7.078
G1 X131.42 Y48.86 E7.135
G1 X131.29 Y50.67 E7.193
G1 X130.84 Y52.44 E7.25
G1 X130.09 Y54.09 E7.308
G1 X129.07 Y55.59 E7.365
G1 X127.8 Y56.9 E7.422
G1 X126.32 Y57.96 E7.48
G1 X124.69 Y58.74 E7.537
G1 X122.94 Y59.24 E7.595
G1 X121.14 Y59.42 E7.652
G1 X119.33 Y59.29 E7.709
G1 X117.56 Y58.84 E7.767
G1 X115.91 Y58.09 E7.824
G1 X114.41 Y57.07 E7.881
G1 X113.1 Y55.8 E7.939
G1 X112.04 Y54.32 E7.996
G1 X111.26 Y52.69 E8.054
G1 X110.76 Y50.94 E8.111
G1 X110.58 Y49.14 E8.168
G1 X110.71 Y47.33 E8.226
G1 X111.16 Y45.56 E8.283
G1 X111.91 Y43.91 E8.341
G1 X112.93 Y42.41 E8.398
G1 X114.2 Y41.1 E8.455
G1 X115.68 Y40.04 E8.513
G1 X117.31 Y39.26 E8.57
G1 X119.06 Y38.76 E8.628
G1 X120.86 Y38.58 E8.685
G1 X122.67 Y38.71 E8.742
G0 X122.61 Y39.11 F10800
G1 X124.31 Y39.54 E8.798 F1200
G1 X125.89 Y40.26 E8.853
G1 X127.34 Y41.24 E8.908
G1 X128.59 Y42.46 E8.963
G1 X129.61 Y43.88 E9.018
G1 X130.37 Y45.45 E9.074
G1 X130.84 Y47.13 E9.129
G1 X131.02 Y48.86 E9.184
G1 X130.89 Y50.61 E9.239
G1 X130.46 Y52.31 E9.294
G1 X129.74 Y53.89 E9.349
G1 X128.76 Y55.34 E9.405
G1 X127.54 Y56.59 E9.46
G1 X126.12 Y57.61 E9.515
G1 X124.55 Y58.37 E9.57
G1 X122.87 Y58.84 E9.625
G1 X121.13 Y59.02 E9.68
G1 X119.39 Y58.89 E9.736
G1 X117.69 Y58.46 E9.791
G1 X116.11 Y57.74 E9.846
G1 X114.66 Y56.76 E9.901
G1 X113.41 Y55.54 E9.956
G1 X112.39 Y54.12 E10.012
G1 X111.63 Y52.55 E10.067
G1 X111.16 Y50.87 E10.122
G1 X110.98 Y49.13 E10.177
G1 X111.11 Y47.39 E10.232
G1 X111.54 Y45.7 E10.287
G1 X112.26 Y44.1 E10.343
G1 X113.24 Y42.66 E10.398
G1 X114.46 Y41.41 E10.453
G1 X115.88 Y40.39 E10.508
G1 X117.45 Y39.63 E10.563
G1 X119.13 Y39.16 E10.619
G1 X120.87 Y38.98 E10.674
G1 X122.61 Y39.11 E10.729
G0 X122.54 Y39.51 F10800
G1 X124.17 Y39.92 E10.782 F1200
G1 X125.7 Y40.61 E10.835
G1 X127.08 Y41.55 E10.888
G1 X128.29 Y42.72 E10.941
G1 X129.27 Y44.09 E10.994
G1 X129.99 Y45.59 E11.047
G1 X130.45 Y47.21 E11.1
G1 X130.61 Y48.87 E11.153
G1 X130.49 Y50.54 E11.205
G1 X130.08 Y52.17 E11.259
G1 X129.39 Y53.7 E11.312
G1 X128.45 Y55.08 E11.365
G1 X127.28 Y56.29 E11.418
G1 X125.91 Y57.27 E11.471
G1 X124.41 Y57.99 E11.524
G1 X122.79 Y58.45 E11.577
G1 X121.13 Y58.61 E11.629
G1 X119.46 Y58.49 E11.682
G1 X117.83 Y58.08 E11.735
G1 X116.3 Y57.39 E11.788
G1 X114.92 Y56.45 E11.841
G1 X113.71 Y55.28 E11.894
G1 X112.73 Y53.91 E11.947
G1 X112.01 Y52.41 E12
G1 X111.55 Y50.79 E12.053
G1 X111.39 Y49.13 E12.106
G1 X111.51 Y47.46 E12.159
G1 X111.92 Y45.83 E12.212
G1 X112.61 Y44.3 E12.265
G1 X113.55 Y42.91 E12.318
G1 X114.72 Y41.71 E12.371
G1 X116.09 Y40.73 E12.424
G1 X117.59 Y40.01 E12.477
G1 X119.21 Y39.55 E12.53
G1 X120.87 Y39.39 E12.583
G1 X122.54 Y39.51 E12.636
G0 X122.48 Y39.9 F10800
G1 X124.04 Y40.3 E12.687 F1200
G1 X125.5 Y40.96 E12.737
G1 X126.83 Y41.86 E12.788
G1 X127.98 Y42.98 E12.839
G1 X128.92 Y44.29 E12.89
G1 X129.62 Y45.74 E12.94
G1 X130.05 Y47.28 E12.991
G1 X130.21 Y48.88 E13.042
G1 X130.1 Y50.48 E13.093
G1 X129.7 Y52.04 E13.143
G1 X129.04 Y53.5 E13.194
G1 X128.14 Y54.83 E13.245
G1 X127.02 Y55.98 E13.296
G1 X125.71 Y56.92 E13.347
G1 X124.26 Y57.62 E13.397
G1 X122.72 Y58.05 E13.448
G1 X121.12 Y58.21 E13.499
G1 X119.52 Y58.1 E13.549
G1 X117.96 Y57.7 E13.6
G1 X116.5 Y57.04 E13.651
G1 X115.17 Y56.14 E13.702
G1 X114.02 Y55.02 E13.753
G1 X113.08 Y53.71 E13.803
G1 X112.38 Y52.26 E13.854
G1 X111.95 Y50.72 E13.905
G1 X111.79 Y49.12 E13.955
G1 X111.9 Y47.52 E14.006
G1 X112.3 Y45.96 E14.057
G1 X112.96 Y44.5 E14.108
G1 X113.86 Y43.17 E14.159
G1 X114.98 Y42.02 E14.209
G1 X116.29 Y41.08 E14.26
G1 X117.74 Y40.38 E14.311
G1 X119.28 Y39.95 E14.362
G1 X120.88 Y39.79 E14.412
G1 X122.48 Y39.9 E14.463
G0 X122.41 Y40.3 F10800
G1 X123.91 Y40.68 E14.512 F1200
G1 X125.31 Y41.31 E14.56
G1 X126.58 Y42.17 E14.609
G1 X127.68 Y43.25 E14.657
G1 X128.58 Y44.5 E14.706
G1 X129.24 Y45.88 E14.754
G1 X129.66 Y47.36 E14.803
G1 X129.81 Y48.88 E14.851
G1 X129.7 Y50.41 E14.9
G1 X129.32 Y51.91 E14.949
G1 X128.69 Y53.31 E14.997
G1 X127.83 Y54.58 E15.046
G1 X126.75 Y55.68 E15.094
G1 X125.5 Y56.58 E15.143
G1 X124.12 Y57.24 E15.191
G1 X122.64 Y57.66 E15.24
G1 X121.12 Y57.81 E15.288
G1 X119.59 Y57.7 E15.337
G1 X118.09 Y57.32 E15.386
G1 X116.69 Y56.69 E15.434
G1 X115.42 Y55.83 E15.483
G1 X114.32 Y54.75 E15.531
G1 X113.42 Y53.5 E15.58
G1 X112.76 Y52.12 E15.628
G1 X112.34 Y50.64 E15.677
G1 X112.19 Y49.12 E15.725
G1 X112.3 Y47.59 E15.774
G1 X112.68 Y46.09 E15.822
G1 X113.31 Y44.69 E15.871
G1 X114.18 Y43.42 E15.92
G1 X115.25 Y42.32 E15.968
G1 X116.5 Y41.42 E16.017
G1 X117.88 Y40.76 E16.065
G1 X119.36 Y40.34 E16.114
G1 X120.88 Y40.19 E16.162
G1 X122.41 Y40.3 E16.211
G0 X122.35 Y40.7 F10800
G1 X123.78 Y41.06 E16.257 F1200
G1 X125.11 Y41.66 E16.303
G1 X126.32 Y42.48 E16.35
G1 X127.37 Y43.51 E16.396
G1 X128.23 Y44.7 E16.443
G1 X128.87 Y46.02 E16.489
G1 X129.27 Y47.43 E16.535
G1 X129.41 Y48.89 E16.581
G1 X129.31 Y50.35 E16.628
G1 X128.94 Y51.78 E16.674
G1 X128.34 Y53.11 E16.72
G1 X127.52 Y54.32 E16.767
G1 X126.49 Y55.37 E16.813
G1 X125.3 Y56.23 E16.86
G1 X123.98 Y56.87 E16.906
G1 X122.57 Y57.27 E16.952
G1 X121.11 Y57.41 E16.998
G1 X119.65 Y57.3 E17.045
G1 X118.22 Y56.94 E17.091
G1 X116.89 Y56.34 E17.137
G1 X115.68 Y55.52 E17.184
G1 X114.63 Y54.49 E17.23
G1 X113.77 Y53.3 E17.277
G1 X113.13 Y51.98 E17.323
G1 X112.73 Y50.57 E17.369
G1 X112.59 Y49.11 E17.415
G1 X112.7 Y47.65 E17.462
G1 X113.06 Y46.23 E17.508
G1 X113.66 Y44.89 E17.555
G1 X114.49 Y43.68 E17.601
G1 X115.51 Y42.63 E17.647
G1 X116.7 Y41.77 E17.694
G1 X118.02 Y41.13 E17.74
G1 X119.43 Y40.73 E17.786
G1 X120.89 Y40.59 E17.832
G1 X122.35 Y40.7 E17.879
G0 X122.29 Y41.09 F10800
G1 X123.64 Y41.44 E17.923 F1200
G1 X124.91 Y42.01 E17.967
G1 X126.07 Y42.8 E18.011
G1 X127.07 Y43.77 E18.055
G1 X127.89 Y44.91 E18.1
G1 X128.49 Y46.16 E18.144
G1 X128.87 Y47.51 E18.188
G1 X129.01 Y48.89 E18.232
G1 X128.91 Y50.28 E18.276
G1 X128.56 Y51.64 E18.32
G1 X127.99 Y52.91 E18.364
G1 X127.2 Y54.07 E18.408
G1 X126.23 Y55.07 E18.452
G1 X125.09 Y55.89 E18.497
G1 X123.84 Y56.49 E18.541
G1 X122.49 Y56.87 E18.585
G1 X121.11 Y57.01 E18.629
G1 X119.71 Y56.91 E18.673
G1 X118.36 Y56.56 E18.717
G1 X117.09 Y55.99 E18.761
G1 X115.93 Y55.2 E18.805
G1 X114.93 Y54.23 E18.85
G1 X114.11 Y53.09 E18.894
G1 X113.51 Y51.84 E18.938
G1 X113.13 Y50.49 E18.982
G1 X112.99 Y49.11 E19.026
G1 X113.09 Y47.71 E19.07
G1 X113.44 Y46.36 E19.114
G1 X114.01 Y45.08 E19.158
G1 X114.8 Y43.93 E19.203
G1 X115.77 Y42.93 E19.247
G1 X116.91 Y42.11 E19.291
G1 X118.16 Y41.51 E19.335
G1 X119.51 Y41.13 E19.379
G1 X120.89 Y40.99 E19.423
G1 X122.29 Y41.09 E19.467
G0 X122.22 Y41.49 F10800
G1 X123.51 Y41.82 E19.509 F1200
G1 X124.72 Y42.36 E19.551
G1 X125.81 Y43.11 E19.593
G1 X126.77 Y44.03 E19.635
G1 X127.54 Y45.11 E19.677
G1 X128.12 Y46.31 E19.719
G1 X128.48 Y47.58 E19.761
G1 X128.61 Y48.9 E19.802
G1 X128.51 Y50.22 E19.844
G1 X128.18 Y51.51 E19.886
G1 X127.64 Y52.72 E19.928
G1 X126.89 Y53.81 E19.97
G1 X125.97 Y54.77 E20.012
G1 X124.89 Y55.54 E20.054
G1 X123.69 Y56.12 E20.096
G1 X122.42 Y56.48 E20.138
G1 X121.1 Y56.61 E20.18
G1 X119.78 Y56.51 E20.222
G1 X118.49 Y56.18 E20.264
G1 X117.28 Y55.64 E20.305
G1 X116.19 Y54.89 E20.347
G1 X115.23 Y53.97 E20.389
G1 X114.46 Y52.89 E20.431
G1 X113.88 Y51.69 E20.473
G1 X113.52 Y50.42 E20.515
G1 X113.39 Y49.1 E20.557
G1 X113.49 Y47.78 E20.599
G1 X113.82 Y46.49 E20.641
G1 X114.36 Y45.28 E20.683
G1 X115.11 Y44.18 E20.725
G1 X116.03 Y43.23 E20.767
G1 X117.11 Y42.46 E20.809
G1 X118.31 Y41.88 E20.85
G1 X119.58 Y41.52 E20.892
G1 X120.9 Y41.39 E20.934
G1 X122.22 Y41.49 E20.976
G0 X122.16 Y41.88 F10800
G1 X123.38 Y42.2 E21.016 F1200
G1 X124.52 Y42.71 E21.055
G1 X125.56 Y43.42 E21.095
G1 X126.46 Y44.3 E21.135
G1 X127.2 Y45.32 E21.175
G1 X127.74 Y46.45 E21.214
G1 X128.08 Y47.66 E21.254
G1 X128.21 Y48.9 E21.294
G1 X128.12 Y50.16 E21.333
G1 X127.8 Y51.38 E21.373
G1 X127.29 Y52.52 E21.413
G1 X126.58 Y53.56 E21.452
G1 X125.7 Y54.46 E21.492
G1 X124.68 Y55.2 E21.532
G1 X123.55 Y55.74 E21.572
G1 X122.34 Y56.08 E21.611
G1 X121.1 Y56.21 E21.651
G1 X119.84 Y56.12 E21.691
G1 X118.62 Y55.8 E21.73
G1 X117.48 Y55.29 E21.77
G1 X116.44 Y54.58 E21.81
G1 X115.54 Y53.7 E21.85
G1 X114.8 Y52.68 E21.889
G1 X114.26 Y51.55 E21.929
G1 X113.92 Y50.34 E21.969
G1 X113.79 Y49.1 E22.008
G1 X113.88 Y47.84 E22.048
G1 X114.2 Y46.62 E22.088
G1 X114.71 Y45.48 E22.127
G1 X115.42 Y44.44 E22.167
G1 X116.3 Y43.54 E22.207
G1 X117.32 Y42.8 E22.247
G1 X118.45 Y42.26 E22.286
G1 X119.66 Y41.92 E22.326
G1 X120.9 Y41.79 E22.366
G1 X122.16 Y41.88 E22.405
G1 E21.605 F2100
G0 Z0.8
G0 X121.04 Y51.99 F10800
; TYPE:WALL-INNER
G0 Z0.2
G1 E22.405 F2100
G1 X120.52 Y51.95 E22.422 F1200
G1 X120.02 Y51.83 E22.438
G1 X119.54 Y51.61 E22.455
G1 X119.1 Y51.32 E22.471
G1 X118.73 Y50.95 E22.488
G1 X118.43 Y50.53 E22.504
G1 X118.2 Y50.06 E22.521
G1 X118.06 Y49.56 E22.537
G1 X118.01 Y49.04 E22.554
G1 X118.05 Y48.52 E22.57
G1 X118.18 Y48.01 E22.586
G1 X118.39 Y47.54 E22.603
G1 X118.68 Y47.11 E22.619
G1 X119.05 Y46.73 E22.636
G1 X119.47 Y46.43 E22.652
G1 X119.94 Y46.2 E22.669
G1 X120.44 Y46.06 E22.685
G1 X120.96 Y46.01 E22.702
G1 X121.48 Y46.05 E22.718
G1 X121.98 Y46.17 E22.735
G1 X122.46 Y46.39 E22.751
G1 X122.9 Y46.68 E22.768
G1 X123.27 Y47.05 E22.784
G1 X123.57 Y47.47 E22.801
G1 X123.8 Y47.94 E22.817
G1 X123.94 Y48.44 E22.833
G1 X123.99 Y48.96 E22.85
G1 X123.95 Y49.48 E22.866
G1 X123.83 Y49.98 E22.883
G1 X123.61 Y50.46 E22.899
G1 X123.32 Y50.9 E22.916
G1 X122.95 Y51.27 E22.932
G1 X122.53 Y51.57 E22.949
G1 X122.06 Y51.8 E22.966
G1 X121.56 Y51.94 E22.982
G1 X121.16 Y51.98 E22.995
G0 X121.04 Y51.99
G0 X121.05 Y52.79 F10800
; TYPE:WALL-OUTER
G1 X120.39 Y52.75 E23.015 F1200
G1 X119.75 Y52.58 E23.036
G1 X119.15 Y52.31 E23.057
G1 X118.6 Y51.94 E23.078
G1 X118.12 Y51.48 E23.099
G1 X117.74 Y50.94 E23.12
G1 X117.45 Y50.34 E23.141
G1 X117.27 Y49.71 E23.162
G1 X117.21 Y49.05 E23.183
G1 X117.25 Y48.39 E23.203
G1 X117.42 Y47.75 E23.225
G1 X117.69 Y47.15 E23.245
G1 X118.06 Y46.6 E23.266
G1 X118.52 Y46.12 E23.287
G1 X119.06 Y45.74 E23.308
G1 X119.66 Y45.45 E23.329
G1 X120.29 Y45.27 E23.35
G1 X120.95 Y45.21 E23.371
G1 X121.61 Y45.25 E23.392
G1 X122.25 Y45.42 E23.413
G1 X122.85 Y45.69 E23.433
G1 X123.4 Y46.06 E23.454
G1 X123.88 Y46.52 E23.475
G1 X124.26 Y47.06 E23.496
G1 X124.55 Y47.66 E23.517
G1 X124.73 Y48.29 E23.538
G1 X124.79 Y48.95 E23.559
G1 X124.75 Y49.61 E23.58
G1 X124.58 Y50.25 E23.601
G1 X124.31 Y50.85 E23.622
G1 X123.94 Y51.4 E23.643
G1 X123.48 Y51.88 E23.664
G1 X122.94 Y52.26 E23.684
G1 X122.34 Y52.55 E23.705
G1 X121.71 Y52.73 E23.726
G1 X121.17 Y52.78 E23.743
G0 X121.05 Y52.79
G0 X120.39 Y52.75
G0 X119.75 Y52.58
G0 X119.15 Y52.31
G0 X118.6 Y51.94
G0 X118.34 Y51.69
G0 X121.04 Y52.39 F10800
; TYPE:WALL-INNER
G1 X120.45 Y52.35 E23.762 F1200
G1 X119.88 Y52.2 E23.781
G1 X119.34 Y51.96 E23.799
G1 X118.85 Y51.63 E23.818
G1 X118.43 Y51.21 E23.837
G1 X118.08 Y50.74 E23.855
G1 X117.83 Y50.2 E23.874
G1 X117.67 Y49.64 E23.893
G1 X117.61 Y49.04 E23.912
G1 X117.65 Y48.45 E23.93
G1 X117.8 Y47.88 E23.949
G1 X118.04 Y47.34 E23.968
G1 X118.37 Y46.85 E23.986
G1 X118.79 Y46.43 E24.005
G1 X119.26 Y46.08 E24.024
G1 X119.8 Y45.83 E24.042
G1 X120.36 Y45.67 E24.061
G1 X120.96 Y45.61 E24.08
G1 X121.55 Y45.65 E24.098
G1 X122.12 Y45.8 E24.117
G1 X122.66 Y46.04 E24.136
G1 X123.15 Y46.37 E24.154
G1 X123.57 Y46.79 E24.173
G1 X123.92 Y47.26 E24.192
G1 X124.17 Y47.8 E24.211
G1 X124.33 Y48.36 E24.229
G1 X124.39 Y48.96 E24.248
G1 X124.35 Y49.55 E24.267
G1 X124.2 Y50.12 E24.285
G1 X123.96 Y50.66 E24.304
G1 X123.63 Y51.15 E24.323
G1 X123.21 Y51.57 E24.342
G1 X122.74 Y51.92 E24.36
G1 X122.2 Y52.17 E24.379
G1 X121.64 Y52.33 E24.397
G1 X121.16 Y52.38 E24.412
G0 X121.04 Y52.39
G1 E23.612 F2100
G0 Z0.8
G0 X122.33 Y51.33 F10800
; TYPE:BOTTOM-FILL
G0 Z0.2
G1 E24.412 F2100
G1 X123.34 Y50.33 E24.457 F1200
G0 X123.65 Y49.45 F10800
G1 X121.45 Y51.65 E24.556 F1200
G0 X120.86 Y51.68 F10800
G1 X123.68 Y48.86 E24.682 F1200
G0 X123.61 Y48.36 F10800
G1 X120.36 Y51.6 E24.827 F1200
G0 X119.94 Y51.46 F10800
G1 X123.46 Y47.94 E24.984 F1200
G0 X123.27 Y47.57 F10800
G1 X119.57 Y51.27 E25.149 F1200
G0 X119.24 Y51.03 F10800
G1 X123.03 Y47.24 E25.319 F1200
G0 X122.75 Y46.96 F10800
G1 X118.96 Y50.75 E25.488 F1200
G0 X118.72 Y50.42 F10800
G1 X122.42 Y46.72 E25.654 F1200
G0 X122.04 Y46.53 F10800
G1 X118.53 Y50.05 E25.811 F1200
G0 X118.39 Y49.62 F10800
G1 X121.62 Y46.39 E25.955 F1200
G0 X121.12 Y46.32 F10800
G1 X118.32 Y49.12 E26.08 F1200
G0 X118.35 Y48.53 F10800
G1 X120.52 Y46.35 E26.177 F1200
G0 X119.63 Y46.69 F10800
G1 X118.7 Y47.62 E26.219 F1200
; Layer Change GCode
; LAYER:1
; LAYER_HEIGHT:0.15
; TYPE:FILL
M400
M106 S255
G1 E25.419 F2100
G0 Z0.8
G0 X121 Y52 Z0.95 F10800
; TYPE:WALL-INNER
G0 Z0.35
G1 E26.219 F2100
G1 X120.48 Y51.95 E26.231 F2430
G1 X119.97 Y51.81 E26.244
G1 X119.51 Y51.6 E26.256
G1 X119.07 Y51.29 E26.269
G1 X118.71 Y50.93 E26.281
G1 X118.4 Y50.49 E26.293
G1 X118.19 Y50.03 E26.306
G1 X118.05 Y49.52 E26.318
G1 X118 Y49 E26.33
G1 X118.05 Y48.48 E26.343
G1 X118.18 Y47.98 E26.355
G1 X118.41 Y47.5 E26.368
G1 X118.71 Y47.07 E26.38
G1 X119.07 Y46.71 E26.392
G1 X119.51 Y46.4 E26.405
G1 X119.97 Y46.19 E26.417
G1 X120.48 Y46.05 E26.429
G1 X121 Y46 E26.442
G1 X121.52 Y46.05 E26.454
G1 X122.03 Y46.19 E26.467
G1 X122.49 Y46.4 E26.479
G1 X122.93 Y46.71 E26.491
G1 X123.29 Y47.07 E26.504
G1 X123.6 Y47.51 E26.516
G1 X123.81 Y47.97 E26.528
G1 X123.95 Y48.48 E26.541
G1 X124 Y49 E26.553
G1 X123.95 Y49.52 E26.566
G1 X123.81 Y50.03 E26.578
G1 X123.6 Y50.49 E26.59
G1 X123.29 Y50.93 E26.603
G1 X122.93 Y51.29 E26.615
G1 X122.49 Y51.6 E26.628
G1 X122.03 Y51.81 E26.64
G1 X121.52 Y51.95 E26.652
G1 X121.12 Y51.99 E26.662
G0 X121 Y52
G0 Y52.4 F10800
G1 X120.41 Y52.35 E26.676 F2430
G1 X119.84 Y52.19 E26.69
G1 X119.3 Y51.94 E26.704
G1 X118.81 Y51.6 E26.718
G1 X118.4 Y51.19 E26.732
G1 X118.06 Y50.7 E26.746
G1 X117.81 Y50.16 E26.76
G1 X117.65 Y49.59 E26.774
G1 X117.6 Y49 E26.788
G1 X117.65 Y48.41 E26.802
G1 X117.81 Y47.84 E26.816
G1 X118.06 Y47.3 E26.83
G1 X118.4 Y46.82 E26.844
G1 X118.81 Y46.4 E26.858
G1 X119.3 Y46.06 E26.872
G1 X119.84 Y45.81 E26.886
G1 X120.41 Y45.65 E26.9
G1 X121 Y45.6 E26.914
G1 X121.59 Y45.65 E26.928
G1 X122.16 Y45.81 E26.942
G1 X122.7 Y46.06 E26.956
G1 X123.19 Y46.4 E26.971
G1 X123.6 Y46.81 E26.984
G1 X123.94 Y47.3 E26.999
G1 X124.19 Y47.84 E27.013
G1 X124.35 Y48.41 E27.027
G1 X124.4 Y49 E27.041
G1 X124.35 Y49.59 E27.055
G1 X124.19 Y50.16 E27.069
G1 X123.94 Y50.7 E27.083
G1 X123.6 Y51.19 E27.097
G1 X123.19 Y51.6 E27.111
G1 X122.7 Y51.94 E27.125
G1 X122.16 Y52.19 E27.139
G1 X121.59 Y52.35 E27.153
G1 X121.12 Y52.39 E27.164
G0 X121 Y52.4
G0 Y52.8 F10800
; TYPE:WALL-OUTER
G1 X120.34 Y52.74 E27.18 F1890
G1 X119.7 Y52.57 E27.196
G1 X119.1 Y52.29 E27.211
G1 X118.55 Y51.91 E27.227
G1 X118.09 Y51.45 E27.243
G1 X117.71 Y50.9 E27.258
G1 X117.43 Y50.3 E27.274
G1 X117.26 Y49.66 E27.29
G1 X117.2 Y49 E27.305
G1 X117.26 Y48.34 E27.321
G1 X117.43 Y47.7 E27.337
G1 X117.71 Y47.1 E27.352
G1 X118.09 Y46.55 E27.368
G1 X118.55 Y46.09 E27.384
G1 X119.1 Y45.71 E27.4
G1 X119.7 Y45.43 E27.415
G1 X120.34 Y45.26 E27.431
G1 X121 Y45.2 E27.447
G1 X121.66 Y45.26 E27.462
G1 X122.3 Y45.43 E27.478
G1 X122.9 Y45.71 E27.494
G1 X123.45 Y46.09 E27.51
G1 X123.91 Y46.55 E27.525
G1 X124.29 Y47.1 E27.541
G1 X124.57 Y47.7 E27.556
G1 X124.74 Y48.34 E27.572
G1 X124.8 Y49 E27.588
G1 X124.74 Y49.66 E27.604
G1 X124.57 Y50.3 E27.619
G1 X124.29 Y50.9 E27.635
G1 X123.91 Y51.45 E27.651
G1 X123.45 Y51.91 E27.666
G1 X122.9 Y52.29 E27.682
G1 X122.3 Y52.57 E27.698
G1 X121.66 Y52.74 E27.714
G1 X121.12 Y52.79 E27.726
G0 X121 Y52.8
G0 X120.34 Y52.74
G0 X119.7 Y52.57
G0 X119.1 Y52.29
G0 X118.55 Y51.91
G0 X118.31 Y51.66
G0 X121 Y52 F10800
G0 X119.9 Y51.45
; TYPE:FILL
G1 X118.55 Y50.1 E27.772
G0 X118.33 Y49.32
G1 X120.68 Y51.67 E27.85
G0 X121.25 Y51.67
G1 X118.33 Y48.75 E27.948
G0 X118.41 Y48.27
G1 X121.73 Y51.58 E28.059
G0 X122.14 Y51.43
G1 X118.57 Y47.86 E28.179
G0 X118.77 Y47.5
G1 X122.5 Y51.22 E28.304
G0 X122.82 Y50.98
G1 X119.02 Y47.18 E28.431
G0 X119.31 Y46.9
G1 X123.1 Y50.69 E28.558
G0 X123.33 Y50.35
G1 X119.64 Y46.67 E28.682
G0 X120.03 Y46.49
G1 X123.51 Y49.97 E28.798
G0 X123.64 Y49.53
G1 X120.47 Y46.36 E28.905
G0 X120.98 Y46.31
G1 X123.69 Y49.02 E28.996
G0 X123.61 Y48.37
G1 X121.62 Y46.39 E29.062
; Layer Change GCode
; LAYER:2
; LAYER_HEIGHT:0.15
; TYPE:FILL
G1 E28.262 F2100
G0 Z0.95
G0 X121 Y52 Z1.1 F10800
; TYPE:WALL-INNER
G0 Z0.5
G1 E29.062 F2100
G1 X120.48 Y51.95 E29.074 F2160
G1 X119.97 Y51.81 E29.087
G1 X119.51 Y51.6 E29.099
G1 X119.07 Y51.29 E29.112
G1 X118.71 Y50.93 E29.124
G1 X118.4 Y50.49 E29.137
G1 X118.19 Y50.03 E29.149
G1 X118.05 Y49.52 E29.161
G1 X118 Y49 E29.174
G1 X118.05 Y48.48 E29.186
G1 X118.18 Y47.98 E29.198
G1 X118.41 Y47.5 E29.211
G1 X118.71 Y47.07 E29.223
G1 X119.07 Y46.71 E29.235
G1 X119.51 Y46.4 E29.248
G1 X119.97 Y46.19 E29.26
G1 X120.48 Y46.05 E29.273
G1 X121 Y46 E29.285
G1 X121.52 Y46.05 E29.297
G1 X122.03 Y46.19 E29.31
G1 X122.49 Y46.4 E29.322
G1 X122.93 Y46.71 E29.335
G1 X123.29 Y47.07 E29.347
G1 X123.6 Y47.51 E29.359
G1 X123.81 Y47.97 E29.371
G1 X123.95 Y48.48 E29.384
G1 X124 Y49 E29.396
G1 X123.95 Y49.52 E29.409
G1 X123.81 Y50.03 E29.421
G1 X123.6 Y50.49 E29.433
G1 X123.29 Y50.93 E29.446
G1 X122.93 Y51.29 E29.458
G1 X122.49 Y51.6 E29.471
G1 X122.03 Y51.81 E29.483
G1 X121.52 Y51.95 E29.495
G1 X121.12 Y51.99 E29.505
G0 X121 Y52
G0 Y52.4 F10800
G1 X120.41 Y52.35 E29.519 F2160
G1 X119.84 Y52.19 E29.533
G1 X119.3 Y51.94 E29.547
G1 X118.81 Y51.6 E29.561
G1 X118.4 Y51.19 E29.575
G1 X118.06 Y50.7 E29.589
G1 X117.81 Y50.16 E29.603
G1 X117.65 Y49.59 E29.617
G1 X117.6 Y49 E29.631
G1 X117.65 Y48.41 E29.645
G1 X117.81 Y47.84 E29.659
G1 X118.06 Y47.3 E29.673
G1 X118.4 Y46.82 E29.687
G1 X118.81 Y46.4 E29.701
G1 X119.3 Y46.06 E29.715
G1 X119.84 Y45.81 E29.729
G1 X120.41 Y45.65 E29.743
G1 X121 Y45.6 E29.758
G1 X121.59 Y45.65 E29.772
G1 X122.16 Y45.81 E29.786
G1 X122.7 Y46.06 E29.8
G1 X123.19 Y46.4 E29.814
G1 X123.6 Y46.81 E29.828
G1 X123.94 Y47.3 E29.842
G1 X124.19 Y47.84 E29.856
G1 X124.35 Y48.41 E29.87
G1 X124.4 Y49 E29.884
G1 X124.35 Y49.59 E29.898
G1 X124.19 Y50.16 E29.912
G1 X123.94 Y50.7 E29.926
G1 X123.6 Y51.19 E29.94
G1 X123.19 Y51.6 E29.954
G1 X122.7 Y51.94 E29.968
G1 X122.16 Y52.19 E29.982
G1 X121.59 Y52.35 E29.996
G1 X121.12 Y52.39 E30.007
G0 X121 Y52.4
G0 Y52.8 F10800
; TYPE:WALL-OUTER
G1 X120.34 Y52.74 E30.023 F1680
G1 X119.7 Y52.57 E30.039
G1 X119.1 Y52.29 E30.054
G1 X118.55 Y51.91 E30.07
G1 X118.09 Y51.45 E30.086
G1 X117.71 Y50.9 E30.102
G1 X117.43 Y50.3 E30.117
G1 X117.26 Y49.66 E30.133
G1 X117.2 Y49 E30.149
G1 X117.26 Y48.34 E30.164
G1 X117.43 Y47.7 E30.18
G1 X117.71 Y47.1 E30.196
G1 X118.09 Y46.55 E30.211
G1 X118.55 Y46.09 E30.227
G1 X119.1 Y45.71 E30.243
G1 X119.7 Y45.43 E30.258
G1 X120.34 Y45.26 E30.274
G1 X121 Y45.2 E30.29
G1 X121.66 Y45.26 E30.305
G1 X122.3 Y45.43 E30.321
G1 X122.9 Y45.71 E30.337
G1 X123.45 Y46.09 E30.353
G1 X123.91 Y46.55 E30.368
G1 X124.29 Y47.1 E30.384
G1 X124.57 Y47.7 E30.4
G1 X124.74 Y48.34 E30.415
G1 X124.8 Y49 E30.431
G1 X124.74 Y49.66 E30.447
G1 X124.57 Y50.3 E30.463
G1 X124.29 Y50.9 E30.478
G1 X123.91 Y51.45 E30.494
G1 X123.45 Y51.91 E30.509
G1 X122.9 Y52.29 E30.525
G1 X122.3 Y52.57 E30.541
G1 X121.66 Y52.74 E30.557
G1 X121.12 Y52.79 E30.569
G0 X121 Y52.8
G0 X120.34 Y52.74
G0 X119.7 Y52.57
G0 X119.1 Y52.29
G0 X118.55 Y51.91
G0 X118.31 Y51.66
G0 X121 Y52 F10800
G0 X122.32 Y51.35
; TYPE:FILL
G1 X123.35 Y50.32 E30.604 F9600
G0 X123.66 Y49.44 F10800
G1 X121.44 Y51.66 E30.678 F9600
G0 X120.85 Y51.68 F10800
G1 X123.68 Y48.85 E30.773 F9600
G0 X123.61 Y48.36 F10800
G1 X120.36 Y51.61 E30.882 F9600
G0 X119.94 Y51.47 F10800
G1 X123.47 Y47.94 E31 F9600
G0 X123.27 Y47.56 F10800
G1 X119.56 Y51.27 E31.124 F9600
G0 X119.24 Y51.03 F10800
G1 X123.03 Y47.24 E31.252 F9600
G0 X122.75 Y46.95 F10800
G1 X118.95 Y50.75 E31.379 F9600
G0 X118.72 Y50.42 F10800
G1 X122.42 Y46.72 E31.503 F9600
G0 X122.05 Y46.53 F10800
G1 X118.52 Y50.05 E31.621 F9600
G0 X118.39 Y49.62 F10800
G1 X121.62 Y46.39 E31.73 F9600
G0 X121.13 Y46.32 F10800
G1 X118.32 Y49.13 E31.824 F9600
G0 X118.34 Y48.53 F10800
G1 X120.53 Y46.34 E31.897 F9600
G0 X119.63 Y46.68 F10800
G1 X118.68 Y47.63 E31.929 F9600
; Layer Change GCode
; LAYER:3
; LAYER_HEIGHT:0.15
; TYPE:FILL
G1 E31.129 F2100
G0 Z1.1
G0 X121 Y52 Z1.25 F10800
; TYPE:WALL-INNER
G0 Z0.65
G1 E31.929 F2100
G1 X120.48 Y51.95 E31.942 F1890
G1 X119.97 Y51.81 E31.954
G1 X119.51 Y51.6 E31.966
G1 X119.07 Y51.29 E31.979
G1 X118.71 Y50.93 E31.991
G1 X118.4 Y50.49 E32.004
G1 X118.19 Y50.03 E32.016
G1 X118.05 Y49.52 E32.028
G1 X118 Y49 E32.041
G1 X118.05 Y48.48 E32.053
G1 X118.18 Y47.98 E32.066
G1 X118.41 Y47.5 E32.078
G1 X118.71 Y47.07 E32.09
G1 X119.07 Y46.71 E32.103
G1 X119.51 Y46.4 E32.115
G1 X119.97 Y46.19 E32.127
G1 X120.48 Y46.05 E32.14
G1 X121 Y46 E32.152
G1 X121.52 Y46.05 E32.165
G1 X122.03 Y46.19 E32.177
G1 X122.49 Y46.4 E32.189
G1 X122.93 Y46.71 E32.202
G1 X123.29 Y47.07 E32.214
G1 X123.6 Y47.51 E32.227
G1 X123.81 Y47.97 E32.239
G1 X123.95 Y48.48 E32.251
G1 X124 Y49 E32.264
G1 X123.95 Y49.52 E32.276
G1 X123.81 Y50.03 E32.288
G1 X123.6 Y50.49 E32.301
G1 X123.29 Y50.93 E32.313
G1 X122.93 Y51.29 E32.325
G1 X122.49 Y51.6 E32.338
G1 X122.03 Y51.81 E32.35
G1 X121.52 Y51.95 E32.363
G1 X121.12 Y51.99 E32.372
G0 X121 Y52
G0 Y52.4 F10800
G1 X120.41 Y52.35 E32.386 F1890
G1 X119.84 Y52.19 E32.4
G1 X119.3 Y51.94 E32.414
G1 X118.81 Y51.6 E32.428
G1 X118.4 Y51.19 E32.442
G1 X118.06 Y50.7 E32.456
G1 X117.81 Y50.16 E32.47
G1 X117.65 Y49.59 E32.484
G1 X117.6 Y49 E32.498
G1 X117.65 Y48.41 E32.513
G1 X117.81 Y47.84 E32.527
G1 X118.06 Y47.3 E32.541
G1 X118.4 Y46.82 E32.555
G1 X118.81 Y46.4 E32.569
G1 X119.3 Y46.06 E32.583
G1 X119.84 Y45.81 E32.597
G1 X120.41 Y45.65 E32.611
G1 X121 Y45.6 E32.625
G1 X121.59 Y45.65 E32.639
G1 X122.16 Y45.81 E32.653
G1 X122.7 Y46.06 E32.667
G1 X123.19 Y46.4 E32.681
G1 X123.6 Y46.81 E32.695
G1 X123.94 Y47.3 E32.709
G1 X124.19 Y47.84 E32.723
G1 X124.35 Y48.41 E32.737
G1 X124.4 Y49 E32.751
G1 X124.35 Y49.59 E32.765
G1 X124.19 Y50.16 E32.779
G1 X123.94 Y50.7 E32.793
G1 X123.6 Y51.19 E32.807
G1 X123.19 Y51.6 E32.821
G1 X122.7 Y51.94 E32.835
G1 X122.16 Y52.19 E32.849
G1 X121.59 Y52.35 E32.863
G1 X121.12 Y52.39 E32.875
G0 X121 Y52.4
G0 Y52.8 F10800
; TYPE:WALL-OUTER
G1 X120.34 Y52.74 E32.89 F1470
G1 X119.7 Y52.57 E32.906
G1 X119.1 Y52.29 E32.922
G1 X118.55 Y51.91 E32.937
G1 X118.09 Y51.45 E32.953
G1 X117.71 Y50.9 E32.969
G1 X117.43 Y50.3 E32.984
G1 X117.26 Y49.66 E33
G1 X117.2 Y49 E33.016
G1 X117.26 Y48.34 E33.032
G1 X117.43 Y47.7 E33.047
G1 X117.71 Y47.1 E33.063
G1 X118.09 Y46.55 E33.079
G1 X118.55 Y46.09 E33.094
G1 X119.1 Y45.71 E33.11
G1 X119.7 Y45.43 E33.126
G1 X120.34 Y45.26 E33.141
G1 X121 Y45.2 E33.157
G1 X121.66 Y45.26 E33.173
G1 X122.3 Y45.43 E33.189
G1 X122.9 Y45.71 E33.204
G1 X123.45 Y46.09 E33.22
G1 X123.91 Y46.55 E33.235
G1 X124.29 Y47.1 E33.251
G1 X124.57 Y47.7 E33.267
G1 X124.74 Y48.34 E33.283
G1 X124.8 Y49 E33.298
G1 X124.74 Y49.66 E33.314
G1 X124.57 Y50.3 E33.33
G1 X124.29 Y50.9 E33.345
G1 X123.91 Y51.45 E33.361
G1 X123.45 Y51.91 E33.377
G1 X122.9 Y52.29 E33.393
G1 X122.3 Y52.57 E33.408
G1 X121.66 Y52.74 E33.424
G1 X121.12 Y52.79 E33.437
G0 X121 Y52.8
G0 X120.34 Y52.74
G0 X119.7 Y52.57
G0 X119.1 Y52.29
G0 X118.55 Y51.91
G0 X118.31 Y51.66
G0 X121 Y52 F10800
G0 X119.9 Y51.45
; TYPE:FILL
G1 X118.55 Y50.1 E33.482 F8400
G0 X118.33 Y49.32 F10800
G1 X120.68 Y51.67 E33.561 F8400
G0 X121.25 Y51.67 F10800
G1 X118.33 Y48.75 E33.659 F8400
G0 X118.41 Y48.27 F10800
G1 X121.73 Y51.58 E33.77 F8400
G0 X122.14 Y51.43 F10800
G1 X118.57 Y47.86 E33.89 F8400
G0 X118.77 Y47.5 F10800
G1 X122.5 Y51.22 E34.014 F8400
G0 X122.82 Y50.98 F10800
G1 X119.02 Y47.18 E34.142 F8400
G0 X119.31 Y46.9 F10800
G1 X123.1 Y50.69 E34.269 F8400
G0 X123.33 Y50.35 F10800
G1 X119.64 Y46.67 E34.392 F8400
G0 X120.03 Y46.49 F10800
G1 X123.51 Y49.97 E34.509 F8400
G0 X123.64 Y49.53 F10800
G1 X120.47 Y46.36 E34.615 F8400
G0 X120.98 Y46.31 F10800
G1 X123.69 Y49.02 E34.706 F8400
G0 X123.61 Y48.37 F10800
G1 X121.62 Y46.39 E34.773 F8400
; Layer Change GCode
; LAYER:4
; LAYER_HEIGHT:0.15
; TYPE:FILL
G1 E33.973 F2100
G0 Z1.25
G0 X121 Y52 Z1.4 F10800
; TYPE:WALL-INNER
G0 Z0.8
G1 E34.773 F2100
G1 X120.48 Y51.95 E34.785 F1620
G1 X119.97 Y51.81 E34.797
G1 X119.51 Y51.6 E34.81
G1 X119.07 Y51.29 E34.822
G1 X118.71 Y50.93 E34.834
G1 X118.4 Y50.49 E34.847
G1 X118.19 Y50.03 E34.859
G1 X118.05 Y49.52 E34.872
G1 X118 Y49 E34.884
G1 X118.05 Y48.48 E34.896
G1 X118.18 Y47.98 E34.909
G1 X118.41 Y47.5 E34.921
G1 X118.71 Y47.07 E34.934
G1 X119.07 Y46.71 E34.946
G1 X119.51 Y46.4 E34.958
G1 X119.97 Y46.19 E34.971
G1 X120.48 Y46.05 E34.983
G1 X121 Y46 E34.995
G1 X121.52 Y46.05 E35.008
G1 X122.03 Y46.19 E35.02
G1 X122.49 Y46.4 E35.032
G1 X122.93 Y46.71 E35.045
G1 X123.29 Y47.07 E35.057
G1 X123.6 Y47.51 E35.07
G1 X123.81 Y47.97 E35.082
G1 X123.95 Y48.48 E35.094
G1 X124 Y49 E35.107
G1 X123.95 Y49.52 E35.119
G1 X123.81 Y50.03 E35.132
G1 X123.6 Y50.49 E35.144
G1 X123.29 Y50.93 E35.156
G1 X122.93 Y51.29 E35.169
G1 X122.49 Y51.6 E35.181
G1 X122.03 Y51.81 E35.193
G1 X121.52 Y51.95 E35.206
G1 X121.12 Y51.99 E35.215
G0 X121 Y52
G0 Y52.4 F10800
G1 X120.41 Y52.35 E35.229 F1620
G1 X119.84 Y52.19 E35.243
G1 X119.3 Y51.94 E35.257
G1 X118.81 Y51.6 E35.272
G1 X118.4 Y51.19 E35.285
G1 X118.06 Y50.7 E35.3
G1 X117.81 Y50.16 E35.314
G1 X117.65 Y49.59 E35.328
G1 X117.6 Y49 E35.342
G1 X117.65 Y48.41 E35.356
G1 X117.81 Y47.84 E35.37
G1 X118.06 Y47.3 E35.384
G1 X118.4 Y46.82 E35.398
G1 X118.81 Y46.4 E35.412
G1 X119.3 Y46.06 E35.426
G1 X119.84 Y45.81 E35.44
G1 X120.41 Y45.65 E35.454
G1 X121 Y45.6 E35.468
G1 X121.59 Y45.65 E35.482
G1 X122.16 Y45.81 E35.496
G1 X122.7 Y46.06 E35.51
G1 X123.19 Y46.4 E35.524
G1 X123.6 Y46.81 E35.538
G1 X123.94 Y47.3 E35.552
G1 X124.19 Y47.84 E35.566
G1 X124.35 Y48.41 E35.58
G1 X124.4 Y49 E35.594
G1 X124.35 Y49.59 E35.608
G1 X124.19 Y50.16 E35.622
G1 X123.94 Y50.7 E35.636
G1 X123.6 Y51.19 E35.651
G1 X123.19 Y51.6 E35.664
G1 X122.7 Y51.94 E35.679
G1 X122.16 Y52.19 E35.693
G1 X121.59 Y52.35 E35.706
G1 X121.12 Y52.39 E35.718
G0 X121 Y52.4
G0 Y52.8 F10800
; TYPE:WALL-OUTER
G1 X120.34 Y52.74 E35.733 F1260
G1 X119.7 Y52.57 E35.749
G1 X119.1 Y52.29 E35.765
G1 X118.55 Y51.91 E35.781
G1 X118.09 Y51.45 E35.796
G1 X117.71 Y50.9 E35.812
G1 X117.43 Y50.3 E35.828
G1 X117.26 Y49.66 E35.843
G1 X117.2 Y49 E35.859
G1 X117.26 Y48.34 E35.875
G1 X117.43 Y47.7 E35.89
G1 X117.71 Y47.1 E35.906
G1 X118.09 Y46.55 E35.922
G1 X118.55 Y46.09 E35.937
G1 X119.1 Y45.71 E35.953
G1 X119.7 Y45.43 E35.969
G1 X120.34 Y45.26 E35.985
G1 X121 Y45.2 E36
G1 X121.66 Y45.26 E36.016
G1 X122.3 Y45.43 E36.032
G1 X122.9 Y45.71 E36.047
G1 X123.45 Y46.09 E36.063
G1 X123.91 Y46.55 E36.079
G1 X124.29 Y47.1 E36.095
G1 X124.57 Y47.7 E36.11
G1 X124.74 Y48.34 E36.126
G1 X124.8 Y49 E36.141
G1 X124.74 Y49.66 E36.157
G1 X124.57 Y50.3 E36.173
G1 X124.29 Y50.9 E36.188
G1 X123.91 Y51.45 E36.204
G1 X123.45 Y51.91 E36.22
G1 X122.9 Y52.29 E36.236
G1 X122.3 Y52.57 E36.251
G1 X121.66 Y52.74 E36.267
G1 X121.12 Y52.79 E36.28
G0 X121 Y52.8
G0 X120.34 Y52.74
G0 X119.7 Y52.57
G0 X119.1 Y52.29
G0 X118.55 Y51.91
G0 X118.31 Y51.66
G0 X121 Y52 F10800
G0 X122.32 Y51.35
; TYPE:FILL
G1 X123.35 Y50.32 E36.314 F7200
G0 X123.66 Y49.44 F10800
G1 X121.44 Y51.66 E36.389 F7200
G0 X120.85 Y51.68 F10800
G1 X123.68 Y48.85 E36.483 F7200
G0 X123.61 Y48.36 F10800
G1 X120.36 Y51.61 E36.592 F7200
G0 X119.94 Y51.47 F10800
G1 X123.47 Y47.94 E36.711 F7200
G0 X123.27 Y47.56 F10800
G1 X119.56 Y51.27 E36.835 F7200
G0 X119.24 Y51.03 F10800
G1 X123.03 Y47.24 E36.962 F7200
G0 X122.75 Y46.95 F10800
G1 X118.95 Y50.75 E37.089 F7200
G0 X118.72 Y50.42 F10800
G1 X122.42 Y46.72 E37.214 F7200
G0 X122.05 Y46.53 F10800
G1 X118.52 Y50.05 E37.332 F7200
G0 X118.39 Y49.62 F10800
G1 X121.62 Y46.39 E37.44 F7200
G0 X121.13 Y46.32 F10800
G1 X118.32 Y49.13 E37.534 F7200
G0 X118.34 Y48.53 F10800
G1 X120.53 Y46.34 E37.608 F7200
G0 X119.63 Y46.68 F10800
G1 X118.68 Y47.63 E37.64 F7200
; Layer Change GCode
; LAYER:5
; LAYER_HEIGHT:0.15
; TYPE:FILL
G0 X121 Y52 Z0.95 F10800
; TYPE:WALL-INNER
G1 X120.48 Y51.95 E37.652 F1350
G1 X119.97 Y51.81 E37.665
G1 X119.51 Y51.6 E37.677
G1 X119.07 Y51.29 E37.689
G1 X118.71 Y50.93 E37.702
G1 X118.4 Y50.49 E37.714
G1 X118.19 Y50.03 E37.726
G1 X118.05 Y49.52 E37.739
G1 X118 Y49 E37.751
G1 X118.05 Y48.48 E37.764
G1 X118.18 Y47.98 E37.776
G1 X118.41 Y47.5 E37.788
G1 X118.71 Y47.07 E37.801
G1 X119.07 Y46.71 E37.813
G1 X119.51 Y46.4 E37.826
G1 X119.97 Y46.19 E37.838
G1 X120.48 Y46.05 E37.85
G1 X121 Y46 E37.863
G1 X121.52 Y46.05 E37.875
G1 X122.03 Y46.19 E37.887
G1 X122.49 Y46.4 E37.9
G1 X122.93 Y46.71 E37.912
G1 X123.29 Y47.07 E37.924
G1 X123.6 Y47.51 E37.937
G1 X123.81 Y47.97 E37.949
G1 X123.95 Y48.48 E37.962
G1 X124 Y49 E37.974
G1 X123.95 Y49.52 E37.986
G1 X123.81 Y50.03 E37.999
G1 X123.6 Y50.49 E38.011
G1 X123.29 Y50.93 E38.024
G1 X122.93 Y51.29 E38.036
G1 X122.49 Y51.6 E38.048
G1 X122.03 Y51.81 E38.061
G1 X121.52 Y51.95 E38.073
G1 X121.12 Y51.99 E38.083
G0 X121 Y52
G0 Y52.4 F10800
G1 X120.41 Y52.35 E38.097 F1350
G1 X119.84 Y52.19 E38.111
G1 X119.3 Y51.94 E38.125
G1 X118.81 Y51.6 E38.139
G1 X118.4 Y51.19 E38.153
G1 X118.06 Y50.7 E38.167
G1 X117.81 Y50.16 E38.181
G1 X117.65 Y49.59 E38.195
G1 X117.6 Y49 E38.209
G1 X117.65 Y48.41 E38.223
G1 X117.81 Y47.84 E38.237
G1 X118.06 Y47.3 E38.251
G1 X118.4 Y46.82 E38.265
G1 X118.81 Y46.4 E38.279
G1 X119.3 Y46.06 E38.293
G1 X119.84 Y45.81 E38.307
G1 X120.41 Y45.65 E38.321
G1 X121 Y45.6 E38.335
G1 X121.59 Y45.65 E38.349
G1 X122.16 Y45.81 E38.363
G1 X122.7 Y46.06 E38.377
G1 X123.19 Y46.4 E38.391
G1 X123.6 Y46.81 E38.405
G1 X123.94 Y47.3 E38.42
G1 X124.19 Y47.84 E38.434
G1 X124.35 Y48.41 E38.447
G1 X124.4 Y49 E38.462
G1 X124.35 Y49.59 E38.476
G1 X124.19 Y50.16 E38.49
G1 X123.94 Y50.7 E38.504
G1 X123.6 Y51.19 E38.518
G1 X123.19 Y51.6 E38.532
G1 X122.7 Y51.94 E38.546
G1 X122.16 Y52.19 E38.56
G1 X121.59 Y52.35 E38.574
G1 X121.12 Y52.39 E38.585
G0 X121 Y52.4
G0 Y52.8 F10800
; TYPE:WALL-OUTER
G1 X120.34 Y52.74 E38.601 F1050
G1 X119.7 Y52.57 E38.616
G1 X119.1 Y52.29 E38.632
G1 X118.55 Y51.91 E38.648
G1 X118.09 Y51.45 E38.663
G1 X117.71 Y50.9 E38.679
G1 X117.43 Y50.3 E38.695
G1 X117.26 Y49.66 E38.711
G1 X117.2 Y49 E38.726
G1 X117.26 Y48.34 E38.742
G1 X117.43 Y47.7 E38.758
G1 X117.71 Y47.1 E38.773
G1 X118.09 Y46.55 E38.789
G1 X118.55 Y46.09 E38.805
G1 X119.1 Y45.71 E38.821
G1 X119.7 Y45.43 E38.836
G1 X120.34 Y45.26 E38.852
G1 X121 Y45.2 E38.868
G1 X121.66 Y45.26 E38.883
G1 X122.3 Y45.43 E38.899
G1 X122.9 Y45.71 E38.915
G1 X123.45 Y46.09 E38.93
G1 X123.91 Y46.55 E38.946
G1 X124.29 Y47.1 E38.962
G1 X124.57 Y47.7 E38.977
G1 X124.74 Y48.34 E38.993
G1 X124.8 Y49 E39.009
G1 X124.74 Y49.66 E39.024
G1 X124.57 Y50.3 E39.04
G1 X124.29 Y50.9 E39.056
G1 X123.91 Y51.45 E39.072
G1 X123.45 Y51.91 E39.087
G1 X122.9 Y52.29 E39.103
G1 X122.3 Y52.57 E39.119
G1 X121.66 Y52.74 E39.134
G1 X121.12 Y52.79 E39.147
G0 X121 Y52.8
G0 X120.34 Y52.74
G0 X119.7 Y52.57
G0 X119.1 Y52.29
G0 X118.55 Y51.91
G0 X118.31 Y51.66
G0 X121 Y52 F10800
G0 X123.06 Y50.73
; TYPE:FILL
G1 X123.65 Y48.53 E39.201 F6000
G0 X123.36 Y47.7 F10800
G1 X118.31 Y49.05 E39.325 F6000
; Layer Change GCode
; LAYER:6
; LAYER_HEIGHT:0.15
; TYPE:FILL
G0 X121 Y52 Z1.1 F10800
; TYPE:WALL-INNER
G1 X120.48 Y51.95 E39.337 F1080
G1 X119.97 Y51.81 E39.35
G1 X119.51 Y51.6 E39.362
G1 X119.07 Y51.29 E39.375
G1 X118.71 Y50.93 E39.387
G1 X118.4 Y50.49 E39.4
G1 X118.19 Y50.03 E39.412
G1 X118.05 Y49.52 E39.424
G1 X118 Y49 E39.437
G1 X118.05 Y48.48 E39.449
G1 X118.18 Y47.98 E39.461
G1 X118.41 Y47.5 E39.474
G1 X118.71 Y47.07 E39.486
G1 X119.07 Y46.71 E39.498
G1 X119.51 Y46.4 E39.511
G1 X119.97 Y46.19 E39.523
G1 X120.48 Y46.05 E39.536
G1 X121 Y46 E39.548
G1 X121.52 Y46.05 E39.56
G1 X122.03 Y46.19 E39.573
G1 X122.49 Y46.4 E39.585
G1 X122.93 Y46.71 E39.597
G1 X123.29 Y47.07 E39.61
G1 X123.6 Y47.51 E39.622
G1 X123.81 Y47.97 E39.634
G1 X123.95 Y48.48 E39.647
G1 X124 Y49 E39.659
G1 X123.95 Y49.52 E39.672
G1 X123.81 Y50.03 E39.684
G1 X123.6 Y50.49 E39.696
G1 X123.29 Y50.93 E39.709
G1 X122.93 Y51.29 E39.721
G1 X122.49 Y51.6 E39.734
G1 X122.03 Y51.81 E39.746
G1 X121.52 Y51.95 E39.758
G1 X121.12 Y51.99 E39.768
G0 X121 Y52
G0 Y52.4 F10800
G1 X120.41 Y52.35 E39.782 F1080
G1 X119.84 Y52.19 E39.796
G1 X119.3 Y51.94 E39.81
G1 X118.81 Y51.6 E39.824
G1 X118.4 Y51.19 E39.838
G1 X118.06 Y50.7 E39.852
G1 X117.81 Y50.16 E39.866
G1 X117.65 Y49.59 E39.88
G1 X117.6 Y49 E39.894
G1 X117.65 Y48.41 E39.908
G1 X117.81 Y47.84 E39.922
G1 X118.06 Y47.3 E39.936
G1 X118.4 Y46.82 E39.95
G1 X118.81 Y46.4 E39.964
G1 X119.3 Y46.06 E39.978
G1 X119.84 Y45.81 E39.992
G1 X120.41 Y45.65 E40.006
G1 X121 Y45.6 E40.021
G1 X121.59 Y45.65 E40.035
G1 X122.16 Y45.81 E40.049
G1 X122.7 Y46.06 E40.063
G1 X123.19 Y46.4 E40.077
G1 X123.6 Y46.81 E40.091
G1 X123.94 Y47.3 E40.105
G1 X124.19 Y47.84 E40.119
G1 X124.35 Y48.41 E40.133
G1 X124.4 Y49 E40.147
G1 X124.35 Y49.59 E40.161
G1 X124.19 Y50.16 E40.175
G1 X123.94 Y50.7 E40.189
G1 X123.6 Y51.19 E40.203
G1 X123.19 Y51.6 E40.217
G1 X122.7 Y51.94 E40.231
G1 X122.16 Y52.19 E40.245
G1 X121.59 Y52.35 E40.259
G1 X121.12 Y52.39 E40.27
G0 X121 Y52.4
G0 Y52.8 F10800
; TYPE:WALL-OUTER
G1 X120.34 Y52.74 E40.286 F900
G1 X119.7 Y52.57 E40.302
G1 X119.1 Y52.29 E40.317
G1 X118.55 Y51.91 E40.333
G1 X118.09 Y51.45 E40.349
G1 X117.71 Y50.9 E40.365
G1 X117.43 Y50.3 E40.38
G1 X117.26 Y49.66 E40.396
G1 X117.2 Y49 E40.412
G1 X117.26 Y48.34 E40.427
G1 X117.43 Y47.7 E40.443
G1 X117.71 Y47.1 E40.459
G1 X118.09 Y46.55 E40.474
G1 X118.55 Y46.09 E40.49
G1 X119.1 Y45.71 E40.506
G1 X119.7 Y45.43 E40.521
G1 X120.34 Y45.26 E40.537
G1 X121 Y45.2 E40.553
G1 X121.66 Y45.26 E40.568
G1 X122.3 Y45.43 E40.584
G1 X122.9 Y45.71 E40.6
G1 X123.45 Y46.09 E40.616
G1 X123.91 Y46.55 E40.631
G1 X124.29 Y47.1 E40.647
G1 X124.57 Y47.7 E40.663
G1 X124.74 Y48.34 E40.678
G1 X124.8 Y49 E40.694
G1 X124.74 Y49.66 E40.71
G1 X124.57 Y50.3 E40.726
G1 X124.29 Y50.9 E40.741
G1 X123.91 Y51.45 E40.757
G1 X123.45 Y51.91 E40.772
G1 X122.9 Y52.29 E40.788
G1 X122.3 Y52.57 E40.804
G1 X121.66 Y52.74 E40.82
G1 X121.12 Y52.79 E40.832
G0 X121 Y52.8
G0 X120.34 Y52.74
G0 X119.7 Y52.57
G0 X119.1 Y52.29
G0 X118.55 Y51.91
G0 X118.31 Y51.66
G0 X121 Y52 F10800
G0 X123.06 Y50.73
; TYPE:FILL
G1 X123.65 Y48.53 E40.887 F4800
G0 X123.36 Y47.7 F10800
G1 X118.31 Y49.05 E41.01 F4800
; Layer Change GCode
; LAYER:7
; LAYER_HEIGHT:0.15
; TYPE:FILL
G0 X121 Y52 Z1.25 F10800
; TYPE:WALL-INNER
G1 X120.48 Y51.95 E41.023 F900
G1 X119.97 Y51.81 E41.035
G1 X119.51 Y51.6 E41.047
G1 X119.07 Y51.29 E41.06
G1 X118.71 Y50.93 E41.072
G1 X118.4 Y50.49 E41.085
G1 X118.19 Y50.03 E41.097
G1 X118.05 Y49.52 E41.109
G1 X118 Y49 E41.122
G1 X118.05 Y48.48 E41.134
G1 X118.18 Y47.98 E41.147
G1 X118.41 Y47.5 E41.159
G1 X118.71 Y47.07 E41.171
G1 X119.07 Y46.71 E41.184
G1 X119.51 Y46.4 E41.196
G1 X119.97 Y46.19 E41.208
G1 X120.48 Y46.05 E41.221
G1 X121 Y46 E41.233
G1 X121.52 Y46.05 E41.246
G1 X122.03 Y46.19 E41.258
G1 X122.49 Y46.4 E41.27
G1 X122.93 Y46.71 E41.283
G1 X123.29 Y47.07 E41.295
G1 X123.6 Y47.51 E41.308
G1 X123.81 Y47.97 E41.32
G1 X123.95 Y48.48 E41.332
G1 X124 Y49 E41.345
G1 X123.95 Y49.52 E41.357
G1 X123.81 Y50.03 E41.369
G1 X123.6 Y50.49 E41.382
G1 X123.29 Y50.93 E41.394
G1 X122.93 Y51.29 E41.406
G1 X122.49 Y51.6 E41.419
G1 X122.03 Y51.81 E41.431
G1 X121.52 Y51.95 E41.444
G1 X121.12 Y51.99 E41.453
G0 X121 Y52
G0 Y52.4 F10800
G1 X120.41 Y52.35 E41.467 F900
G1 X119.84 Y52.19 E41.481
G1 X119.3 Y51.94 E41.495
G1 X118.81 Y51.6 E41.509
G1 X118.4 Y51.19 E41.523
G1 X118.06 Y50.7 E41.537
G1 X117.81 Y50.16 E41.551
G1 X117.65 Y49.59 E41.565
G1 X117.6 Y49 E41.579
G1 X117.65 Y48.41 E41.594
G1 X117.81 Y47.84 E41.608
G1 X118.06 Y47.3 E41.622
G1 X118.4 Y46.82 E41.636
G1 X118.81 Y46.4 E41.65
G1 X119.3 Y46.06 E41.664
G1 X119.84 Y45.81 E41.678
G1 X120.41 Y45.65 E41.692
G1 X121 Y45.6 E41.706
G1 X121.59 Y45.65 E41.72
G1 X122.16 Y45.81 E41.734
G1 X122.7 Y46.06 E41.748
G1 X123.19 Y46.4 E41.762
G1 X123.6 Y46.81 E41.776
G1 X123.94 Y47.3 E41.79
G1 X124.19 Y47.84 E41.804
G1 X124.35 Y48.41 E41.818
G1 X124.4 Y49 E41.832
G1 X124.35 Y49.59 E41.846
G1 X124.19 Y50.16 E41.86
G1 X123.94 Y50.7 E41.874
G1 X123.6 Y51.19 E41.888
G1 X123.19 Y51.6 E41.902
G1 X122.7 Y51.94 E41.916
G1 X122.16 Y52.19 E41.93
G1 X121.59 Y52.35 E41.944
G1 X121.12 Y52.39 E41.956
G0 X121 Y52.4
G0 Y52.8 F10800
; TYPE:WALL-OUTER
G1 X120.34 Y52.74 E41.971 F900
G1 X119.7 Y52.57 E41.987
G1 X119.1 Y52.29 E42.003
G1 X118.55 Y51.91 E42.018
G1 X118.09 Y51.45 E42.034
G1 X117.71 Y50.9 E42.05
G1 X117.43 Y50.3 E42.065
G1 X117.26 Y49.66 E42.081
G1 X117.2 Y49 E42.097
G1 X117.26 Y48.34 E42.112
G1 X117.43 Y47.7 E42.128
G1 X117.71 Y47.1 E42.144
G1 X118.09 Y46.55 E42.16
G1 X118.55 Y46.09 E42.175
G1 X119.1 Y45.71 E42.191
G1 X119.7 Y45.43 E42.207
G1 X120.34 Y45.26 E42.222
G1 X121 Y45.2 E42.238
G1 X121.66 Y45.26 E42.254
G1 X122.3 Y45.43 E42.27
G1 X122.9 Y45.71 E42.285
G1 X123.45 Y46.09 E42.301
G1 X123.91 Y46.55 E42.316
G1 X124.29 Y47.1 E42.332
G1 X124.57 Y47.7 E42.348
G1 X124.74 Y48.34 E42.364
G1 X124.8 Y49 E42.379
G1 X124.74 Y49.66 E42.395
G1 X124.57 Y50.3 E42.411
G1 X124.29 Y50.9 E42.426
G1 X123.91 Y51.45 E42.442
G1 X123.45 Y51.91 E42.458
G1 X122.9 Y52.29 E42.474
G1 X122.3 Y52.57 E42.489
G1 X121.66 Y52.74 E42.505
G1 X121.12 Y52.79 E42.518
G0 X121 Y52.8
G0 X120.34 Y52.74
G0 X119.7 Y52.57
G0 X119.1 Y52.29
G0 X118.55 Y51.91
G0 X118.31 Y51.66
G0 X121 Y52 F10800
G0 X123.06 Y50.73
; TYPE:FILL
G1 X123.65 Y48.53 E42.572 F3600
G0 X123.36 Y47.7 F10800
G1 X118.31 Y49.05 E42.696 F3600
; Layer Change GCode
; LAYER:8
; LAYER_HEIGHT:0.15
; TYPE:FILL
G0 X121 Y52 Z1.4 F10800
; TYPE:WALL-INNER
G1 X120.48 Y51.95 E42.708 F900
G1 X119.97 Y51.81 E42.72
G1 X119.5 Y51.59 E42.733
G1 X119.07 Y51.29 E42.745
G1 X118.7 Y50.92 E42.758
G1 X118.4 Y50.5 E42.77
G1 X118.18 Y50.02 E42.782
G1 X118.05 Y49.52 E42.795
G1 X118 Y49 E42.807
G1 X118.05 Y48.48 E42.819
G1 X118.19 Y47.97 E42.832
G1 X118.41 Y47.5 E42.844
G1 X118.71 Y47.07 E42.857
G1 X119.08 Y46.7 E42.869
G1 X119.5 Y46.4 E42.881
G1 X119.98 Y46.18 E42.894
G1 X120.48 Y46.05 E42.906
G1 X121 Y46 E42.918
G1 X121.52 Y46.05 E42.931
G1 X122.03 Y46.19 E42.943
G1 X122.5 Y46.41 E42.956
G1 X122.93 Y46.71 E42.968
G1 X123.3 Y47.08 E42.98
G1 X123.6 Y47.5 E42.993
G1 X123.82 Y47.98 E43.005
G1 X123.95 Y48.48 E43.018
G1 X124 Y49 E43.03
G1 X123.95 Y49.52 E43.042
G1 X123.81 Y50.03 E43.055
G1 X123.59 Y50.5 E43.067
G1 X123.29 Y50.93 E43.079
G1 X122.92 Y51.3 E43.092
G1 X122.5 Y51.6 E43.104
G1 X122.02 Y51.82 E43.117
G1 X121.52 Y51.95 E43.129
G1 X121.12 Y51.98 E43.138
G0 X121 Y52
G0 X121 Y52.4 F10800
G1 X120.4 Y52.34 E43.153 F900
G1 X119.84 Y52.19 E43.166
G1 X119.29 Y51.94 E43.181
G1 X118.82 Y51.6 E43.194
G1 X118.39 Y51.18 E43.209
G1 X118.06 Y50.7 E43.223
G1 X117.81 Y50.16 E43.237
G1 X117.65 Y49.59 E43.251
G1 X117.6 Y49 E43.265
G1 X117.66 Y48.4 E43.279
G1 X117.81 Y47.84 E43.293
G1 X118.06 Y47.3 E43.307
G1 X118.4 Y46.81 E43.321
G1 X118.82 Y46.39 E43.335
G1 X119.3 Y46.06 E43.349
G1 X119.84 Y45.81 E43.363
G1 X120.41 Y45.65 E43.377
G1 X121 Y45.6 E43.391
G1 X121.6 Y45.66 E43.405
G1 X122.16 Y45.81 E43.419
G1 X122.71 Y46.06 E43.433
G1 X123.18 Y46.4 E43.447
G1 X123.61 Y46.82 E43.461
G1 X123.94 Y47.3 E43.475
G1 X124.19 Y47.84 E43.489
G1 X124.35 Y48.41 E43.503
G1 X124.4 Y49 E43.517
G1 X124.34 Y49.6 E43.531
G1 X124.19 Y50.16 E43.545
G1 X123.94 Y50.71 E43.56
G1 X123.6 Y51.18 E43.573
G1 X123.18 Y51.61 E43.588
G1 X122.7 Y51.94 E43.602
G1 X122.16 Y52.19 E43.615
G1 X121.59 Y52.35 E43.63
G1 X121.12 Y52.39 E43.641
G0 X121 Y52.4
G0 Y52.8 F10800
; TYPE:WALL-OUTER
G1 X120.34 Y52.74 E43.656 F900
G1 X119.7 Y52.57 E43.672
G1 X119.1 Y52.29 E43.688
G1 X118.55 Y51.91 E43.704
G1 X118.09 Y51.44 E43.719
G1 X117.71 Y50.89 E43.735
G1 X117.43 Y50.3 E43.751
G1 X117.26 Y49.65 E43.766
G1 X117.2 Y49 E43.782
G1 X117.26 Y48.34 E43.798
G1 X117.43 Y47.69 E43.813
G1 X117.71 Y47.1 E43.829
G1 X118.09 Y46.55 E43.845
G1 X118.56 Y46.09 E43.861
G1 X119.11 Y45.71 E43.876
G1 X119.7 Y45.43 E43.892
G1 X120.35 Y45.26 E43.908
G1 X121 Y45.2 E43.923
G1 X121.66 Y45.26 E43.939
G1 X122.3 Y45.43 E43.955
G1 X122.9 Y45.71 E43.97
G1 X123.45 Y46.09 E43.986
G1 X123.91 Y46.56 E44.002
G1 X124.29 Y47.11 E44.018
G1 X124.57 Y47.7 E44.033
G1 X124.74 Y48.35 E44.049
G1 X124.8 Y49 E44.065
G1 X124.74 Y49.66 E44.08
G1 X124.57 Y50.3 E44.096
G1 X124.29 Y50.9 E44.112
G1 X123.91 Y51.45 E44.127
G1 X123.44 Y51.91 E44.143
G1 X122.89 Y52.29 E44.159
G1 X122.3 Y52.57 E44.174
G1 X121.65 Y52.74 E44.19
G1 X121.12 Y52.79 E44.203
G0 X121 Y52.8
G0 X120.34 Y52.74
G0 X119.7 Y52.57
G0 X119.1 Y52.29
G0 X118.55 Y51.91
G0 X118.3 Y51.66
G0 X121 Y52 F10800
G0 X123.06 Y50.73
; TYPE:FILL
G1 X123.65 Y48.53 E44.257 F2442
G0 X123.36 Y47.7 F10800
G1 X120.83 Y48.37 E44.319 F2442
G1 X118.31 Y49.05 E44.381
; Layer Change GCode
; LAYER:9
; LAYER_HEIGHT:0.15
; TYPE:FILL
G0 X121 Y52 Z1.55 F10800
; TYPE:WALL-INNER
G1 X120.48 Y51.95 E44.393 F900
G1 X119.97 Y51.81 E44.406
G1 X119.51 Y51.6 E44.418
G1 X119.07 Y51.29 E44.43
G1 X118.71 Y50.93 E44.443
G1 X118.4 Y50.49 E44.455
G1 X118.19 Y50.03 E44.467
G1 X118.05 Y49.52 E44.48
G1 X118 Y49 E44.492
G1 X118.05 Y48.48 E44.505
G1 X118.18 Y47.98 E44.517
G1 X118.41 Y47.5 E44.529
G1 X118.71 Y47.07 E44.542
G1 X119.07 Y46.71 E44.554
G1 X119.51 Y46.4 E44.567
G1 X119.97 Y46.19 E44.579
G1 X120.48 Y46.05 E44.591
G1 X121 Y46 E44.604
G1 X121.52 Y46.05 E44.616
G1 X122.03 Y46.19 E44.628
G1 X122.49 Y46.4 E44.641
G1 X122.93 Y46.71 E44.653
G1 X123.29 Y47.07 E44.665
G1 X123.6 Y47.51 E44.678
G1 X123.81 Y47.97 E44.69
G1 X123.95 Y48.48 E44.703
G1 X124 Y49 E44.715
G1 X123.95 Y49.52 E44.727
G1 X123.81 Y50.03 E44.74
G1 X123.6 Y50.49 E44.752
G1 X123.29 Y50.93 E44.765
G1 X122.93 Y51.29 E44.777
G1 X122.49 Y51.6 E44.789
G1 X122.03 Y51.81 E44.802
G1 X121.52 Y51.95 E44.814
G1 X121.12 Y51.99 E44.824
G0 X121 Y52
G0 Y52.4 F10800
G1 X120.41 Y52.35 E44.838 F900
G1 X119.84 Y52.19 E44.852
G1 X119.3 Y51.94 E44.866
G1 X118.81 Y51.6 E44.88
G1 X118.4 Y51.19 E44.894
G1 X118.06 Y50.7 E44.908
G1 X117.81 Y50.16 E44.922
G1 X117.65 Y49.59 E44.936
G1 X117.6 Y49 E44.95
G1 X117.65 Y48.41 E44.964
G1 X117.81 Y47.84 E44.978
G1 X118.06 Y47.3 E44.992
G1 X118.4 Y46.82 E45.006
G1 X118.81 Y46.4 E45.02
G1 X119.3 Y46.06 E45.034
G1 X119.84 Y45.81 E45.048
G1 X120.41 Y45.65 E45.062
G1 X121 Y45.6 E45.076
G1 X121.59 Y45.65 E45.09
G1 X122.16 Y45.81 E45.104
G1 X122.7 Y46.06 E45.118
G1 X123.19 Y46.4 E45.132
G1 X123.6 Y46.81 E45.146
G1 X123.94 Y47.3 E45.16
G1 X124.19 Y47.84 E45.175
G1 X124.35 Y48.41 E45.188
G1 X124.4 Y49 E45.203
G1 X124.35 Y49.59 E45.217
G1 X124.19 Y50.16 E45.231
G1 X123.94 Y50.7 E45.245
G1 X123.6 Y51.19 E45.259
G1 X123.19 Y51.6 E45.273
G1 X122.7 Y51.94 E45.287
G1 X122.16 Y52.19 E45.301
G1 X121.59 Y52.35 E45.315
G1 X121.12 Y52.39 E45.326
G0 X121 Y52.4
G0 Y52.8 F10800
; TYPE:WALL-OUTER
G1 X120.34 Y52.74 E45.342 F900
G1 X119.7 Y52.57 E45.357
G1 X119.1 Y52.29 E45.373
G1 X118.55 Y51.91 E45.389
G1 X118.09 Y51.45 E45.404
G1 X117.71 Y50.9 E45.42
G1 X117.43 Y50.3 E45.436
G1 X117.26 Y49.66 E45.452
G1 X117.2 Y49 E45.467
G1 X117.26 Y48.34 E45.483
G1 X117.43 Y47.7 E45.499
G1 X117.71 Y47.1 E45.514
G1 X118.09 Y46.55 E45.53
G1 X118.55 Y46.09 E45.546
G1 X119.1 Y45.71 E45.562
G1 X119.7 Y45.43 E45.577
G1 X120.34 Y45.26 E45.593
G1 X121 Y45.2 E45.609
G1 X121.66 Y45.26 E45.624
G1 X122.3 Y45.43 E45.64
G1 X122.9 Y45.71 E45.655
G1 X123.45 Y46.09 E45.671
G1 X123.91 Y46.55 E45.687
G1 X124.29 Y47.1 E45.703
G1 X124.57 Y47.7 E45.718
G1 X124.74 Y48.34 E45.734
G1 X124.8 Y49 E45.75
G1 X124.74 Y49.66 E45.765
G1 X124.57 Y50.3 E45.781
G1 X124.29 Y50.9 E45.797
G1 X123.91 Y51.45 E45.813
G1 X123.45 Y51.91 E45.828
G1 X122.9 Y52.29 E45.844
G1 X122.3 Y52.57 E45.86
G1 X121.66 Y52.74 E45.875
G1 X121.12 Y52.79 E45.888
G0 X121 Y52.8
G0 X120.34 Y52.74
G0 X119.7 Y52.57
G0 X119.1 Y52.29
G0 X118.55 Y51.91
G0 X118.31 Y51.66
G0 X121 Y52 F10800
G0 X123.06 Y50.73
; TYPE:FILL
G1 X123.65 Y48.53 E45.942 F1242
G0 X123.36 Y47.7 F10800
G1 X120.83 Y48.37 E46.004 F1242
G1 X118.31 Y49.05 E46.066
; Layer Change GCode
; LAYER:10
; LAYER_HEIGHT:0.15
; TYPE:FILL
G0 X121 Y52 Z1.7 F10800
; TYPE:WALL-INNER
G1 X120.48 Y51.95 E46.078 F900
G1 X119.97 Y51.81 E46.091
G1 X119.51 Y51.6 E46.103
G1 X119.07 Y51.29 E46.116
G1 X118.71 Y50.93 E46.128
G1 X118.4 Y50.49 E46.14
G1 X118.19 Y50.03 E46.153
G1 X118.05 Y49.52 E46.165
G1 X118 Y49 E46.178
G1 X118.05 Y48.48 E46.19
G1 X118.18 Y47.98 E46.202
G1 X118.41 Y47.5 E46.215
G1 X118.71 Y47.07 E46.227
G1 X119.07 Y46.71 E46.239
G1 X119.51 Y46.4 E46.252
G1 X119.97 Y46.19 E46.264
G1 X120.48 Y46.05 E46.277
G1 X121 Y46 E46.289
G1 X121.52 Y46.05 E46.301
G1 X122.03 Y46.19 E46.314
G1 X122.49 Y46.4 E46.326
G1 X122.93 Y46.71 E46.338
G1 X123.29 Y47.07 E46.351
G1 X123.6 Y47.51 E46.363
G1 X123.81 Y47.97 E46.375
G1 X123.95 Y48.48 E46.388
G1 X124 Y49 E46.4
G1 X123.95 Y49.52 E46.413
G1 X123.81 Y50.03 E46.425
G1 X123.6 Y50.49 E46.437
G1 X123.29 Y50.93 E46.45
G1 X122.93 Y51.29 E46.462
G1 X122.49 Y51.6 E46.475
G1 X122.03 Y51.81 E46.487
G1 X121.52 Y51.95 E46.499
G1 X121.12 Y51.99 E46.509
G0 X121 Y52
G0 Y52.4 F10800
G1 X120.41 Y52.35 E46.523 F900
G1 X119.84 Y52.19 E46.537
G1 X119.3 Y51.94 E46.551
G1 X118.81 Y51.6 E46.565
G1 X118.4 Y51.19 E46.579
G1 X118.06 Y50.7 E46.593
G1 X117.81 Y50.16 E46.607
G1 X117.65 Y49.59 E46.621
G1 X117.6 Y49 E46.635
G1 X117.65 Y48.41 E46.649
G1 X117.81 Y47.84 E46.663
G1 X118.06 Y47.3 E46.677
G1 X118.4 Y46.82 E46.691
G1 X118.81 Y46.4 E46.705
G1 X119.3 Y46.06 E46.719
G1 X119.84 Y45.81 E46.733
G1 X120.41 Y45.65 E46.747
G1 X121 Y45.6 E46.762
G1 X121.59 Y45.65 E46.776
G1 X122.16 Y45.81 E46.79
G1 X122.7 Y46.06 E46.804
G1 X123.19 Y46.4 E46.818
G1 X123.6 Y46.81 E46.832
G1 X123.94 Y47.3 E46.846
G1 X124.19 Y47.84 E46.86
G1 X124.35 Y48.41 E46.874
G1 X124.4 Y49 E46.888
G1 X124.35 Y49.59 E46.902
G1 X124.19 Y50.16 E46.916
G1 X123.94 Y50.7 E46.93
G1 X123.6 Y51.19 E46.944
G1 X123.19 Y51.6 E46.958
G1 X122.7 Y51.94 E46.972
G1 X122.16 Y52.19 E46.986
G1 X121.59 Y52.35 E47
G1 X121.12 Y52.39 E47.011
G0 X121 Y52.4
G0 Y52.8 F10800
; TYPE:WALL-OUTER
G1 X120.34 Y52.74 E47.027 F900
G1 X119.7 Y52.57 E47.043
G1 X119.1 Y52.29 E47.058
G1 X118.55 Y51.91 E47.074
G1 X118.09 Y51.45 E47.09
G1 X117.71 Y50.9 E47.106
G1 X117.43 Y50.3 E47.121
G1 X117.26 Y49.66 E47.137
G1 X117.2 Y49 E47.153
G1 X117.26 Y48.34 E47.168
G1 X117.43 Y47.7 E47.184
G1 X117.71 Y47.1 E47.2
G1 X118.09 Y46.55 E47.215
G1 X118.55 Y46.09 E47.231
G1 X119.1 Y45.71 E47.247
G1 X119.7 Y45.43 E47.262
G1 X120.34 Y45.26 E47.278
G1 X121 Y45.2 E47.294
G1 X121.66 Y45.26 E47.309
G1 X122.3 Y45.43 E47.325
G1 X122.9 Y45.71 E47.341
G1 X123.45 Y46.09 E47.357
G1 X123.91 Y46.55 E47.372
G1 X124.29 Y47.1 E47.388
G1 X124.57 Y47.7 E47.404
G1 X124.74 Y48.34 E47.419
G1 X124.8 Y49 E47.435
G1 X124.74 Y49.66 E47.451
G1 X124.57 Y50.3 E47.466
G1 X124.29 Y50.9 E47.482
G1 X123.91 Y51.45 E47.498
G1 X123.45 Y51.91 E47.513
G1 X122.9 Y52.29 E47.529
G1 X122.3 Y52.57 E47.545
G1 X121.66 Y52.74 E47.561
G1 X121.12 Y52.79 E47.573
G0 X121 Y52.8
G0 X120.34 Y52.74
G0 X119.7 Y52.57
G0 X119.1 Y52.29
G0 X118.55 Y51.91
G0 X118.31 Y51.66
G0 X121 Y52 F10800
G0 X123.06 Y50.73
; TYPE:FILL
G1 X123.65 Y48.53 E47.628 F1242
G0 X123.36 Y47.7 F10800
G1 X120.83 Y48.37 E47.689 F1242
G1 X118.31 Y49.05 E47.751
; Layer Change GCode
; LAYER:11
; LAYER_HEIGHT:0.15
; TYPE:FILL
G0 X121 Y52 Z1.85 F10800
; TYPE:WALL-INNER
G1 X120.48 Y51.95 E47.764 F900
G1 X119.97 Y51.81 E47.776
G1 X119.51 Y51.6 E47.788
G1 X119.07 Y51.29 E47.801
G1 X118.71 Y50.93 E47.813
G1 X118.4 Y50.49 E47.826
G1 X118.19 Y50.03 E47.838
G1 X118.05 Y49.52 E47.85
G1 X118 Y49 E47.863
G1 X118.05 Y48.48 E47.875
G1 X118.18 Y47.98 E47.888
G1 X118.41 Y47.5 E47.9
G1 X118.71 Y47.07 E47.912
G1 X119.07 Y46.71 E47.925
G1 X119.51 Y46.4 E47.937
G1 X119.97 Y46.19 E47.949
G1 X120.48 Y46.05 E47.962
G1 X121 Y46 E47.974
G1 X121.52 Y46.05 E47.987
G1 X122.03 Y46.19 E47.999
G1 X122.49 Y46.4 E48.011
G1 X122.93 Y46.71 E48.024
G1 X123.29 Y47.07 E48.036
G1 X123.6 Y47.51 E48.049
G1 X123.81 Y47.97 E48.061
G1 X123.95 Y48.48 E48.073
G1 X124 Y49 E48.086
G1 X123.95 Y49.52 E48.098
G1 X123.81 Y50.03 E48.11
G1 X123.6 Y50.49 E48.123
G1 X123.29 Y50.93 E48.135
G1 X122.93 Y51.29 E48.147
G1 X122.49 Y51.6 E48.16
G1 X122.03 Y51.81 E48.172
G1 X121.52 Y51.95 E48.185
G1 X121.12 Y51.99 E48.194
G0 X121 Y52
G0 Y52.4 F10800
G1 X120.41 Y52.35 E48.208 F900
G1 X119.84 Y52.19 E48.222
G1 X119.3 Y51.94 E48.236
G1 X118.81 Y51.6 E48.25
G1 X118.4 Y51.19 E48.264
G1 X118.06 Y50.7 E48.278
G1 X117.81 Y50.16 E48.292
G1 X117.65 Y49.59 E48.306
G1 X117.6 Y49 E48.32
G1 X117.65 Y48.41 E48.335
G1 X117.81 Y47.84 E48.348
G1 X118.06 Y47.3 E48.363
G1 X118.4 Y46.82 E48.377
G1 X118.81 Y46.4 E48.391
G1 X119.3 Y46.06 E48.405
G1 X119.84 Y45.81 E48.419
G1 X120.41 Y45.65 E48.433
G1 X121 Y45.6 E48.447
G1 X121.59 Y45.65 E48.461
G1 X122.16 Y45.81 E48.475
G1 X122.7 Y46.06 E48.489
G1 X123.19 Y46.4 E48.503
G1 X123.6 Y46.81 E48.517
G1 X123.94 Y47.3 E48.531
G1 X124.19 Y47.84 E48.545
G1 X124.35 Y48.41 E48.559
G1 X124.4 Y49 E48.573
G1 X124.35 Y49.59 E48.587
G1 X124.19 Y50.16 E48.601
G1 X123.94 Y50.7 E48.615
G1 X123.6 Y51.19 E48.629
G1 X123.19 Y51.6 E48.643
G1 X122.7 Y51.94 E48.657
G1 X122.16 Y52.19 E48.671
G1 X121.59 Y52.35 E48.685
G1 X121.12 Y52.39 E48.697
G0 X121 Y52.4
G0 Y52.8 F10800
; TYPE:WALL-OUTER
G1 X120.34 Y52.74 E48.712 F900
G1 X119.7 Y52.57 E48.728
G1 X119.1 Y52.29 E48.744
G1 X118.55 Y51.91 E48.759
G1 X118.09 Y51.45 E48.775
G1 X117.71 Y50.9 E48.791
G1 X117.43 Y50.3 E48.806
G1 X117.26 Y49.66 E48.822
G1 X117.2 Y49 E48.838
G1 X117.26 Y48.34 E48.853
G1 X117.43 Y47.7 E48.869
G1 X117.71 Y47.1 E48.885
G1 X118.09 Y46.55 E48.901
G1 X118.55 Y46.09 E48.916
G1 X119.1 Y45.71 E48.932
G1 X119.7 Y45.43 E48.948
G1 X120.34 Y45.26 E48.963
G1 X121 Y45.2 E48.979
G1 X121.66 Y45.26 E48.995
G1 X122.3 Y45.43 E49.011
G1 X122.9 Y45.71 E49.026
G1 X123.45 Y46.09 E49.042
G1 X123.91 Y46.55 E49.057
G1 X124.29 Y47.1 E49.073
G1 X124.57 Y47.7 E49.089
G1 X124.74 Y48.34 E49.105
G1 X124.8 Y49 E49.12
G1 X124.74 Y49.66 E49.136
G1 X124.57 Y50.3 E49.152
G1 X124.29 Y50.9 E49.167
G1 X123.91 Y51.45 E49.183
G1 X123.45 Y51.91 E49.199
G1 X122.9 Y52.29 E49.215
G1 X122.3 Y52.57 E49.23
G1 X121.66 Y52.74 E49.246
G1 X121.12 Y52.79 E49.259
G0 X121 Y52.8
G0 X120.34 Y52.74
G0 X119.7 Y52.57
G0 X119.1 Y52.29
G0 X118.55 Y51.91
G0 X118.31 Y51.66
G0 X121 Y52 F10800
G0 X123.06 Y50.73
; TYPE:FILL
G1 X123.65 Y48.53 E49.313 F1242
G0 X123.36 Y47.7 F10800
G1 X120.83 Y48.37 E49.375 F1242
G1 X118.31 Y49.05 E49.437
; Layer Change GCode
; LAYER:12
; LAYER_HEIGHT:0.15
; TYPE:FILL
G0 X121 Y52 Z2 F10800
; TYPE:WALL-INNER
G1 X120.48 Y51.95 E49.449 F900
G1 X119.97 Y51.81 E49.461
G1 X119.51 Y51.6 E49.474
G1 X119.07 Y51.29 E49.486
G1 X118.71 Y50.93 E49.498
G1 X118.4 Y50.49 E49.511
G1 X118.19 Y50.03 E49.523
G1 X118.05 Y49.52 E49.536
G1 X118 Y49 E49.548
G1 X118.05 Y48.48 E49.56
G1 X118.18 Y47.98 E49.573
G1 X118.41 Y47.5 E49.585
G1 X118.71 Y47.07 E49.598
G1 X119.07 Y46.71 E49.61
G1 X119.51 Y46.4 E49.622
G1 X119.97 Y46.19 E49.635
G1 X120.48 Y46.05 E49.647
G1 X121 Y46 E49.659
G1 X121.52 Y46.05 E49.672
G1 X122.03 Y46.19 E49.684
G1 X122.49 Y46.4 E49.696
G1 X122.93 Y46.71 E49.709
G1 X123.29 Y47.07 E49.721
G1 X123.6 Y47.51 E49.734
G1 X123.81 Y47.97 E49.746
G1 X123.95 Y48.48 E49.759
G1 X124 Y49 E49.771
G1 X123.95 Y49.52 E49.783
G1 X123.81 Y50.03 E49.796
G1 X123.6 Y50.49 E49.808
G1 X123.29 Y50.93 E49.82
G1 X122.93 Y51.29 E49.833
G1 X122.49 Y51.6 E49.845
G1 X122.03 Y51.81 E49.857
G1 X121.52 Y51.95 E49.87
G1 X121.12 Y51.99 E49.879
G0 X121 Y52
G0 Y52.4 F10800
G1 X120.41 Y52.35 E49.894 F900
G1 X119.84 Y52.19 E49.907
G1 X119.3 Y51.94 E49.921
G1 X118.81 Y51.6 E49.936
G1 X118.4 Y51.19 E49.949
G1 X118.06 Y50.7 E49.964
G1 X117.81 Y50.16 E49.978
G1 X117.65 Y49.59 E49.992
G1 X117.6 Y49 E50.006
G1 X117.65 Y48.41 E50.02
G1 X117.81 Y47.84 E50.034
G1 X118.06 Y47.3 E50.048
G1 X118.4 Y46.82 E50.062
G1 X118.81 Y46.4 E50.076
G1 X119.3 Y46.06 E50.09
G1 X119.84 Y45.81 E50.104
G1 X120.41 Y45.65 E50.118
G1 X121 Y45.6 E50.132
G1 X121.59 Y45.65 E50.146
G1 X122.16 Y45.81 E50.16
G1 X122.7 Y46.06 E50.174
G1 X123.19 Y46.4 E50.188
G1 X123.6 Y46.81 E50.202
G1 X123.94 Y47.3 E50.216
G1 X124.19 Y47.84 E50.23
G1 X124.35 Y48.41 E50.244
G1 X124.4 Y49 E50.258
G1 X124.35 Y49.59 E50.272
G1 X124.19 Y50.16 E50.286
G1 X123.94 Y50.7 E50.3
G1 X123.6 Y51.19 E50.315
G1 X123.19 Y51.6 E50.328
G1 X122.7 Y51.94 E50.343
G1 X122.16 Y52.19 E50.357
G1 X121.59 Y52.35 E50.371
G1 X121.12 Y52.39 E50.382
G0 X121 Y52.4
G0 Y52.8 F10800
; TYPE:WALL-OUTER
G1 X120.34 Y52.74 E50.397 F900
G1 X119.7 Y52.57 E50.413
G1 X119.1 Y52.29 E50.429
G1 X118.55 Y51.91 E50.445
G1 X118.09 Y51.45 E50.46
G1 X117.71 Y50.9 E50.476
G1 X117.43 Y50.3 E50.492
G1 X117.26 Y49.66 E50.507
G1 X117.2 Y49 E50.523
G1 X117.26 Y48.34 E50.539
G1 X117.43 Y47.7 E50.555
G1 X117.71 Y47.1 E50.57
G1 X118.09 Y46.55 E50.586
G1 X118.55 Y46.09 E50.601
G1 X119.1 Y45.71 E50.617
G1 X119.7 Y45.43 E50.633
G1 X120.34 Y45.26 E50.649
G1 X121 Y45.2 E50.664
G1 X121.66 Y45.26 E50.68
G1 X122.3 Y45.43 E50.696
G1 X122.9 Y45.71 E50.711
G1 X123.45 Y46.09 E50.727
G1 X123.91 Y46.55 E50.743
G1 X124.29 Y47.1 E50.759
G1 X124.57 Y47.7 E50.774
G1 X124.74 Y48.34 E50.79
G1 X124.8 Y49 E50.806
G1 X124.74 Y49.66 E50.821
G1 X124.57 Y50.3 E50.837
G1 X124.29 Y50.9 E50.853
G1 X123.91 Y51.45 E50.869
G1 X123.45 Y51.91 E50.884
G1 X122.9 Y52.29 E50.9
G1 X122.3 Y52.57 E50.915
G1 X121.66 Y52.74 E50.931
G1 X121.12 Y52.79 E50.944
G0 X121 Y52.8
G0 X120.34 Y52.74
G0 X119.7 Y52.57
G0 X119.1 Y52.29
G0 X118.55 Y51.91
G0 X118.31 Y51.66
G0 X121 Y52 F10800
G0 X123.06 Y50.73
; TYPE:FILL
G1 X123.65 Y48.53 E50.998 F1242
G0 X123.36 Y47.7 F10800
G1 X120.83 Y48.37 E51.06 F1242
G1 X118.31 Y49.05 E51.122
; Layer Change GCode
; LAYER:13
; LAYER_HEIGHT:0.15
; TYPE:FILL
G0 X121 Y52 Z2.15 F10800
; TYPE:WALL-INNER
G1 X120.48 Y51.95 E51.134 F900
G1 X119.97 Y51.81 E51.147
G1 X119.51 Y51.6 E51.159
G1 X119.07 Y51.29 E51.172
G1 X118.71 Y50.93 E51.184
G1 X118.4 Y50.49 E51.196
G1 X118.19 Y50.03 E51.208
G1 X118.05 Y49.52 E51.221
G1 X118 Y49 E51.233
G1 X118.05 Y48.48 E51.246
G1 X118.18 Y47.98 E51.258
G1 X118.41 Y47.5 E51.27
G1 X118.71 Y47.07 E51.283
G1 X119.07 Y46.71 E51.295
G1 X119.51 Y46.4 E51.308
G1 X119.97 Y46.19 E51.32
G1 X120.48 Y46.05 E51.332
G1 X121 Y46 E51.345
G1 X121.52 Y46.05 E51.357
G1 X122.03 Y46.19 E51.37
G1 X122.49 Y46.4 E51.382
G1 X122.93 Y46.71 E51.394
G1 X123.29 Y47.07 E51.407
G1 X123.6 Y47.51 E51.419
G1 X123.81 Y47.97 E51.431
G1 X123.95 Y48.48 E51.444
G1 X124 Y49 E51.456
G1 X123.95 Y49.52 E51.468
G1 X123.81 Y50.03 E51.481
G1 X123.6 Y50.49 E51.493
G1 X123.29 Y50.93 E51.506
G1 X122.93 Y51.29 E51.518
G1 X122.49 Y51.6 E51.531
G1 X122.03 Y51.81 E51.543
G1 X121.52 Y51.95 E51.555
G1 X121.12 Y51.99 E51.565
G0 X121 Y52
G0 Y52.4 F10800
G1 X120.41 Y52.35 E51.579 F900
G1 X119.84 Y52.19 E51.593
G1 X119.3 Y51.94 E51.607
G1 X118.81 Y51.6 E51.621
G1 X118.4 Y51.19 E51.635
G1 X118.06 Y50.7 E51.649
G1 X117.81 Y50.16 E51.663
G1 X117.65 Y49.59 E51.677
G1 X117.6 Y49 E51.691
G1 X117.65 Y48.41 E51.705
G1 X117.81 Y47.84 E51.719
G1 X118.06 Y47.3 E51.733
G1 X118.4 Y46.82 E51.747
G1 X118.81 Y46.4 E51.761
G1 X119.3 Y46.06 E51.775
G1 X119.84 Y45.81 E51.789
G1 X120.41 Y45.65 E51.803
G1 X121 Y45.6 E51.817
G1 X121.59 Y45.65 E51.831
G1 X122.16 Y45.81 E51.845
G1 X122.7 Y46.06 E51.859
G1 X123.19 Y46.4 E51.874
G1 X123.6 Y46.81 E51.887
G1 X123.94 Y47.3 E51.902
G1 X124.19 Y47.84 E51.916
G1 X124.35 Y48.41 E51.93
G1 X124.4 Y49 E51.944
G1 X124.35 Y49.59 E51.958
G1 X124.19 Y50.16 E51.972
G1 X123.94 Y50.7 E51.986
G1 X123.6 Y51.19 E52
G1 X123.19 Y51.6 E52.014
G1 X122.7 Y51.94 E52.028
G1 X122.16 Y52.19 E52.042
G1 X121.59 Y52.35 E52.056
G1 X121.12 Y52.39 E52.067
G0 X121 Y52.4
G0 Y52.8 F10800
; TYPE:WALL-OUTER
G1 X120.34 Y52.74 E52.083 F900
G1 X119.7 Y52.57 E52.099
G1 X119.1 Y52.29 E52.114
G1 X118.55 Y51.91 E52.13
G1 X118.09 Y51.45 E52.145
G1 X117.71 Y50.9 E52.161
G1 X117.43 Y50.3 E52.177
G1 X117.26 Y49.66 E52.193
G1 X117.2 Y49 E52.208
G1 X117.26 Y48.34 E52.224
G1 X117.43 Y47.7 E52.24
G1 X117.71 Y47.1 E52.255
G1 X118.09 Y46.55 E52.271
G1 X118.55 Y46.09 E52.287
G1 X119.1 Y45.71 E52.303
G1 X119.7 Y45.43 E52.318
G1 X120.34 Y45.26 E52.334
G1 X121 Y45.2 E52.35
G1 X121.66 Y45.26 E52.365
G1 X122.3 Y45.43 E52.381
G1 X122.9 Y45.71 E52.397
G1 X123.45 Y46.09 E52.413
G1 X123.91 Y46.55 E52.428
G1 X124.29 Y47.1 E52.444
G1 X124.57 Y47.7 E52.459
G1 X124.74 Y48.34 E52.475
G1 X124.8 Y49 E52.491
G1 X124.74 Y49.66 E52.507
G1 X124.57 Y50.3 E52.522
G1 X124.29 Y50.9 E52.538
G1 X123.91 Y51.45 E52.554
G1 X123.45 Y51.91 E52.569
G1 X122.9 Y52.29 E52.585
G1 X122.3 Y52.57 E52.601
G1 X121.66 Y52.74 E52.616
G1 X121.12 Y52.79 E52.629
G0 X121 Y52.8
G0 X120.34 Y52.74
G0 X119.7 Y52.57
G0 X119.1 Y52.29
G0 X118.55 Y51.91
G0 X118.31 Y51.66
G0 X121 Y52 F10800
G0 X123.06 Y50.73
; TYPE:FILL
G1 X123.65 Y48.53 E52.683 F1242
G0 X123.36 Y47.7 F10800
G1 X120.83 Y48.37 E52.745 F1242
G1 X118.31 Y49.05 E52.807
; Layer Change GCode
; LAYER:14
; LAYER_HEIGHT:0.15
; TYPE:FILL
G0 X121 Y52 Z2.3 F10800
; TYPE:WALL-INNER
G1 X120.48 Y51.95 E52.82 F900
G1 X119.97 Y51.81 E52.832
G1 X119.51 Y51.6 E52.844
G1 X119.07 Y51.29 E52.857
G1 X118.71 Y50.93 E52.869
G1 X118.4 Y50.49 E52.882
G1 X118.19 Y50.03 E52.894
G1 X118.05 Y49.52 E52.906
G1 X118 Y49 E52.919
G1 X118.05 Y48.48 E52.931
G1 X118.18 Y47.98 E52.943
G1 X118.41 Y47.5 E52.956
G1 X118.71 Y47.07 E52.968
G1 X119.07 Y46.71 E52.98
G1 X119.51 Y46.4 E52.993
G1 X119.97 Y46.19 E53.005
G1 X120.48 Y46.05 E53.018
G1 X121 Y46 E53.03
G1 X121.52 Y46.05 E53.042
G1 X122.03 Y46.19 E53.055
G1 X122.49 Y46.4 E53.067
G1 X122.93 Y46.71 E53.08
G1 X123.29 Y47.07 E53.092
G1 X123.6 Y47.51 E53.104
G1 X123.81 Y47.97 E53.117
G1 X123.95 Y48.48 E53.129
G1 X124 Y49 E53.141
G1 X123.95 Y49.52 E53.154
G1 X123.81 Y50.03 E53.166
G1 X123.6 Y50.49 E53.178
G1 X123.29 Y50.93 E53.191
G1 X122.93 Y51.29 E53.203
G1 X122.49 Y51.6 E53.216
G1 X122.03 Y51.81 E53.228
G1 X121.52 Y51.95 E53.24
G1 X121.12 Y51.99 E53.25
G0 X121 Y52
G0 Y52.4 F10800
G1 X120.41 Y52.35 E53.264 F900
G1 X119.84 Y52.19 E53.278
G1 X119.3 Y51.94 E53.292
G1 X118.81 Y51.6 E53.306
G1 X118.4 Y51.19 E53.32
G1 X118.06 Y50.7 E53.334
G1 X117.81 Y50.16 E53.348
G1 X117.65 Y49.59 E53.362
G1 X117.6 Y49 E53.376
G1 X117.65 Y48.41 E53.39
G1 X117.81 Y47.84 E53.404
G1 X118.06 Y47.3 E53.418
G1 X118.4 Y46.82 E53.432
G1 X118.81 Y46.4 E53.446
G1 X119.3 Y46.06 E53.461
G1 X119.84 Y45.81 E53.475
G1 X120.41 Y45.65 E53.488
G1 X121 Y45.6 E53.503
G1 X121.59 Y45.65 E53.517
G1 X122.16 Y45.81 E53.531
G1 X122.7 Y46.06 E53.545
G1 X123.19 Y46.4 E53.559
G1 X123.6 Y46.81 E53.573
G1 X123.94 Y47.3 E53.587
G1 X124.19 Y47.84 E53.601
G1 X124.35 Y48.41 E53.615
G1 X124.4 Y49 E53.629
G1 X124.35 Y49.59 E53.643
G1 X124.19 Y50.16 E53.657
G1 X123.94 Y50.7 E53.671
G1 X123.6 Y51.19 E53.685
G1 X123.19 Y51.6 E53.699
G1 X122.7 Y51.94 E53.713
G1 X122.16 Y52.19 E53.727
G1 X121.59 Y52.35 E53.741
G1 X121.12 Y52.39 E53.752
G0 X121 Y52.4
G0 Y52.8 F10800
; TYPE:WALL-OUTER
G1 X120.34 Y52.74 E53.768 F900
G1 X119.7 Y52.57 E53.784
G1 X119.1 Y52.29 E53.799
G1 X118.55 Y51.91 E53.815
G1 X118.09 Y51.45 E53.831
G1 X117.71 Y50.9 E53.847
G1 X117.43 Y50.3 E53.862
G1 X117.26 Y49.66 E53.878
G1 X117.2 Y49 E53.894
G1 X117.26 Y48.34 E53.909
G1 X117.43 Y47.7 E53.925
G1 X117.71 Y47.1 E53.941
G1 X118.09 Y46.55 E53.957
G1 X118.55 Y46.09 E53.972
G1 X119.1 Y45.71 E53.988
G1 X119.7 Y45.43 E54.003
G1 X120.34 Y45.26 E54.019
G1 X121 Y45.2 E54.035
G1 X121.66 Y45.26 E54.051
G1 X122.3 Y45.43 E54.066
G1 X122.9 Y45.71 E54.082
G1 X123.45 Y46.09 E54.098
G1 X123.91 Y46.55 E54.113
G1 X124.29 Y47.1 E54.129
G1 X124.57 Y47.7 E54.145
G1 X124.74 Y48.34 E54.16
G1 X124.8 Y49 E54.176
G1 X124.74 Y49.66 E54.192
G1 X124.57 Y50.3 E54.208
G1 X124.29 Y50.9 E54.223
G1 X123.91 Y51.45 E54.239
G1 X123.45 Y51.91 E54.255
G1 X122.9 Y52.29 E54.27
G1 X122.3 Y52.57 E54.286
G1 X121.66 Y52.74 E54.302
G1 X121.12 Y52.79 E54.315
G0 X121 Y52.8
G0 X120.34 Y52.74
G0 X119.7 Y52.57
G0 X119.1 Y52.29
G0 X118.55 Y51.91
G0 X118.31 Y51.66
G0 X121 Y52 F10800
G0 X123.06 Y50.73
; TYPE:FILL
G1 X123.65 Y48.53 E54.369 F1242
G0 X123.36 Y47.7 F10800
G1 X120.83 Y48.37 E54.431 F1242
G1 X118.31 Y49.05 E54.492
; Layer Change GCode
; LAYER:15
; LAYER_HEIGHT:0.15
; TYPE:FILL
G0 X121 Y52 Z2.45 F10800
; TYPE:WALL-INNER
G1 X120.48 Y51.95 E54.505 F900
G1 X119.97 Y51.81 E54.517
G1 X119.51 Y51.6 E54.529
G1 X119.07 Y51.29 E54.542
G1 X118.71 Y50.93 E54.554
G1 X118.4 Y50.49 E54.567
G1 X118.19 Y50.03 E54.579
G1 X118.05 Y49.52 E54.592
G1 X118 Y49 E54.604
G1 X118.05 Y48.48 E54.616
G1 X118.18 Y47.98 E54.629
G1 X118.41 Y47.5 E54.641
G1 X118.71 Y47.07 E54.653
G1 X119.07 Y46.71 E54.666
G1 X119.51 Y46.4 E54.678
G1 X119.97 Y46.19 E54.69
G1 X120.48 Y46.05 E54.703
G1 X121 Y46 E54.715
G1 X121.52 Y46.05 E54.728
G1 X122.03 Y46.19 E54.74
G1 X122.49 Y46.4 E54.752
G1 X122.93 Y46.71 E54.765
G1 X123.29 Y47.07 E54.777
G1 X123.6 Y47.51 E54.79
G1 X123.81 Y47.97 E54.802
G1 X123.95 Y48.48 E54.814
G1 X124 Y49 E54.827
G1 X123.95 Y49.52 E54.839
G1 X123.81 Y50.03 E54.852
G1 X123.6 Y50.49 E54.864
G1 X123.29 Y50.93 E54.876
G1 X122.93 Y51.29 E54.888
G1 X122.49 Y51.6 E54.901
G1 X122.03 Y51.81 E54.913
G1 X121.52 Y51.95 E54.926
G1 X121.12 Y51.99 E54.935
G0 X121 Y52
G0 Y52.4 F10800
G1 X120.41 Y52.35 E54.949 F900
G1 X119.84 Y52.19 E54.963
G1 X119.3 Y51.94 E54.977
G1 X118.81 Y51.6 E54.991
G1 X118.4 Y51.19 E55.005
G1 X118.06 Y50.7 E55.019
G1 X117.81 Y50.16 E55.034
G1 X117.65 Y49.59 E55.047
G1 X117.6 Y49 E55.062
G1 X117.65 Y48.41 E55.076
G1 X117.81 Y47.84 E55.09
G1 X118.06 Y47.3 E55.104
G1 X118.4 Y46.82 E55.118
G1 X118.81 Y46.4 E55.132
G1 X119.3 Y46.06 E55.146
G1 X119.84 Y45.81 E55.16
G1 X120.41 Y45.65 E55.174
G1 X121 Y45.6 E55.188
G1 X121.59 Y45.65 E55.202
G1 X122.16 Y45.81 E55.216
G1 X122.7 Y46.06 E55.23
G1 X123.19 Y46.4 E55.244
G1 X123.6 Y46.81 E55.258
G1 X123.94 Y47.3 E55.272
G1 X124.19 Y47.84 E55.286
G1 X124.35 Y48.41 E55.3
G1 X124.4 Y49 E55.314
G1 X124.35 Y49.59 E55.328
G1 X124.19 Y50.16 E55.342
G1 X123.94 Y50.7 E55.356
G1 X123.6 Y51.19 E55.37
G1 X123.19 Y51.6 E55.384
G1 X122.7 Y51.94 E55.398
G1 X122.16 Y52.19 E55.412
G1 X121.59 Y52.35 E55.426
G1 X121.12 Y52.39 E55.438
G0 X121 Y52.4
G0 Y52.8 F10800
; TYPE:WALL-OUTER
G1 X120.34 Y52.74 E55.453 F900
G1 X119.7 Y52.57 E55.469
G1 X119.1 Y52.29 E55.485
G1 X118.55 Y51.91 E55.501
G1 X118.09 Y51.45 E55.516
G1 X117.71 Y50.9 E55.532
G1 X117.43 Y50.3 E55.547
G1 X117.26 Y49.66 E55.563
G1 X117.2 Y49 E55.579
G1 X117.26 Y48.34 E55.595
G1 X117.43 Y47.7 E55.61
G1 X117.71 Y47.1 E55.626
G1 X118.09 Y46.55 E55.642
G1 X118.55 Y46.09 E55.657
G1 X119.1 Y45.71 E55.673
G1 X119.7 Y45.43 E55.689
G1 X120.34 Y45.26 E55.705
G1 X121 Y45.2 E55.72
G1 X121.66 Y45.26 E55.736
G1 X122.3 Y45.43 E55.752
G1 X122.9 Y45.71 E55.767
G1 X123.45 Y46.09 E55.783
G1 X123.91 Y46.55 E55.799
G1 X124.29 Y47.1 E55.814
G1 X124.57 Y47.7 E55.83
G1 X124.74 Y48.34 E55.846
G1 X124.8 Y49 E55.861
G1 X124.74 Y49.66 E55.877
G1 X124.57 Y50.3 E55.893
G1 X124.29 Y50.9 E55.908
G1 X123.91 Y51.45 E55.924
G1 X123.45 Y51.91 E55.94
G1 X122.9 Y52.29 E55.956
G1 X122.3 Y52.57 E55.971
G1 X121.66 Y52.74 E55.987
G1 X121.12 Y52.79 E56
G0 X121 Y52.8
G0 X120.34 Y52.74
G0 X119.7 Y52.57
G0 X119.1 Y52.29
G0 X118.55 Y51.91
G0 X118.31 Y51.66
G0 X121 Y52 F10800
G0 X123.06 Y50.73
; TYPE:FILL
G1 X123.65 Y48.53 E56.054 F1242
G0 X123.36 Y47.7 F10800
G1 X120.83 Y48.37 E56.116 F1242
G1 X118.31 Y49.05 E56.178
; Layer Change GCode
; LAYER:16
; LAYER_HEIGHT:0.15
; TYPE:FILL
G0 X121 Y52 Z2.6 F10800
; TYPE:WALL-INNER
G1 X120.48 Y51.95 E56.19 F900
G1 X119.97 Y51.81 E56.203
G1 X119.51 Y51.6 E56.215
G1 X119.07 Y51.29 E56.227
G1 X118.71 Y50.93 E56.24
G1 X118.4 Y50.49 E56.252
G1 X118.19 Y50.03 E56.264
G1 X118.05 Y49.52 E56.277
G1 X118 Y49 E56.289
G1 X118.05 Y48.48 E56.301
G1 X118.18 Y47.98 E56.314
G1 X118.41 Y47.5 E56.326
G1 X118.71 Y47.07 E56.339
G1 X119.07 Y46.71 E56.351
G1 X119.51 Y46.4 E56.364
G1 X119.97 Y46.19 E56.376
G1 X120.48 Y46.05 E56.388
G1 X121 Y46 E56.401
G1 X121.52 Y46.05 E56.413
G1 X122.03 Y46.19 E56.425
G1 X122.49 Y46.4 E56.438
G1 X122.93 Y46.71 E56.45
G1 X123.29 Y47.07 E56.462
G1 X123.6 Y47.51 E56.475
G1 X123.81 Y47.97 E56.487
G1 X123.95 Y48.48 E56.5
G1 X124 Y49 E56.512
G1 X123.95 Y49.52 E56.524
G1 X123.81 Y50.03 E56.537
G1 X123.6 Y50.49 E56.549
G1 X123.29 Y50.93 E56.562
G1 X122.93 Y51.29 E56.574
G1 X122.49 Y51.6 E56.586
G1 X122.03 Y51.81 E56.599
G1 X121.52 Y51.95 E56.611
G1 X121.12 Y51.99 E56.621
G0 X121 Y52
G0 Y52.4 F10800
G1 X120.41 Y52.35 E56.635 F900
G1 X119.84 Y52.19 E56.649
G1 X119.3 Y51.94 E56.663
G1 X118.81 Y51.6 E56.677
G1 X118.4 Y51.19 E56.691
G1 X118.06 Y50.7 E56.705
G1 X117.81 Y50.16 E56.719
G1 X117.65 Y49.59 E56.733
G1 X117.6 Y49 E56.747
G1 X117.65 Y48.41 E56.761
G1 X117.81 Y47.84 E56.775
G1 X118.06 Y47.3 E56.789
G1 X118.4 Y46.82 E56.803
G1 X118.81 Y46.4 E56.817
G1 X119.3 Y46.06 E56.831
G1 X119.84 Y45.81 E56.845
G1 X120.41 Y45.65 E56.859
G1 X121 Y45.6 E56.873
G1 X121.59 Y45.65 E56.887
G1 X122.16 Y45.81 E56.901
G1 X122.7 Y46.06 E56.915
G1 X123.19 Y46.4 E56.929
G1 X123.6 Y46.81 E56.943
G1 X123.94 Y47.3 E56.957
G1 X124.19 Y47.84 E56.971
G1 X124.35 Y48.41 E56.985
G1 X124.4 Y49 E56.999
G1 X124.35 Y49.59 E57.014
G1 X124.19 Y50.16 E57.027
G1 X123.94 Y50.7 E57.042
G1 X123.6 Y51.19 E57.056
G1 X123.19 Y51.6 E57.07
G1 X122.7 Y51.94 E57.084
G1 X122.16 Y52.19 E57.098
G1 X121.59 Y52.35 E57.112
G1 X121.12 Y52.39 E57.123
G0 X121 Y52.4
G0 Y52.8 F10800
; TYPE:WALL-OUTER
G1 X120.34 Y52.74 E57.139 F900
G1 X119.7 Y52.57 E57.154
G1 X119.1 Y52.29 E57.17
G1 X118.55 Y51.91 E57.186
G1 X118.09 Y51.45 E57.201
G1 X117.71 Y50.9 E57.217
G1 X117.43 Y50.3 E57.233
G1 X117.26 Y49.66 E57.249
G1 X117.2 Y49 E57.264
G1 X117.26 Y48.34 E57.28
G1 X117.43 Y47.7 E57.296
G1 X117.71 Y47.1 E57.311
G1 X118.09 Y46.55 E57.327
G1 X118.55 Y46.09 E57.343
G1 X119.1 Y45.71 E57.358
G1 X119.7 Y45.43 E57.374
G1 X120.34 Y45.26 E57.39
G1 X121 Y45.2 E57.405
G1 X121.66 Y45.26 E57.421
G1 X122.3 Y45.43 E57.437
G1 X122.9 Y45.71 E57.452
G1 X123.45 Y46.09 E57.468
G1 X123.91 Y46.55 E57.484
G1 X124.29 Y47.1 E57.5
G1 X124.57 Y47.7 E57.515
G1 X124.74 Y48.34 E57.531
G1 X124.8 Y49 E57.547
G1 X124.74 Y49.66 E57.562
G1 X124.57 Y50.3 E57.578
G1 X124.29 Y50.9 E57.594
G1 X123.91 Y51.45 E57.61
G1 X123.45 Y51.91 E57.625
G1 X122.9 Y52.29 E57.641
G1 X122.3 Y52.57 E57.657
G1 X121.66 Y52.74 E57.672
G1 X121.12 Y52.79 E57.685
G0 X121 Y52.8
G0 X120.34 Y52.74
G0 X119.7 Y52.57
G0 X119.1 Y52.29
G0 X118.55 Y51.91
G0 X118.31 Y51.66
G0 X121 Y52 F10800
G0 X123.06 Y50.73
; TYPE:FILL
G1 X123.65 Y48.53 E57.739 F1242
G0 X123.36 Y47.7 F10800
G1 X120.83 Y48.37 E57.801 F1242
G1 X118.31 Y49.05 E57.863
; Layer Change GCode
; LAYER:17
; LAYER_HEIGHT:0.15
; TYPE:FILL
G0 X121 Y52 Z2.75 F10800
; TYPE:WALL-INNER
G1 X120.48 Y51.95 E57.875 F900
G1 X119.97 Y51.81 E57.888
G1 X119.51 Y51.6 E57.9
G1 X119.07 Y51.29 E57.913
G1 X118.71 Y50.93 E57.925
G1 X118.4 Y50.49 E57.937
G1 X118.19 Y50.03 E57.95
G1 X118.05 Y49.52 E57.962
G1 X118 Y49 E57.974
G1 X118.05 Y48.48 E57.987
G1 X118.18 Y47.98 E57.999
G1 X118.41 Y47.5 E58.012
G1 X118.71 Y47.07 E58.024
G1 X119.07 Y46.71 E58.036
G1 X119.51 Y46.4 E58.049
G1 X119.97 Y46.19 E58.061
G1 X120.48 Y46.05 E58.073
G1 X121 Y46 E58.086
G1 X121.52 Y46.05 E58.098
G1 X122.03 Y46.19 E58.111
G1 X122.49 Y46.4 E58.123
G1 X122.93 Y46.71 E58.135
G1 X123.29 Y47.07 E58.148
G1 X123.6 Y47.51 E58.16
G1 X123.81 Y47.97 E58.172
G1 X123.95 Y48.48 E58.185
G1 X124 Y49 E58.197
G1 X123.95 Y49.52 E58.21
G1 X123.81 Y50.03 E58.222
G1 X123.6 Y50.49 E58.234
G1 X123.29 Y50.93 E58.247
G1 X122.93 Y51.29 E58.259
G1 X122.49 Y51.6 E58.272
G1 X122.03 Y51.81 E58.284
G1 X121.52 Y51.95 E58.296
G1 X121.12 Y51.99 E58.306
G0 X121 Y52
G0 Y52.4 F10800
G1 X120.41 Y52.35 E58.32 F900
G1 X119.84 Y52.19 E58.334
G1 X119.3 Y51.94 E58.348
G1 X118.81 Y51.6 E58.362
G1 X118.4 Y51.19 E58.376
G1 X118.06 Y50.7 E58.39
G1 X117.81 Y50.16 E58.404
G1 X117.65 Y49.59 E58.418
G1 X117.6 Y49 E58.432
G1 X117.65 Y48.41 E58.446
G1 X117.81 Y47.84 E58.46
G1 X118.06 Y47.3 E58.474
G1 X118.4 Y46.82 E58.488
G1 X118.81 Y46.4 E58.502
G1 X119.3 Y46.06 E58.516
G1 X119.84 Y45.81 E58.53
G1 X120.41 Y45.65 E58.544
G1 X121 Y45.6 E58.558
G1 X121.59 Y45.65 E58.573
G1 X122.16 Y45.81 E58.586
G1 X122.7 Y46.06 E58.6
G1 X123.19 Y46.4 E58.615
G1 X123.6 Y46.81 E58.628
G1 X123.94 Y47.3 E58.643
G1 X124.19 Y47.84 E58.657
G1 X124.35 Y48.41 E58.671
G1 X124.4 Y49 E58.685
G1 X124.35 Y49.59 E58.699
G1 X124.19 Y50.16 E58.713
G1 X123.94 Y50.7 E58.727
G1 X123.6 Y51.19 E58.741
G1 X123.19 Y51.6 E58.755
G1 X122.7 Y51.94 E58.769
G1 X122.16 Y52.19 E58.783
G1 X121.59 Y52.35 E58.797
G1 X121.12 Y52.39 E58.808
G0 X121 Y52.4
G0 Y52.8 F10800
; TYPE:WALL-OUTER
G1 X120.34 Y52.74 E58.824 F900
G1 X119.7 Y52.57 E58.84
G1 X119.1 Y52.29 E58.855
G1 X118.55 Y51.91 E58.871
G1 X118.09 Y51.45 E58.887
G1 X117.71 Y50.9 E58.902
G1 X117.43 Y50.3 E58.918
G1 X117.26 Y49.66 E58.934
G1 X117.2 Y49 E58.949
G1 X117.26 Y48.34 E58.965
G1 X117.43 Y47.7 E58.981
G1 X117.71 Y47.1 E58.996
G1 X118.09 Y46.55 E59.012
G1 X118.55 Y46.09 E59.028
G1 X119.1 Y45.71 E59.044
G1 X119.7 Y45.43 E59.059
G1 X120.34 Y45.26 E59.075
G1 X121 Y45.2 E59.091
G1 X121.66 Y45.26 E59.106
G1 X122.3 Y45.43 E59.122
G1 X122.9 Y45.71 E59.138
G1 X123.45 Y46.09 E59.154
G1 X123.91 Y46.55 E59.169
G1 X124.29 Y47.1 E59.185
G1 X124.57 Y47.7 E59.201
G1 X124.74 Y48.34 E59.216
G1 X124.8 Y49 E59.232
G1 X124.74 Y49.66 E59.248
G1 X124.57 Y50.3 E59.263
G1 X124.29 Y50.9 E59.279
G1 X123.91 Y51.45 E59.295
G1 X123.45 Y51.91 E59.31
G1 X122.9 Y52.29 E59.326
G1 X122.3 Y52.57 E59.342
G1 X121.66 Y52.74 E59.358
G1 X121.12 Y52.79 E59.37
G0 X121 Y52.8
G0 X120.34 Y52.74
G0 X119.7 Y52.57
G0 X119.1 Y52.29
G0 X118.55 Y51.91
G0 X118.31 Y51.66
G0 X121 Y52 F10800
G0 X123.06 Y50.73
; TYPE:FILL
G1 X123.65 Y48.53 E59.424 F1242
G0 X123.36 Y47.7 F10800
G1 X120.83 Y48.37 E59.486 F1242
G1 X118.31 Y49.05 E59.548
; Layer Change GCode
; LAYER:18
; LAYER_HEIGHT:0.15
; TYPE:FILL
G0 X121 Y52 Z2.9 F10800
; TYPE:WALL-INNER
G1 X120.48 Y51.95 E59.561 F900
G1 X119.97 Y51.81 E59.573
G1 X119.51 Y51.6 E59.585
G1 X119.07 Y51.29 E59.598
G1 X118.71 Y50.93 E59.61
G1 X118.4 Y50.49 E59.623
G1 X118.19 Y50.03 E59.635
G1 X118.05 Y49.52 E59.647
G1 X118 Y49 E59.66
G1 X118.05 Y48.48 E59.672
G1 X118.18 Y47.98 E59.684
G1 X118.41 Y47.5 E59.697
G1 X118.71 Y47.07 E59.709
G1 X119.07 Y46.71 E59.722
G1 X119.51 Y46.4 E59.734
G1 X119.97 Y46.19 E59.746
G1 X120.48 Y46.05 E59.759
G1 X121 Y46 E59.771
G1 X121.52 Y46.05 E59.783
G1 X122.03 Y46.19 E59.796
G1 X122.49 Y46.4 E59.808
G1 X122.93 Y46.71 E59.821
G1 X123.29 Y47.07 E59.833
G1 X123.6 Y47.51 E59.845
G1 X123.81 Y47.97 E59.858
G1 X123.95 Y48.48 E59.87
G1 X124 Y49 E59.882
G1 X123.95 Y49.52 E59.895
G1 X123.81 Y50.03 E59.907
G1 X123.6 Y50.49 E59.92
G1 X123.29 Y50.93 E59.932
G1 X122.93 Y51.29 E59.944
G1 X122.49 Y51.6 E59.957
G1 X122.03 Y51.81 E59.969
G1 X121.52 Y51.95 E59.982
G1 X121.12 Y51.99 E59.991
G0 X121 Y52
G0 Y52.4 F10800
G1 X120.41 Y52.35 E60.005 F900
G1 X119.84 Y52.19 E60.019
G1 X119.3 Y51.94 E60.033
G1 X118.81 Y51.6 E60.047
G1 X118.4 Y51.19 E60.061
G1 X118.06 Y50.7 E60.075
G1 X117.81 Y50.16 E60.089
G1 X117.65 Y49.59 E60.103
G1 X117.6 Y49 E60.117
G1 X117.65 Y48.41 E60.131
G1 X117.81 Y47.84 E60.145
G1 X118.06 Y47.3 E60.16
G1 X118.4 Y46.82 E60.174
G1 X118.81 Y46.4 E60.187
G1 X119.3 Y46.06 E60.202
G1 X119.84 Y45.81 E60.216
G1 X120.41 Y45.65 E60.23
G1 X121 Y45.6 E60.244
G1 X121.59 Y45.65 E60.258
G1 X122.16 Y45.81 E60.272
G1 X122.7 Y46.06 E60.286
G1 X123.19 Y46.4 E60.3
G1 X123.6 Y46.81 E60.314
G1 X123.94 Y47.3 E60.328
G1 X124.19 Y47.84 E60.342
G1 X124.35 Y48.41 E60.356
G1 X124.4 Y49 E60.37
G1 X124.35 Y49.59 E60.384
G1 X124.19 Y50.16 E60.398
G1 X123.94 Y50.7 E60.412
G1 X123.6 Y51.19 E60.426
G1 X123.19 Y51.6 E60.44
G1 X122.7 Y51.94 E60.454
G1 X122.16 Y52.19 E60.468
G1 X121.59 Y52.35 E60.482
G1 X121.12 Y52.39 E60.493
G0 X121 Y52.4
G0 Y52.8 F10800
; TYPE:WALL-OUTER
G1 X120.34 Y52.74 E60.509 F900
G1 X119.7 Y52.57 E60.525
G1 X119.1 Y52.29 E60.54
G1 X118.55 Y51.91 E60.556
G1 X118.09 Y51.45 E60.572
G1 X117.71 Y50.9 E60.588
G1 X117.43 Y50.3 E60.603
G1 X117.26 Y49.66 E60.619
G1 X117.2 Y49 E60.635
G1 X117.26 Y48.34 E60.65
G1 X117.43 Y47.7 E60.666
G1 X117.71 Y47.1 E60.682
G1 X118.09 Y46.55 E60.698
G1 X118.55 Y46.09 E60.713
G1 X119.1 Y45.71 E60.729
G1 X119.7 Y45.43 E60.745
G1 X120.34 Y45.26 E60.76
G1 X121 Y45.2 E60.776
G1 X121.66 Y45.26 E60.792
G1 X122.3 Y45.43 E60.807
G1 X122.9 Y45.71 E60.823
G1 X123.45 Y46.09 E60.839
G1 X123.91 Y46.55 E60.854
G1 X124.29 Y47.1 E60.87
G1 X124.57 Y47.7 E60.886
G1 X124.74 Y48.34 E60.902
G1 X124.8 Y49 E60.917
G1 X124.74 Y49.66 E60.933
G1 X124.57 Y50.3 E60.949
G1 X124.29 Y50.9 E60.964
G1 X123.91 Y51.45 E60.98
G1 X123.45 Y51.91 E60.996
G1 X122.9 Y52.29 E61.012
G1 X122.3 Y52.57 E61.027
G1 X121.66 Y52.74 E61.043
G1 X121.12 Y52.79 E61.056
G0 X121 Y52.8
G0 X120.34 Y52.74
G0 X119.7 Y52.57
G0 X119.1 Y52.29
G0 X118.55 Y51.91
G0 X118.31 Y51.66
G0 X121 Y52 F10800
G0 X123.06 Y50.73
; TYPE:FILL
G1 X123.65 Y48.53 E61.11 F1242
G0 X123.36 Y47.7 F10800
G1 X120.83 Y48.37 E61.172 F1242
G1 X118.31 Y49.05 E61.234
; Layer Change GCode
; LAYER:19
; LAYER_HEIGHT:0.15
; TYPE:FILL
G0 X121 Y52 Z3.05 F10800
; TYPE:WALL-INNER
G1 X120.48 Y51.95 E61.246 F900
G1 X119.97 Y51.81 E61.258
G1 X119.51 Y51.6 E61.271
G1 X119.07 Y51.29 E61.283
G1 X118.71 Y50.93 E61.295
G1 X118.4 Y50.49 E61.308
G1 X118.19 Y50.03 E61.32
G1 X118.05 Y49.52 E61.333
G1 X118 Y49 E61.345
G1 X118.05 Y48.48 E61.357
G1 X118.18 Y47.98 E61.37
G1 X118.41 Y47.5 E61.382
G1 X118.71 Y47.07 E61.395
G1 X119.07 Y46.71 E61.407
G1 X119.51 Y46.4 E61.419
G1 X119.97 Y46.19 E61.432
G1 X120.48 Y46.05 E61.444
G1 X121 Y46 E61.456
G1 X121.52 Y46.05 E61.469
G1 X122.03 Y46.19 E61.481
G1 X122.49 Y46.4 E61.493
G1 X122.93 Y46.71 E61.506
G1 X123.29 Y47.07 E61.518
G1 X123.6 Y47.51 E61.531
G1 X123.81 Y47.97 E61.543
G1 X123.95 Y48.48 E61.555
G1 X124 Y49 E61.568
G1 X123.95 Y49.52 E61.58
G1 X123.81 Y50.03 E61.593
G1 X123.6 Y50.49 E61.605
G1 X123.29 Y50.93 E61.617
G1 X122.93 Y51.29 E61.63
G1 X122.49 Y51.6 E61.642
G1 X122.03 Y51.81 E61.654
G1 X121.52 Y51.95 E61.667
G1 X121.12 Y51.99 E61.676
G0 X121 Y52
G0 Y52.4 F10800
G1 X120.41 Y52.35 E61.69 F900
G1 X119.84 Y52.19 E61.704
G1 X119.3 Y51.94 E61.718
G1 X118.81 Y51.6 E61.733
G1 X118.4 Y51.19 E61.746
G1 X118.06 Y50.7 E61.761
G1 X117.81 Y50.16 E61.775
G1 X117.65 Y49.59 E61.789
G1 X117.6 Y49 E61.803
G1 X117.65 Y48.41 E61.817
G1 X117.81 Y47.84 E61.831
G1 X118.06 Y47.3 E61.845
G1 X118.4 Y46.82 E61.859
G1 X118.81 Y46.4 E61.873
G1 X119.3 Y46.06 E61.887
G1 X119.84 Y45.81 E61.901
G1 X120.41 Y45.65 E61.915
G1 X121 Y45.6 E61.929
G1 X121.59 Y45.65 E61.943
G1 X122.16 Y45.81 E61.957
G1 X122.7 Y46.06 E61.971
G1 X123.19 Y46.4 E61.985
G1 X123.6 Y46.81 E61.999
G1 X123.94 Y47.3 E62.013
G1 X124.19 Y47.84 E62.027
G1 X124.35 Y48.41 E62.041
G1 X124.4 Y49 E62.055
G1 X124.35 Y49.59 E62.069
G1 X124.19 Y50.16 E62.083
G1 X123.94 Y50.7 E62.097
G1 X123.6 Y51.19 E62.112
G1 X123.19 Y51.6 E62.125
G1 X122.7 Y51.94 E62.14
G1 X122.16 Y52.19 E62.154
G1 X121.59 Y52.35 E62.167
G1 X121.12 Y52.39 E62.179
G0 X121 Y52.4
G0 Y52.8 F10800
; TYPE:WALL-OUTER
G1 X120.34 Y52.74 E62.194 F900
G1 X119.7 Y52.57 E62.21
G1 X119.1 Y52.29 E62.226
G1 X118.55 Y51.91 E62.242
G1 X118.09 Y51.45 E62.257
G1 X117.71 Y50.9 E62.273
G1 X117.43 Y50.3 E62.289
G1 X117.26 Y49.66 E62.304
G1 X117.2 Y49 E62.32
G1 X117.26 Y48.34 E62.336
G1 X117.43 Y47.7 E62.351
G1 X117.71 Y47.1 E62.367
G1 X118.09 Y46.55 E62.383
G1 X118.55 Y46.09 E62.398
G1 X119.1 Y45.71 E62.414
G1 X119.7 Y45.43 E62.43
G1 X120.34 Y45.26 E62.446
G1 X121 Y45.2 E62.461
G1 X121.66 Y45.26 E62.477
G1 X122.3 Y45.43 E62.493
G1 X122.9 Y45.71 E62.508
G1 X123.45 Y46.09 E62.524
G1 X123.91 Y46.55 E62.54
G1 X124.29 Y47.1 E62.556
G1 X124.57 Y47.7 E62.571
G1 X124.74 Y48.34 E62.587
G1 X124.8 Y49 E62.603
G1 X124.74 Y49.66 E62.618
G1 X124.57 Y50.3 E62.634
G1 X124.29 Y50.9 E62.65
G1 X123.91 Y51.45 E62.665
G1 X123.45 Y51.91 E62.681
G1 X122.9 Y52.29 E62.697
G1 X122.3 Y52.57 E62.712
G1 X121.66 Y52.74 E62.728
G1 X121.12 Y52.79 E62.741
G0 X121 Y52.8
G0 X120.34 Y52.74
G0 X119.7 Y52.57
G0 X119.1 Y52.29
G0 X118.55 Y51.91
G0 X118.31 Y51.66
G0 X121 Y52 F10800
G0 X123.06 Y50.73
; TYPE:FILL
G1 X123.65 Y48.53 E62.795 F1242
G0 X123.36 Y47.7 F10800
G1 X120.83 Y48.37 E62.857 F1242
G1 X118.31 Y49.05 E62.919
; Layer Change GCode
; LAYER:20
; LAYER_HEIGHT:0.15
; TYPE:FILL
G0 X121 Y52 Z3.2 F10800
; TYPE:WALL-INNER
G1 X120.48 Y51.95 E62.931 F900
G1 X119.97 Y51.81 E62.944
G1 X119.51 Y51.6 E62.956
G1 X119.07 Y51.29 E62.968
G1 X118.71 Y50.93 E62.981
G1 X118.4 Y50.49 E62.993
G1 X118.19 Y50.03 E63.005
G1 X118.05 Y49.52 E63.018
G1 X118 Y49 E63.03
G1 X118.05 Y48.48 E63.043
G1 X118.18 Y47.98 E63.055
G1 X118.41 Y47.5 E63.067
G1 X118.71 Y47.07 E63.08
G1 X119.07 Y46.71 E63.092
G1 X119.51 Y46.4 E63.105
G1 X119.97 Y46.19 E63.117
G1 X120.48 Y46.05 E63.129
G1 X121 Y46 E63.142
G1 X121.52 Y46.05 E63.154
G1 X122.03 Y46.19 E63.166
G1 X122.49 Y46.4 E63.179
G1 X122.93 Y46.71 E63.191
G1 X123.29 Y47.07 E63.203
G1 X123.6 Y47.51 E63.216
G1 X123.81 Y47.97 E63.228
G1 X123.95 Y48.48 E63.241
G1 X124 Y49 E63.253
G1 X123.95 Y49.52 E63.265
G1 X123.81 Y50.03 E63.278
G1 X123.6 Y50.49 E63.29
G1 X123.29 Y50.93 E63.303
G1 X122.93 Y51.29 E63.315
G1 X122.49 Y51.6 E63.327
G1 X122.03 Y51.81 E63.34
G1 X121.52 Y51.95 E63.352
G1 X121.12 Y51.99 E63.362
G0 X121 Y52
G0 Y52.4 F10800
G1 X120.41 Y52.35 E63.376 F900
G1 X119.84 Y52.19 E63.39
G1 X119.3 Y51.94 E63.404
G1 X118.81 Y51.6 E63.418
G1 X118.4 Y51.19 E63.432
G1 X118.06 Y50.7 E63.446
G1 X117.81 Y50.16 E63.46
G1 X117.65 Y49.59 E63.474
G1 X117.6 Y49 E63.488
G1 X117.65 Y48.41 E63.502
G1 X117.81 Y47.84 E63.516
G1 X118.06 Y47.3 E63.53
G1 X118.4 Y46.82 E63.544
G1 X118.81 Y46.4 E63.558
G1 X119.3 Y46.06 E63.572
G1 X119.84 Y45.81 E63.586
G1 X120.41 Y45.65 E63.6
G1 X121 Y45.6 E63.614
G1 X121.59 Y45.65 E63.628
G1 X122.16 Y45.81 E63.642
G1 X122.7 Y46.06 E63.656
G1 X123.19 Y46.4 E63.67
G1 X123.6 Y46.81 E63.684
G1 X123.94 Y47.3 E63.699
G1 X124.19 Y47.84 E63.713
G1 X124.35 Y48.41 E63.726
G1 X124.4 Y49 E63.741
G1 X124.35 Y49.59 E63.755
G1 X124.19 Y50.16 E63.769
G1 X123.94 Y50.7 E63.783
G1 X123.6 Y51.19 E63.797
G1 X123.19 Y51.6 E63.811
G1 X122.7 Y51.94 E63.825
G1 X122.16 Y52.19 E63.839
G1 X121.59 Y52.35 E63.853
G1 X121.12 Y52.39 E63.864
G0 X121 Y52.4
G0 Y52.8 F10800
; TYPE:WALL-OUTER
G1 X120.34 Y52.74 E63.88 F900
G1 X119.7 Y52.57 E63.895
G1 X119.1 Y52.29 E63.911
G1 X118.55 Y51.91 E63.927
G1 X118.09 Y51.45 E63.942
G1 X117.71 Y50.9 E63.958
G1 X117.43 Y50.3 E63.974
G1 X117.26 Y49.66 E63.99
G1 X117.2 Y49 E64.005
G1 X117.26 Y48.34 E64.021
G1 X117.43 Y47.7 E64.037
G1 X117.71 Y47.1 E64.052
G1 X118.09 Y46.55 E64.068
G1 X118.55 Y46.09 E64.084
G1 X119.1 Y45.71 E64.1
G1 X119.7 Y45.43 E64.115
G1 X120.34 Y45.26 E64.131
G1 X121 Y45.2 E64.147
G1 X121.66 Y45.26 E64.162
G1 X122.3 Y45.43 E64.178
G1 X122.9 Y45.71 E64.194
G1 X123.45 Y46.09 E64.209
G1 X123.91 Y46.55 E64.225
G1 X124.29 Y47.1 E64.241
G1 X124.57 Y47.7 E64.256
G1 X124.74 Y48.34 E64.272
G1 X124.8 Y49 E64.288
G1 X124.74 Y49.66 E64.303
G1 X124.57 Y50.3 E64.319
G1 X124.29 Y50.9 E64.335
G1 X123.91 Y51.45 E64.351
G1 X123.45 Y51.91 E64.366
G1 X122.9 Y52.29 E64.382
G1 X122.3 Y52.57 E64.398
G1 X121.66 Y52.74 E64.413
G1 X121.12 Y52.79 E64.426
G0 X121 Y52.8
G0 X120.34 Y52.74
G0 X119.7 Y52.57
G0 X119.1 Y52.29
G0 X118.55 Y51.91
G0 X118.31 Y51.66
G0 X121 Y52 F10800
G0 X123.06 Y50.73
; TYPE:FILL
G1 X123.65 Y48.53 E64.48 F1242
G0 X123.36 Y47.7 F10800
G1 X120.83 Y48.37 E64.542 F1242
G1 X118.31 Y49.05 E64.604
; Layer Change GCode
; LAYER:21
; LAYER_HEIGHT:0.15
; TYPE:FILL
G0 X121 Y52 Z3.35 F10800
; TYPE:WALL-INNER
G1 X120.48 Y51.95 E64.616 F900
G1 X119.97 Y51.81 E64.629
G1 X119.51 Y51.6 E64.641
G1 X119.07 Y51.29 E64.654
G1 X118.71 Y50.93 E64.666
G1 X118.4 Y50.49 E64.679
G1 X118.19 Y50.03 E64.691
G1 X118.05 Y49.52 E64.703
G1 X118 Y49 E64.716
G1 X118.05 Y48.48 E64.728
G1 X118.18 Y47.98 E64.74
G1 X118.41 Y47.5 E64.753
G1 X118.71 Y47.07 E64.765
G1 X119.07 Y46.71 E64.777
G1 X119.51 Y46.4 E64.79
G1 X119.97 Y46.19 E64.802
G1 X120.48 Y46.05 E64.815
G1 X121 Y46 E64.827
G1 X121.52 Y46.05 E64.839
G1 X122.03 Y46.19 E64.852
G1 X122.49 Y46.4 E64.864
G1 X122.93 Y46.71 E64.877
G1 X123.29 Y47.07 E64.889
G1 X123.6 Y47.51 E64.901
G1 X123.81 Y47.97 E64.913
G1 X123.95 Y48.48 E64.926
G1 X124 Y49 E64.938
G1 X123.95 Y49.52 E64.951
G1 X123.81 Y50.03 E64.963
G1 X123.6 Y50.49 E64.975
G1 X123.29 Y50.93 E64.988
G1 X122.93 Y51.29 E65
G1 X122.49 Y51.6 E65.013
G1 X122.03 Y51.81 E65.025
G1 X121.52 Y51.95 E65.037
G1 X121.12 Y51.99 E65.047
G0 X121 Y52
G0 Y52.4 F10800
G1 X120.41 Y52.35 E65.061 F900
G1 X119.84 Y52.19 E65.075
G1 X119.3 Y51.94 E65.089
G1 X118.81 Y51.6 E65.103
G1 X118.4 Y51.19 E65.117
G1 X118.06 Y50.7 E65.131
G1 X117.81 Y50.16 E65.145
G1 X117.65 Y49.59 E65.159
G1 X117.6 Y49 E65.173
G1 X117.65 Y48.41 E65.187
G1 X117.81 Y47.84 E65.201
G1 X118.06 Y47.3 E65.215
G1 X118.4 Y46.82 E65.229
G1 X118.81 Y46.4 E65.243
G1 X119.3 Y46.06 E65.257
G1 X119.84 Y45.81 E65.271
G1 X120.41 Y45.65 E65.285
G1 X121 Y45.6 E65.3
G1 X121.59 Y45.65 E65.314
G1 X122.16 Y45.81 E65.328
G1 X122.7 Y46.06 E65.342
G1 X123.19 Y46.4 E65.356
G1 X123.6 Y46.81 E65.37
G1 X123.94 Y47.3 E65.384
G1 X124.19 Y47.84 E65.398
G1 X124.35 Y48.41 E65.412
G1 X124.4 Y49 E65.426
G1 X124.35 Y49.59 E65.44
G1 X124.19 Y50.16 E65.454
G1 X123.94 Y50.7 E65.468
G1 X123.6 Y51.19 E65.482
G1 X123.19 Y51.6 E65.496
G1 X122.7 Y51.94 E65.51
G1 X122.16 Y52.19 E65.524
G1 X121.59 Y52.35 E65.538
G1 X121.12 Y52.39 E65.549
G0 X121 Y52.4
G0 Y52.8 F10800
; TYPE:WALL-OUTER
G1 X120.34 Y52.74 E65.565 F900
G1 X119.7 Y52.57 E65.581
G1 X119.1 Y52.29 E65.596
G1 X118.55 Y51.91 E65.612
G1 X118.09 Y51.45 E65.628
G1 X117.71 Y50.9 E65.644
G1 X117.43 Y50.3 E65.659
G1 X117.26 Y49.66 E65.675
G1 X117.2 Y49 E65.691
G1 X117.26 Y48.34 E65.706
G1 X117.43 Y47.7 E65.722
G1 X117.71 Y47.1 E65.738
G1 X118.09 Y46.55 E65.753
G1 X118.55 Y46.09 E65.769
G1 X119.1 Y45.71 E65.785
G1 X119.7 Y45.43 E65.8
G1 X120.34 Y45.26 E65.816
G1 X121 Y45.2 E65.832
G1 X121.66 Y45.26 E65.847
G1 X122.3 Y45.43 E65.863
G1 X122.9 Y45.71 E65.879
G1 X123.45 Y46.09 E65.895
G1 X123.91 Y46.55 E65.91
G1 X124.29 Y47.1 E65.926
G1 X124.57 Y47.7 E65.942
G1 X124.74 Y48.34 E65.957
G1 X124.8 Y49 E65.973
G1 X124.74 Y49.66 E65.989
G1 X124.57 Y50.3 E66.005
G1 X124.29 Y50.9 E66.02
G1 X123.91 Y51.45 E66.036
G1 X123.45 Y51.91 E66.051
G1 X122.9 Y52.29 E66.067
G1 X122.3 Y52.57 E66.083
G1 X121.66 Y52.74 E66.099
G1 X121.12 Y52.79 E66.111
G0 X121 Y52.8
G0 X120.34 Y52.74
G0 X119.7 Y52.57
G0 X119.1 Y52.29
G0 X118.55 Y51.91
G0 X118.31 Y51.66
G0 X121 Y52 F10800
G0 X123.06 Y50.73
; TYPE:FILL
G1 X123.65 Y48.53 E66.166 F1242
G0 X123.36 Y47.7 F10800
G1 X120.83 Y48.37 E66.227 F1242
G1 X118.31 Y49.05 E66.289
; Layer Change GCode
; LAYER:22
; LAYER_HEIGHT:0.15
; TYPE:FILL
G0 X121 Y52 Z3.5 F10800
; TYPE:WALL-INNER
G1 X120.48 Y51.95 E66.302 F900
G1 X119.97 Y51.81 E66.314
G1 X119.51 Y51.6 E66.326
G1 X119.07 Y51.29 E66.339
G1 X118.71 Y50.93 E66.351
G1 X118.4 Y50.49 E66.364
G1 X118.19 Y50.03 E66.376
G1 X118.05 Y49.52 E66.388
G1 X118 Y49 E66.401
G1 X118.05 Y48.48 E66.413
G1 X118.18 Y47.98 E66.426
G1 X118.41 Y47.5 E66.438
G1 X118.71 Y47.07 E66.45
G1 X119.07 Y46.71 E66.463
G1 X119.51 Y46.4 E66.475
G1 X119.97 Y46.19 E66.487
G1 X120.48 Y46.05 E66.5
G1 X121 Y46 E66.512
G1 X121.52 Y46.05 E66.525
G1 X122.03 Y46.19 E66.537
G1 X122.49 Y46.4 E66.549
G1 X122.93 Y46.71 E66.562
G1 X123.29 Y47.07 E66.574
G1 X123.6 Y47.51 E66.587
G1 X123.81 Y47.97 E66.599
G1 X123.95 Y48.48 E66.611
G1 X124 Y49 E66.624
G1 X123.95 Y49.52 E66.636
G1 X123.81 Y50.03 E66.648
G1 X123.6 Y50.49 E66.661
G1 X123.29 Y50.93 E66.673
G1 X122.93 Y51.29 E66.685
G1 X122.49 Y51.6 E66.698
G1 X122.03 Y51.81 E66.71
G1 X121.52 Y51.95 E66.723
G1 X121.12 Y51.99 E66.732
G0 X121 Y52
G0 Y52.4 F10800
G1 X120.41 Y52.35 E66.746 F900
G1 X119.84 Y52.19 E66.76
G1 X119.3 Y51.94 E66.774
G1 X118.81 Y51.6 E66.788
G1 X118.4 Y51.19 E66.802
G1 X118.06 Y50.7 E66.816
G1 X117.81 Y50.16 E66.83
G1 X117.65 Y49.59 E66.844
G1 X117.6 Y49 E66.858
G1 X117.65 Y48.41 E66.873
G1 X117.81 Y47.84 E66.887
G1 X118.06 Y47.3 E66.901
G1 X118.4 Y46.82 E66.915
G1 X118.81 Y46.4 E66.929
G1 X119.3 Y46.06 E66.943
G1 X119.84 Y45.81 E66.957
G1 X120.41 Y45.65 E66.971
G1 X121 Y45.6 E66.985
G1 X121.59 Y45.65 E66.999
G1 X122.16 Y45.81 E67.013
G1 X122.7 Y46.06 E67.027
G1 X123.19 Y46.4 E67.041
G1 X123.6 Y46.81 E67.055
G1 X123.94 Y47.3 E67.069
G1 X124.19 Y47.84 E67.083
G1 X124.35 Y48.41 E67.097
G1 X124.4 Y49 E67.111
G1 X124.35 Y49.59 E67.125
G1 X124.19 Y50.16 E67.139
G1 X123.94 Y50.7 E67.153
G1 X123.6 Y51.19 E67.167
G1 X123.19 Y51.6 E67.181
G1 X122.7 Y51.94 E67.195
G1 X122.16 Y52.19 E67.209
G1 X121.59 Y52.35 E67.223
G1 X121.12 Y52.39 E67.235
G0 X121 Y52.4
G0 Y52.8 F10800
; TYPE:WALL-OUTER
G1 X120.34 Y52.74 E67.25 F900
G1 X119.7 Y52.57 E67.266
G1 X119.1 Y52.29 E67.282
G1 X118.55 Y51.91 E67.297
G1 X118.09 Y51.45 E67.313
G1 X117.71 Y50.9 E67.329
G1 X117.43 Y50.3 E67.344
G1 X117.26 Y49.66 E67.36
G1 X117.2 Y49 E67.376
G1 X117.26 Y48.34 E67.391
G1 X117.43 Y47.7 E67.407
G1 X117.71 Y47.1 E67.423
G1 X118.09 Y46.55 E67.439
G1 X118.55 Y46.09 E67.454
G1 X119.1 Y45.71 E67.47
G1 X119.7 Y45.43 E67.486
G1 X120.34 Y45.26 E67.501
G1 X121 Y45.2 E67.517
G1 X121.66 Y45.26 E67.533
G1 X122.3 Y45.43 E67.549
G1 X122.9 Y45.71 E67.564
G1 X123.45 Y46.09 E67.58
G1 X123.91 Y46.55 E67.595
G1 X124.29 Y47.1 E67.611
G1 X124.57 Y47.7 E67.627
G1 X124.74 Y48.34 E67.643
G1 X124.8 Y49 E67.658
G1 X124.74 Y49.66 E67.674
G1 X124.57 Y50.3 E67.69
G1 X124.29 Y50.9 E67.705
G1 X123.91 Y51.45 E67.721
G1 X123.45 Y51.91 E67.737
G1 X122.9 Y52.29 E67.753
G1 X122.3 Y52.57 E67.768
G1 X121.66 Y52.74 E67.784
G1 X121.12 Y52.79 E67.797
G0 X121 Y52.8
G0 X120.34 Y52.74
G0 X119.7 Y52.57
G0 X119.1 Y52.29
G0 X118.55 Y51.91
G0 X118.31 Y51.66
G0 X121 Y52 F10800
G0 X123.06 Y50.73
; TYPE:FILL
G1 X123.65 Y48.53 E67.851 F1242
G0 X123.36 Y47.7 F10800
G1 X120.83 Y48.37 E67.913 F1242
G1 X118.31 Y49.05 E67.975
; Layer Change GCode
; LAYER:23
; LAYER_HEIGHT:0.15
; TYPE:FILL
G0 X121 Y52 Z3.65 F10800
; TYPE:WALL-INNER
G1 X120.48 Y51.95 E67.987 F900
G1 X119.97 Y51.81 E68
G1 X119.51 Y51.6 E68.012
G1 X119.07 Y51.29 E68.024
G1 X118.71 Y50.93 E68.036
G1 X118.4 Y50.49 E68.049
G1 X118.19 Y50.03 E68.061
G1 X118.05 Y49.52 E68.074
G1 X118 Y49 E68.086
G1 X118.05 Y48.48 E68.098
G1 X118.18 Y47.98 E68.111
G1 X118.41 Y47.5 E68.123
G1 X118.71 Y47.07 E68.136
G1 X119.07 Y46.71 E68.148
G1 X119.51 Y46.4 E68.16
G1 X119.97 Y46.19 E68.173
G1 X120.48 Y46.05 E68.185
G1 X121 Y46 E68.197
G1 X121.52 Y46.05 E68.21
G1 X122.03 Y46.19 E68.222
G1 X122.49 Y46.4 E68.234
G1 X122.93 Y46.71 E68.247
G1 X123.29 Y47.07 E68.259
G1 X123.6 Y47.51 E68.272
G1 X123.81 Y47.97 E68.284
G1 X123.95 Y48.48 E68.297
G1 X124 Y49 E68.309
G1 X123.95 Y49.52 E68.321
G1 X123.81 Y50.03 E68.334
G1 X123.6 Y50.49 E68.346
G1 X123.29 Y50.93 E68.358
G1 X122.93 Y51.29 E68.371
G1 X122.49 Y51.6 E68.383
G1 X122.03 Y51.81 E68.395
G1 X121.52 Y51.95 E68.408
G1 X121.12 Y51.99 E68.417
G0 X121 Y52
G0 Y52.4 F10800
G1 X120.41 Y52.35 E68.432 F900
G1 X119.84 Y52.19 E68.445
G1 X119.3 Y51.94 E68.459
G1 X118.81 Y51.6 E68.474
G1 X118.4 Y51.19 E68.488
G1 X118.06 Y50.7 E68.502
G1 X117.81 Y50.16 E68.516
G1 X117.65 Y49.59 E68.53
G1 X117.6 Y49 E68.544
G1 X117.65 Y48.41 E68.558
G1 X117.81 Y47.84 E68.572
G1 X118.06 Y47.3 E68.586
G1 X118.4 Y46.82 E68.6
G1 X118.81 Y46.4 E68.614
G1 X119.3 Y46.06 E68.628
G1 X119.84 Y45.81 E68.642
G1 X120.41 Y45.65 E68.656
G1 X121 Y45.6 E68.67
G1 X121.59 Y45.65 E68.684
G1 X122.16 Y45.81 E68.698
G1 X122.7 Y46.06 E68.712
G1 X123.19 Y46.4 E68.726
G1 X123.6 Y46.81 E68.74
G1 X123.94 Y47.3 E68.754
G1 X124.19 Y47.84 E68.768
G1 X124.35 Y48.41 E68.782
G1 X124.4 Y49 E68.796
G1 X124.35 Y49.59 E68.811
G1 X124.19 Y50.16 E68.824
G1 X123.94 Y50.7 E68.838
G1 X123.6 Y51.19 E68.853
G1 X123.19 Y51.6 E68.866
G1 X122.7 Y51.94 E68.881
G1 X122.16 Y52.19 E68.895
G1 X121.59 Y52.35 E68.909
G1 X121.12 Y52.39 E68.92
G0 X121 Y52.4
G0 Y52.8 F10800
; TYPE:WALL-OUTER
G1 X120.34 Y52.74 E68.936 F900
G1 X119.7 Y52.57 E68.951
G1 X119.1 Y52.29 E68.967
G1 X118.55 Y51.91 E68.983
G1 X118.09 Y51.45 E68.998
G1 X117.71 Y50.9 E69.014
G1 X117.43 Y50.3 E69.03
G1 X117.26 Y49.66 E69.045
G1 X117.2 Y49 E69.061
G1 X117.26 Y48.34 E69.077
G1 X117.43 Y47.7 E69.093
G1 X117.71 Y47.1 E69.108
G1 X118.09 Y46.55 E69.124
G1 X118.55 Y46.09 E69.139
G1 X119.1 Y45.71 E69.155
G1 X119.7 Y45.43 E69.171
G1 X120.34 Y45.26 E69.187
G1 X121 Y45.2 E69.202
G1 X121.66 Y45.26 E69.218
G1 X122.3 Y45.43 E69.234
G1 X122.9 Y45.71 E69.249
G1 X123.45 Y46.09 E69.265
G1 X123.91 Y46.55 E69.281
G1 X124.29 Y47.1 E69.297
G1 X124.57 Y47.7 E69.312
G1 X124.74 Y48.34 E69.328
G1 X124.8 Y49 E69.344
G1 X124.74 Y49.66 E69.359
G1 X124.57 Y50.3 E69.375
G1 X124.29 Y50.9 E69.391
G1 X123.91 Y51.45 E69.407
G1 X123.45 Y51.91 E69.422
G1 X122.9 Y52.29 E69.438
G1 X122.3 Y52.57 E69.453
G1 X121.66 Y52.74 E69.469
G1 X121.12 Y52.79 E69.482
G0 X121 Y52.8
G0 X120.34 Y52.74
G0 X119.7 Y52.57
G0 X119.1 Y52.29
G0 X118.55 Y51.91
G0 X118.31 Y51.66
G0 X121 Y52 F10800
G0 X123.06 Y50.73
; TYPE:FILL
G1 X123.65 Y48.53 E69.536 F1242
G0 X123.36 Y47.7 F10800
G1 X120.83 Y48.37 E69.598 F1242
G1 X118.31 Y49.05 E69.66
; Layer Change GCode
; LAYER:24
; LAYER_HEIGHT:0.15
; TYPE:FILL
G0 X121 Y52 Z3.8 F10800
; TYPE:WALL-INNER
G1 X120.48 Y51.95 E69.672 F900
G1 X119.97 Y51.81 E69.685
G1 X119.51 Y51.6 E69.697
G1 X119.07 Y51.29 E69.71
G1 X118.71 Y50.93 E69.722
G1 X118.4 Y50.49 E69.734
G1 X118.19 Y50.03 E69.747
G1 X118.05 Y49.52 E69.759
G1 X118 Y49 E69.771
G1 X118.05 Y48.48 E69.784
G1 X118.18 Y47.98 E69.796
G1 X118.41 Y47.5 E69.809
G1 X118.71 Y47.07 E69.821
G1 X119.07 Y46.71 E69.833
G1 X119.51 Y46.4 E69.846
G1 X119.97 Y46.19 E69.858
G1 X120.48 Y46.05 E69.87
G1 X121 Y46 E69.883
G1 X121.52 Y46.05 E69.895
G1 X122.03 Y46.19 E69.908
G1 X122.49 Y46.4 E69.92
G1 X122.93 Y46.71 E69.932
G1 X123.29 Y47.07 E69.945
G1 X123.6 Y47.51 E69.957
G1 X123.81 Y47.97 E69.969
G1 X123.95 Y48.48 E69.982
G1 X124 Y49 E69.994
G1 X123.95 Y49.52 E70.006
G1 X123.81 Y50.03 E70.019
G1 X123.6 Y50.49 E70.031
G1 X123.29 Y50.93 E70.044
G1 X122.93 Y51.29 E70.056
G1 X122.49 Y51.6 E70.069
G1 X122.03 Y51.81 E70.081
G1 X121.52 Y51.95 E70.093
G1 X121.12 Y51.99 E70.103
G0 X121 Y52
G0 Y52.4 F10800
G1 X120.41 Y52.35 E70.117 F900
G1 X119.84 Y52.19 E70.131
G1 X119.3 Y51.94 E70.145
G1 X118.81 Y51.6 E70.159
G1 X118.4 Y51.19 E70.173
G1 X118.06 Y50.7 E70.187
G1 X117.81 Y50.16 E70.201
G1 X117.65 Y49.59 E70.215
G1 X117.6 Y49 E70.229
G1 X117.65 Y48.41 E70.243
G1 X117.81 Y47.84 E70.257
G1 X118.06 Y47.3 E70.271
G1 X118.4 Y46.82 E70.285
G1 X118.81 Y46.4 E70.299
G1 X119.3 Y46.06 E70.313
G1 X119.84 Y45.81 E70.327
G1 X120.41 Y45.65 E70.341
G1 X121 Y45.6 E70.355
G1 X121.59 Y45.65 E70.369
G1 X122.16 Y45.81 E70.383
G1 X122.7 Y46.06 E70.397
G1 X123.19 Y46.4 E70.412
G1 X123.6 Y46.81 E70.425
G1 X123.94 Y47.3 E70.44
G1 X124.19 Y47.84 E70.454
G1 X124.35 Y48.41 E70.468
G1 X124.4 Y49 E70.482
G1 X124.35 Y49.59 E70.496
G1 X124.19 Y50.16 E70.51
G1 X123.94 Y50.7 E70.524
G1 X123.6 Y51.19 E70.538
G1 X123.19 Y51.6 E70.552
G1 X122.7 Y51.94 E70.566
G1 X122.16 Y52.19 E70.58
G1 X121.59 Y52.35 E70.594
G1 X121.12 Y52.39 E70.605
G0 X121 Y52.4
G0 Y52.8 F10800
; TYPE:WALL-OUTER
G1 X120.34 Y52.74 E70.621 F900
G1 X119.7 Y52.57 E70.637
G1 X119.1 Y52.29 E70.652
G1 X118.55 Y51.91 E70.668
G1 X118.09 Y51.45 E70.683
G1 X117.71 Y50.9 E70.699
G1 X117.43 Y50.3 E70.715
G1 X117.26 Y49.66 E70.731
G1 X117.2 Y49 E70.746
G1 X117.26 Y48.34 E70.762
G1 X117.43 Y47.7 E70.778
G1 X117.71 Y47.1 E70.793
G1 X118.09 Y46.55 E70.809
G1 X118.55 Y46.09 E70.825
G1 X119.1 Y45.71 E70.841
G1 X119.7 Y45.43 E70.856
G1 X120.34 Y45.26 E70.872
G1 X121 Y45.2 E70.888
G1 X121.66 Y45.26 E70.903
G1 X122.3 Y45.43 E70.919
G1 X122.9 Y45.71 E70.935
G1 X123.45 Y46.09 E70.951
G1 X123.91 Y46.55 E70.966
G1 X124.29 Y47.1 E70.982
G1 X124.57 Y47.7 E70.997
G1 X124.74 Y48.34 E71.013
G1 X124.8 Y49 E71.029
G1 X124.74 Y49.66 E71.045
G1 X124.57 Y50.3 E71.06
G1 X124.29 Y50.9 E71.076
G1 X123.91 Y51.45 E71.092
G1 X123.45 Y51.91 E71.107
G1 X122.9 Y52.29 E71.123
G1 X122.3 Y52.57 E71.139
G1 X121.66 Y52.74 E71.154
G1 X121.12 Y52.79 E71.167
G0 X121 Y52.8
G0 X120.34 Y52.74
G0 X119.7 Y52.57
G0 X119.1 Y52.29
G0 X118.55 Y51.91
G0 X118.31 Y51.66
G0 X121 Y52 F10800
G0 X123.06 Y50.73
; TYPE:FILL
G1 X123.65 Y48.53 E71.221 F1242
G0 X123.36 Y47.7 F10800
G1 X120.83 Y48.37 E71.283 F1242
G1 X118.31 Y49.05 E71.345
; Layer Change GCode
; LAYER:25
; LAYER_HEIGHT:0.15
; TYPE:FILL
G0 X121 Y52 Z3.95 F10800
; TYPE:WALL-INNER
G1 X120.48 Y51.95 E71.358 F900
G1 X119.97 Y51.81 E71.37
G1 X119.51 Y51.6 E71.382
G1 X119.07 Y51.29 E71.395
G1 X118.71 Y50.93 E71.407
G1 X118.4 Y50.49 E71.42
G1 X118.19 Y50.03 E71.432
G1 X118.05 Y49.52 E71.444
G1 X118 Y49 E71.457
G1 X118.05 Y48.48 E71.469
G1 X118.18 Y47.98 E71.481
G1 X118.41 Y47.5 E71.494
G1 X118.71 Y47.07 E71.506
G1 X119.07 Y46.71 E71.518
G1 X119.51 Y46.4 E71.531
G1 X119.97 Y46.19 E71.543
G1 X120.48 Y46.05 E71.556
G1 X121 Y46 E71.568
G1 X121.52 Y46.05 E71.58
G1 X122.03 Y46.19 E71.593
G1 X122.49 Y46.4 E71.605
G1 X122.93 Y46.71 E71.618
G1 X123.29 Y47.07 E71.63
G1 X123.6 Y47.51 E71.642
G1 X123.81 Y47.97 E71.655
G1 X123.95 Y48.48 E71.667
G1 X124 Y49 E71.679
G1 X123.95 Y49.52 E71.692
G1 X123.81 Y50.03 E71.704
G1 X123.6 Y50.49 E71.716
G1 X123.29 Y50.93 E71.729
G1 X122.93 Y51.29 E71.741
G1 X122.49 Y51.6 E71.754
G1 X122.03 Y51.81 E71.766
G1 X121.52 Y51.95 E71.778
G1 X121.12 Y51.99 E71.788
G0 X121 Y52
G0 Y52.4 F10800
G1 X120.41 Y52.35 E71.802 F900
G1 X119.84 Y52.19 E71.816
G1 X119.3 Y51.94 E71.83
G1 X118.81 Y51.6 E71.844
G1 X118.4 Y51.19 E71.858
G1 X118.06 Y50.7 E71.872
G1 X117.81 Y50.16 E71.886
G1 X117.65 Y49.59 E71.9
G1 X117.6 Y49 E71.914
G1 X117.65 Y48.41 E71.928
G1 X117.81 Y47.84 E71.942
G1 X118.06 Y47.3 E71.956
G1 X118.4 Y46.82 E71.97
G1 X118.81 Y46.4 E71.984
G1 X119.3 Y46.06 E71.999
G1 X119.84 Y45.81 E72.013
G1 X120.41 Y45.65 E72.026
G1 X121 Y45.6 E72.041
G1 X121.59 Y45.65 E72.055
G1 X122.16 Y45.81 E72.069
G1 X122.7 Y46.06 E72.083
G1 X123.19 Y46.4 E72.097
G1 X123.6 Y46.81 E72.111
G1 X123.94 Y47.3 E72.125
G1 X124.19 Y47.84 E72.139
G1 X124.35 Y48.41 E72.153
G1 X124.4 Y49 E72.167
G1 X124.35 Y49.59 E72.181
G1 X124.19 Y50.16 E72.195
G1 X123.94 Y50.7 E72.209
G1 X123.6 Y51.19 E72.223
G1 X123.19 Y51.6 E72.237
G1 X122.7 Y51.94 E72.251
G1 X122.16 Y52.19 E72.265
G1 X121.59 Y52.35 E72.279
G1 X121.12 Y52.39 E72.29
G0 X121 Y52.4
G0 Y52.8 F10800
; TYPE:WALL-OUTER
G1 X120.34 Y52.74 E72.306 F900
G1 X119.7 Y52.57 E72.322
G1 X119.1 Y52.29 E72.337
G1 X118.55 Y51.91 E72.353
G1 X118.09 Y51.45 E72.369
G1 X117.71 Y50.9 E72.385
G1 X117.43 Y50.3 E72.4
G1 X117.26 Y49.66 E72.416
G1 X117.2 Y49 E72.432
G1 X117.26 Y48.34 E72.447
G1 X117.43 Y47.7 E72.463
G1 X117.71 Y47.1 E72.479
G1 X118.09 Y46.55 E72.495
G1 X118.55 Y46.09 E72.51
G1 X119.1 Y45.71 E72.526
G1 X119.7 Y45.43 E72.541
G1 X120.34 Y45.26 E72.557
G1 X121 Y45.2 E72.573
G1 X121.66 Y45.26 E72.589
G1 X122.3 Y45.43 E72.604
G1 X122.9 Y45.71 E72.62
G1 X123.45 Y46.09 E72.636
G1 X123.91 Y46.55 E72.651
G1 X124.29 Y47.1 E72.667
G1 X124.57 Y47.7 E72.683
G1 X124.74 Y48.34 E72.699
G1 X124.8 Y49 E72.714
G1 X124.74 Y49.66 E72.73
G1 X124.57 Y50.3 E72.746
G1 X124.29 Y50.9 E72.761
G1 X123.91 Y51.45 E72.777
G1 X123.45 Y51.91 E72.793
G1 X122.9 Y52.29 E72.808
G1 X122.3 Y52.57 E72.824
G1 X121.66 Y52.74 E72.84
G1 X121.12 Y52.79 E72.853
G0 X121 Y52.8
G0 X120.34 Y52.74
G0 X119.7 Y52.57
G0 X119.1 Y52.29
G0 X118.55 Y51.91
G0 X118.31 Y51.66
G0 X121 Y52 F10800
G0 X123.06 Y50.73
; TYPE:FILL
G1 X123.65 Y48.53 E72.907 F1242
G0 X123.36 Y47.7 F10800
G1 X120.83 Y48.37 E72.969 F1242
G1 X118.31 Y49.05 E73.031
; Layer Change GCode
; LAYER:26
; LAYER_HEIGHT:0.15
; TYPE:FILL
G0 X121.01 Y51.99 Z4.1 F10800
; TYPE:WALL-INNER
G1 X120.49 Y51.95 E73.043 F900
G1 X119.98 Y51.82 E73.055
G1 X119.51 Y51.6 E73.068
G1 X119.08 Y51.3 E73.08
G1 X118.71 Y50.94 E73.092
G1 X118.41 Y50.5 E73.105
G1 X118.19 Y50.03 E73.117
G1 X118.05 Y49.53 E73.13
G1 X118.01 Y49.01 E73.142
G1 X118.05 Y48.49 E73.154
G1 X118.18 Y47.98 E73.167
G1 X118.4 Y47.51 E73.179
G1 X118.7 Y47.08 E73.191
G1 X119.06 Y46.71 E73.204
G1 X119.5 Y46.41 E73.216
G1 X119.97 Y46.19 E73.229
G1 X120.47 Y46.05 E73.241
G1 X120.99 Y46.01 E73.253
G1 X121.51 Y46.05 E73.266
G1 X122.02 Y46.18 E73.278
G1 X122.49 Y46.4 E73.29
G1 X122.92 Y46.7 E73.303
G1 X123.29 Y47.06 E73.315
G1 X123.59 Y47.5 E73.328
G1 X123.81 Y47.97 E73.34
G1 X123.95 Y48.47 E73.352
G1 X123.99 Y48.99 E73.365
G1 X123.95 Y49.51 E73.377
G1 X123.82 Y50.02 E73.389
G1 X123.6 Y50.49 E73.402
G1 X123.3 Y50.92 E73.414
G1 X122.94 Y51.29 E73.426
G1 X122.5 Y51.59 E73.439
G1 X122.03 Y51.81 E73.451
G1 X121.53 Y51.95 E73.464
G1 X121.13 Y51.98 E73.473
G0 X121.01 Y51.99
G0 X121.01 Y52.4 F10800
G1 X120.42 Y52.35 E73.487 F900
G1 X119.85 Y52.2 E73.501
G1 X119.31 Y51.95 E73.515
G1 X118.83 Y51.61 E73.529
G1 X118.41 Y51.19 E73.543
G1 X118.06 Y50.71 E73.557
G1 X117.81 Y50.17 E73.571
G1 X117.66 Y49.6 E73.585
G1 X117.6 Y49.01 E73.599
G1 X117.65 Y48.42 E73.613
G1 X117.8 Y47.85 E73.627
G1 X118.05 Y47.31 E73.641
G1 X118.39 Y46.82 E73.655
G1 X118.81 Y46.41 E73.669
G1 X119.29 Y46.06 E73.684
G1 X119.83 Y45.81 E73.697
G1 X120.4 Y45.66 E73.711
G1 X120.99 Y45.6 E73.726
G1 X121.58 Y45.65 E73.74
G1 X122.15 Y45.8 E73.754
G1 X122.69 Y46.05 E73.768
G1 X123.17 Y46.39 E73.782
G1 X123.59 Y46.81 E73.796
G1 X123.94 Y47.29 E73.81
G1 X124.19 Y47.83 E73.824
G1 X124.34 Y48.4 E73.838
G1 X124.4 Y48.99 E73.852
G1 X124.35 Y49.58 E73.866
G1 X124.2 Y50.15 E73.88
G1 X123.95 Y50.69 E73.894
G1 X123.61 Y51.17 E73.908
G1 X123.19 Y51.59 E73.922
G1 X122.71 Y51.94 E73.936
G1 X122.17 Y52.19 E73.95
G1 X121.6 Y52.34 E73.964
G1 X121.13 Y52.38 E73.975
