;FLAVOR:Marlin
;TIME:6078
;Filament used: 4.04812m
;Layer height: 0.2
;MINX:124.7
;MINY:119.815
;MINZ:0.3
;MAXX:175.3
;MAXY:186.202
;MAXZ:30.1
;Generated with Cura_SteamEngine 4.13.1
M140 S60
M105
M190 S60
M104 S200
M105
M109 S200
M82 ;absolute extrusion mode
G28 ;Home
G1 Z15.0 F2000 ;Move the platform
G92 E0
G92 E0
G1 F1500 E-6.5
;LAYER_COUNT:150
;LAYER:0
M107
M204 S1000
G0 F7500 X130.377 Y122.538 Z0.3
;TYPE:SKIRT
G1 F1500 E0
G1 X130.921 Y121.966 E0.03938
G1 X131.52 Y121.451 E0.07879
G1 X132.168 Y120.999 E0.11821
G1 X132.858 Y120.616 E0.15758
G1 X133.583 Y120.304 E0.19696
G1 X134.337 Y120.067 E0.23639
G1 X135.11 Y119.907 E0.27577
G1 X135.896 Y119.826 E0.31519
G1 X136.296 Y119.816 E0.33516
G1 X141.296 Y119.815 E0.58461
G1 X142.085 Y119.855 E0.62402
G1 X142.866 Y119.974 E0.66344
G1 X143.63 Y120.172 E0.70281
G1 X144.371 Y120.446 E0.74223
G1 X145.08 Y120.793 E0.78161
G1 X145.75 Y121.211 E0.82101
G1 X146.302 Y121.638 E0.85582
G1 X146.521 Y121.45 E0.87022
G1 X147.169 Y120.999 E0.90961
G1 X147.86 Y120.615 E0.94905
G1 X148.585 Y120.303 E0.98843
G1 X149.338 Y120.066 E1.02781
G1 X150.112 Y119.907 E1.06723
G1 X150.897 Y119.826 E1.10661
G1 X151.299 Y119.816 E1.12667
G1 X156.299 Y119.816 E1.37612
G1 X157.088 Y119.856 E1.41553
G1 X157.868 Y119.975 E1.4549
G1 X158.633 Y120.173 E1.49432
G1 X159.373 Y120.447 E1.53369
G1 X160.082 Y120.795 E1.57309
G1 X160.753 Y121.213 E1.61253
G1 X161.377 Y121.696 E1.6519
G1 X161.95 Y122.239 E1.69129
G1 X162.465 Y122.838 E1.7307
G1 X162.916 Y123.486 E1.77008
G1 X163.3 Y124.177 E1.80952
G1 X163.612 Y124.902 E1.8489
G1 X163.849 Y125.655 E1.88829
G1 X164.008 Y126.429 E1.92771
G1 X164.089 Y127.214 E1.96708
G1 X164.099 Y127.68 E1.99033
G1 X164.075 Y130.602 E2.13612
G1 X167.5 Y130.602 E2.30699
G1 X168.289 Y130.642 E2.3464
G1 X169.069 Y130.761 E2.38577
G1 X169.834 Y130.959 E2.42519
G1 X170.574 Y131.233 E2.46456
G1 X171.283 Y131.581 E2.50396
G1 X171.954 Y131.999 E2.54341
G1 X172.578 Y132.482 E2.58277
G1 X173.151 Y133.025 E2.62216
G1 X173.666 Y133.624 E2.66157
G1 X174.117 Y134.272 E2.70096
G1 X174.501 Y134.963 E2.7404
G1 X174.813 Y135.688 E2.77977
G1 X175.05 Y136.441 E2.81916
G1 X175.209 Y137.215 E2.85858
G1 X175.29 Y138 E2.89795
G1 X175.3 Y138.402 E2.91801
G1 X175.3 Y178.402 E4.91362
G1 X175.26 Y179.191 E4.95303
G1 X175.141 Y179.971 E4.9924
G1 X174.943 Y180.736 E5.03182
G1 X174.669 Y181.476 E5.07119
G1 X174.321 Y182.185 E5.11059
G1 X173.903 Y182.856 E5.15004
G1 X173.42 Y183.48 E5.1894
G1 X172.877 Y184.053 E5.22879
G1 X172.278 Y184.568 E5.2682
G1 X171.63 Y185.019 E5.30759
G1 X170.939 Y185.403 E5.34703
G1 X170.214 Y185.715 E5.3864
G1 X169.461 Y185.952 E5.42579
G1 X168.687 Y186.111 E5.46521
G1 X167.902 Y186.192 E5.50458
G1 X167.5 Y186.202 E5.52464
G1 X136.32 Y186.202 E7.08022
G1 X135.531 Y186.162 E7.11963
G1 X134.751 Y186.043 E7.159
G1 X133.986 Y185.845 E7.19842
G1 X133.246 Y185.571 E7.23779
G1 X132.537 Y185.223 E7.27719
G1 X131.866 Y184.805 E7.31663
G1 X131.242 Y184.322 E7.356
G1 X130.805 Y183.917 E7.38573
G1 X126.985 Y180.097 E7.65525
G1 X126.455 Y179.511 E7.69467
G1 X125.988 Y178.875 E7.73403
G1 X125.587 Y178.195 E7.77342
G1 X125.257 Y177.477 E7.81284
G1 X125.002 Y176.73 E7.85222
G1 X124.823 Y175.961 E7.89161
G1 X124.723 Y175.177 E7.93104
G1 X124.7 Y174.582 E7.96075
G1 X124.7 Y173.404 E8.01952
G1 X124.74 Y172.615 E8.05893
G1 X124.859 Y171.835 E8.0983
G1 X125.057 Y171.07 E8.13772
G1 X125.331 Y170.33 E8.17709
G1 X125.679 Y169.621 E8.21649
G1 X126.097 Y168.95 E8.25594
G1 X126.58 Y168.326 E8.2953
G1 X127.123 Y167.753 E8.33469
G1 X127.722 Y167.238 E8.3741
G1 X128.37 Y166.787 E8.41349
G1 X129.061 Y166.403 E8.45293
G1 X129.786 Y166.091 E8.4923
G1 X130.539 Y165.854 E8.53169
G1 X131.313 Y165.695 E8.57111
G1 X132.098 Y165.614 E8.61048
G1 X132.5 Y165.604 E8.63054
G1 X141.417 Y165.604 E9.07541
G1 X141.95 Y165.359 E9.10468
G1 X142.697 Y165.104 E9.14406
G1 X143.466 Y164.925 E9.18345
G1 X144.25 Y164.825 E9.22288
G1 X144.845 Y164.802 E9.25259
G1 X150.655 Y164.802 E9.54245
G1 X151.444 Y164.842 E9.58186
G1 X152.224 Y164.961 E9.62123
G1 X152.989 Y165.159 E9.66065
G1 X153.729 Y165.433 E9.70002
G1 X154.077 Y165.604 E9.71937
G1 X154.702 Y165.604 E9.75055
G1 X154.702 Y151.199 E10.46922
G1 X154.465 Y151.199 E10.48104
G1 X154.268 Y151.315 E10.49245
G1 X153.55 Y151.645 E10.53187
G1 X152.803 Y151.9 E10.57125
G1 X152.034 Y152.079 E10.61064
G1 X151.25 Y152.179 E10.65007
G1 X150.655 Y152.202 E10.67978
G1 X144.845 Y152.202 E10.96964
G1 X144.056 Y152.162 E11.00905
G1 X143.276 Y152.043 E11.04842
G1 X142.511 Y151.845 E11.08784
G1 X141.771 Y151.571 E11.12721
G1 X141.062 Y151.223 E11.16661
G1 X141.023 Y151.199 E11.1689
G1 X132.5 Y151.199 E11.59411
G1 X131.711 Y151.159 E11.63353
G1 X130.931 Y151.04 E11.67289
G1 X130.166 Y150.842 E11.71231
G1 X129.426 Y150.568 E11.75168
G1 X128.717 Y150.22 E11.79109
G1 X128.046 Y149.802 E11.83053
G1 X127.422 Y149.319 E11.86989
G1 X126.849 Y148.776 E11.90928
G1 X126.334 Y148.177 E11.94869
G1 X125.883 Y147.529 E11.98808
G1 X125.499 Y146.838 E12.02752
G1 X125.187 Y146.113 E12.06689
G1 X124.95 Y145.36 E12.10628
G1 X124.791 Y144.586 E12.1457
G1 X124.71 Y143.801 E12.18507
G1 X124.7 Y143.399 E12.20513
G1 X124.7 Y142.222 E12.26385
G1 X124.74 Y141.433 E12.30327
G1 X124.859 Y140.653 E12.34263
G1 X125.057 Y139.888 E12.38206
G1 X125.331 Y139.148 E12.42143
G1 X125.679 Y138.439 E12.46083
G1 X126.097 Y137.768 E12.50027
G1 X126.58 Y137.144 E12.53964
G1 X126.985 Y136.707 E12.56936
G1 X128.499 Y135.193 E12.67618
G1 X128.498 Y127.617 E13.05415
G1 X128.538 Y126.828 E13.09357
G1 X128.657 Y126.047 E13.13298
G1 X128.855 Y125.283 E13.17235
G1 X129.129 Y124.542 E13.21177
G1 X129.477 Y123.833 E13.25117
G1 X129.894 Y123.163 E13.29054
G1 X130.377 Y122.538 E13.32995
G0 F7500 X130.773 Y122.693
G1 F1500 X131.314 Y122.146 E13.36833
G1 X131.908 Y121.659 E13.40666
G1 X132.551 Y121.235 E13.44508
G1 X133.233 Y120.881 E13.48342
G1 X133.949 Y120.599 E13.52181
G1 X134.69 Y120.393 E13.56018
G1 X135.448 Y120.265 E13.59853
G1 X136.297 Y120.216 E13.64096
G1 X141.297 Y120.215 E13.89041
G1 X142.065 Y120.255 E13.92878
G1 X142.824 Y120.374 E13.96711
G1 X143.568 Y120.572 E14.00552
G1 X144.287 Y120.845 E14.04389
G1 X144.973 Y121.192 E14.08224
G1 X145.62 Y121.608 E14.12062
G1 X146.22 Y122.089 E14.15898
G1 X146.297 Y122.165 E14.16438
G1 X146.315 Y122.146 E14.16569
G1 X146.91 Y121.658 E14.20408
G1 X147.552 Y121.235 E14.24244
G1 X148.235 Y120.88 E14.28084
G1 X148.95 Y120.599 E14.31917
G1 X149.692 Y120.393 E14.35758
G1 X150.45 Y120.265 E14.39594
G1 X151.299 Y120.216 E14.43836
G1 X156.299 Y120.216 E14.68781
G1 X157.067 Y120.256 E14.72618
G1 X157.827 Y120.375 E14.76456
G1 X158.57 Y120.573 E14.80292
G1 X159.289 Y120.847 E14.84131
G1 X159.975 Y121.194 E14.87966
G1 X160.622 Y121.61 E14.91804
G1 X161.222 Y122.091 E14.95641
G1 X161.769 Y122.632 E14.99479
G1 X162.257 Y123.227 E15.03318
G1 X162.68 Y123.869 E15.07154
G1 X163.035 Y124.552 E15.10994
G1 X163.316 Y125.267 E15.14827
G1 X163.522 Y126.009 E15.18669
G1 X163.65 Y126.767 E15.22504
G1 X163.699 Y127.676 E15.27045
G1 X163.672 Y131.002 E15.43639
G1 X167.5 Y131.002 E15.62737
G1 X168.268 Y131.042 E15.66574
G1 X169.028 Y131.161 E15.70412
G1 X169.771 Y131.359 E15.74248
G1 X170.49 Y131.633 E15.78087
G1 X171.176 Y131.98 E15.81922
G1 X171.823 Y132.396 E15.8576
G1 X172.423 Y132.877 E15.89596
G1 X172.97 Y133.418 E15.93435
G1 X173.458 Y134.013 E15.97274
G1 X173.881 Y134.655 E16.0111
G1 X174.236 Y135.338 E16.0495
G1 X174.517 Y136.053 E16.08783
G1 X174.723 Y136.795 E16.12625
G1 X174.851 Y137.553 E16.1646
G1 X174.9 Y138.402 E16.20702
G1 X174.9 Y178.402 E18.20263
G1 X174.86 Y179.17 E18.241
G1 X174.741 Y179.93 E18.27938
G1 X174.543 Y180.673 E18.31774
G1 X174.269 Y181.392 E18.35613
G1 X173.922 Y182.078 E18.39448
G1 X173.506 Y182.725 E18.43286
G1 X173.025 Y183.325 E18.47122
G1 X172.484 Y183.872 E18.50961
G1 X171.889 Y184.36 E18.548
G1 X171.247 Y184.783 E18.58635
G1 X170.564 Y185.138 E18.62476
G1 X169.849 Y185.419 E18.66309
G1 X169.107 Y185.625 E18.7015
G1 X168.349 Y185.753 E18.73986
G1 X167.5 Y185.802 E18.78228
G1 X136.32 Y185.802 E20.33786
G1 X135.552 Y185.762 E20.37623
G1 X134.792 Y185.643 E20.41461
G1 X134.049 Y185.445 E20.45297
G1 X133.33 Y185.171 E20.49136
G1 X132.644 Y184.824 E20.52971
G1 X131.997 Y184.408 E20.56808
G1 X131.397 Y183.927 E20.60645
G1 X131.087 Y183.635 E20.6277
G1 X127.267 Y179.815 E20.89722
G1 X126.753 Y179.243 E20.93558
G1 X126.3 Y178.621 E20.97397
G1 X125.914 Y177.956 E21.01234
G1 X125.599 Y177.254 E21.05072
G1 X125.359 Y176.523 E21.08911
G1 X125.196 Y175.772 E21.12745
G1 X125.112 Y175.007 E21.16584
G1 X125.1 Y174.582 E21.18705
G1 X125.1 Y173.404 E21.24583
G1 X125.14 Y172.636 E21.28419
G1 X125.259 Y171.876 E21.32257
G1 X125.457 Y171.133 E21.36093
G1 X125.731 Y170.414 E21.39932
G1 X126.078 Y169.728 E21.43767
G1 X126.494 Y169.081 E21.47605
G1 X126.975 Y168.481 E21.51442
G1 X127.516 Y167.934 E21.5528
G1 X128.111 Y167.446 E21.59119
G1 X128.753 Y167.023 E21.62955
G1 X129.436 Y166.668 E21.66795
G1 X130.151 Y166.387 E21.70628
G1 X130.893 Y166.181 E21.7447
G1 X131.651 Y166.053 E21.78305
G1 X132.5 Y166.004 E21.82548
G1 X141.498 Y166.004 E22.27439
G1 X142.173 Y165.701 E22.3113
G1 X142.904 Y165.461 E22.34969
G1 X143.655 Y165.298 E22.38803
G1 X144.42 Y165.214 E22.42642
G1 X144.845 Y165.202 E22.44763
G1 X150.655 Y165.202 E22.7375
G1 X151.423 Y165.242 E22.77586
G1 X152.183 Y165.361 E22.81424
G1 X152.926 Y165.559 E22.8526
G1 X153.645 Y165.833 E22.89099
G1 X153.983 Y166.004 E22.90989
G1 X155.102 Y166.004 E22.96572
G1 X155.102 Y150.799 E23.7243
G1 X154.355 Y150.799 E23.76156
G1 X154.029 Y150.988 E23.78036
G1 X153.327 Y151.303 E23.81875
G1 X152.596 Y151.543 E23.85714
G1 X151.845 Y151.706 E23.89548
G1 X151.08 Y151.79 E23.93387
G1 X150.655 Y151.802 E23.95508
G1 X144.845 Y151.802 E24.24495
G1 X144.077 Y151.762 E24.28331
G1 X143.317 Y151.643 E24.32169
G1 X142.574 Y151.445 E24.36005
G1 X141.855 Y151.171 E24.39844
G1 X141.169 Y150.824 E24.4368
G1 X141.13 Y150.799 E24.43911
G1 X132.5 Y150.799 E24.86966
G1 X131.732 Y150.759 E24.90803
G1 X130.972 Y150.64 E24.94641
G1 X130.229 Y150.442 E24.98477
G1 X129.51 Y150.168 E25.02315
G1 X128.824 Y149.821 E25.06151
G1 X128.177 Y149.405 E25.09988
G1 X127.577 Y148.924 E25.13825
G1 X127.03 Y148.383 E25.17663
G1 X126.542 Y147.788 E25.21502
G1 X126.119 Y147.146 E25.25338
G1 X125.764 Y146.463 E25.29178
G1 X125.483 Y145.748 E25.33011
G1 X125.277 Y145.006 E25.36853
G1 X125.149 Y144.248 E25.40688
G1 X125.1 Y143.399 E25.44931
G1 X125.1 Y142.222 E25.50803
G1 X125.14 Y141.454 E25.5464
G1 X125.259 Y140.694 E25.58478
G1 X125.457 Y139.951 E25.62314
G1 X125.731 Y139.232 E25.66153
G1 X126.078 Y138.546 E25.69988
G1 X126.494 Y137.899 E25.73826
G1 X126.975 Y137.299 E25.77662
G1 X127.267 Y136.989 E25.79787
G1 X128.899 Y135.357 E25.91301
G1 X128.898 Y127.617 E26.29916
G1 X128.938 Y126.849 E26.33753
G1 X129.057 Y126.089 E26.37591
G1 X129.255 Y125.345 E26.41432
G1 X129.529 Y124.627 E26.45266
G1 X129.876 Y123.94 E26.49106
G1 X130.292 Y123.293 E26.52944
G1 X130.773 Y122.693 E26.5678
G0 F7500 X131.168 Y122.853
G1 F1500 X131.706 Y122.333 E26.60513
G1 X132.296 Y121.873 E26.64245
G1 X132.931 Y121.479 E26.67974
G1 X133.606 Y121.154 E26.71711
G1 X134.311 Y120.904 E26.75443
G1 X135.038 Y120.73 E26.79173
G1 X135.78 Y120.635 E26.82905
G1 X136.297 Y120.616 E26.85486
G1 X141.297 Y120.615 E27.10431
G1 X142.044 Y120.655 E27.14163
G1 X142.782 Y120.774 E27.17893
G1 X143.504 Y120.972 E27.21628
G1 X144.2 Y121.245 E27.25358
G1 X144.863 Y121.591 E27.29089
G1 X145.486 Y122.006 E27.32823
G1 X146.06 Y122.485 E27.36553
G1 X146.297 Y122.73 E27.38254
G1 X146.707 Y122.332 E27.41104
G1 X147.297 Y121.873 E27.44834
G1 X147.933 Y121.478 E27.48569
G1 X148.607 Y121.154 E27.523
G1 X149.312 Y120.904 E27.56032
G1 X150.04 Y120.73 E27.59766
G1 X150.782 Y120.635 E27.63498
G1 X151.299 Y120.616 E27.66079
G1 X156.299 Y120.616 E27.91024
G1 X157.046 Y120.656 E27.94756
G1 X157.784 Y120.775 E27.98486
G1 X158.506 Y120.973 E28.02221
G1 X159.202 Y121.246 E28.05951
G1 X159.865 Y121.593 E28.09684
G1 X160.488 Y122.008 E28.13419
G1 X161.062 Y122.487 E28.17149
G1 X161.583 Y123.024 E28.20882
G1 X162.042 Y123.614 E28.24611
G1 X162.437 Y124.25 E28.28346
G1 X162.761 Y124.924 E28.32077
G1 X163.011 Y125.629 E28.35809
G1 X163.185 Y126.357 E28.39543
G1 X163.28 Y127.099 E28.43275
G1 X163.299 Y127.673 E28.46141
G1 X163.269 Y131.402 E28.64745
G1 X167.5 Y131.402 E28.85854
G1 X168.247 Y131.442 E28.89586
G1 X168.985 Y131.561 E28.93315
G1 X169.707 Y131.759 E28.9705
G1 X170.403 Y132.032 E29.0078
G1 X171.066 Y132.379 E29.04514
G1 X171.689 Y132.794 E29.08248
G1 X172.263 Y133.273 E29.11978
G1 X172.784 Y133.81 E29.15711
G1 X173.243 Y134.4 E29.1944
G1 X173.638 Y135.036 E29.23175
G1 X173.962 Y135.71 E29.26906
G1 X174.212 Y136.415 E29.30638
G1 X174.386 Y137.143 E29.34373
G1 X174.481 Y137.885 E29.38105
G1 X174.5 Y138.402 E29.40686
G1 X174.5 Y178.402 E31.40247
G1 X174.46 Y179.149 E31.43979
G1 X174.341 Y179.887 E31.47708
G1 X174.143 Y180.609 E31.51443
G1 X173.87 Y181.305 E31.55173
G1 X173.523 Y181.968 E31.58906
G1 X173.108 Y182.591 E31.62641
G1 X172.629 Y183.165 E31.66371
G1 X172.092 Y183.686 E31.70104
G1 X171.502 Y184.145 E31.73833
G1 X170.866 Y184.54 E31.77568
G1 X170.192 Y184.864 E31.81299
G1 X169.487 Y185.114 E31.85031
G1 X168.759 Y185.288 E31.88765
G1 X168.017 Y185.383 E31.92497
G1 X167.5 Y185.402 E31.95079
G1 X136.32 Y185.402 E33.50636
G1 X135.573 Y185.362 E33.54368
G1 X134.835 Y185.243 E33.58098
G1 X134.113 Y185.045 E33.61833
G1 X133.417 Y184.772 E33.65563
G1 X132.754 Y184.425 E33.69296
G1 X132.131 Y184.01 E33.73031
G1 X131.37 Y183.352 E33.7805
G1 X127.55 Y179.532 E34.05002
G1 X127.05 Y178.975 E34.08736
G1 X126.613 Y178.369 E34.12464
G1 X126.242 Y177.719 E34.16198
G1 X125.943 Y177.033 E34.19931
G1 X125.719 Y176.319 E34.23664
G1 X125.572 Y175.586 E34.27394
G1 X125.5 Y174.582 E34.32416
G1 X125.5 Y173.404 E34.38293
G1 X125.54 Y172.657 E34.42025
G1 X125.659 Y171.919 E34.45755
G1 X125.857 Y171.197 E34.4949
G1 X126.13 Y170.501 E34.5322
G1 X126.477 Y169.838 E34.56953
G1 X126.892 Y169.215 E34.60688
G1 X127.371 Y168.641 E34.64417
G1 X127.908 Y168.12 E34.6815
G1 X128.498 Y167.661 E34.7188
G1 X129.134 Y167.266 E34.75615
G1 X129.808 Y166.942 E34.79346
G1 X130.513 Y166.692 E34.83078
G1 X131.241 Y166.518 E34.86812
G1 X131.983 Y166.423 E34.90544
G1 X132.5 Y166.404 E34.93125
G1 X141.603 Y166.404 E35.3854
G1 X141.708 Y166.344 E35.39143
G1 X142.394 Y166.045 E35.42877
G1 X143.108 Y165.821 E35.4661
G1 X143.841 Y165.674 E35.5034
G1 X144.845 Y165.602 E35.55362
G1 X150.655 Y165.602 E35.84348
G1 X151.402 Y165.642 E35.8808
G1 X152.14 Y165.761 E35.9181
G1 X152.862 Y165.959 E35.95545
G1 X153.558 Y166.232 E35.99275
G1 X153.887 Y166.404 E36.01127
G1 X155.502 Y166.404 E36.09184
G1 X155.502 Y150.399 E36.89033
G1 X154.249 Y150.399 E36.95285
G1 X153.792 Y150.66 E36.9791
G1 X153.106 Y150.959 E37.01644
G1 X152.392 Y151.183 E37.05377
G1 X151.659 Y151.33 E37.09107
G1 X150.655 Y151.402 E37.14129
G1 X144.845 Y151.402 E37.43115
G1 X144.098 Y151.362 E37.46847
G1 X143.36 Y151.243 E37.50576
G1 X142.638 Y151.045 E37.54311
G1 X141.942 Y150.772 E37.58041
G1 X141.279 Y150.425 E37.61775
G1 X141.24 Y150.399 E37.62009
G1 X132.5 Y150.399 E38.05613
G1 X131.753 Y150.359 E38.09345
G1 X131.015 Y150.24 E38.13074
G1 X130.293 Y150.042 E38.16809
G1 X129.597 Y149.769 E38.20539
G1 X128.934 Y149.422 E38.24273
G1 X128.311 Y149.007 E38.28007
G1 X127.737 Y148.528 E38.31737
G1 X127.216 Y147.991 E38.3547
G1 X126.757 Y147.401 E38.39199
G1 X126.362 Y146.765 E38.42934
G1 X126.038 Y146.091 E38.46665
G1 X125.788 Y145.386 E38.50397
G1 X125.614 Y144.658 E38.54132
G1 X125.519 Y143.916 E38.57864
G1 X125.5 Y143.399 E38.60445
G1 X125.5 Y142.222 E38.66317
G1 X125.54 Y141.475 E38.70049
G1 X125.659 Y140.737 E38.73778
G1 X125.857 Y140.015 E38.77513
G1 X126.13 Y139.319 E38.81243
G1 X126.477 Y138.656 E38.84977
G1 X126.892 Y138.033 E38.88711
G1 X127.55 Y137.272 E38.9373
G1 X129.299 Y135.523 E39.06071
G1 X129.298 Y127.617 E39.45514
G1 X129.338 Y126.87 E39.49246
G1 X129.457 Y126.131 E39.5298
G1 X129.655 Y125.41 E39.5671
G1 X129.928 Y124.713 E39.60445
G1 X130.274 Y124.05 E39.64176
G1 X130.689 Y123.428 E39.67907
G1 X131.168 Y122.853 E39.7164
