;FLAVOR:Marlin
;TIME:750
;Filament used: 0.35784m
;Layer height: 0.2
;MINX:140.973
;MINY:137.032
;MINZ:0.3
;MAXX:159.027
;MAXY:164.014
;MAXZ:9.3
;Generated with Cura_SteamEngine 4.13.1
M140 S60
M105
M190 S60
M104 S200
M105
M109 S200
M82 ;absolute extrusion mode
G28 ;Home
G1 Z15.0 F2000 ;Move the platform
G92 E0
G92 E0
G1 F1500 E-6.5
;LAYER_COUNT:46
;LAYER:0
M107
M204 S1000
G0 F7500 X142.274 Y138.443 Z0.3
;TYPE:SKIRT
G1 F1500 E0
G1 X142.386 Y138.331 E0.0079
G1 X142.832 Y137.941 E0.03746
G1 X143.327 Y137.614 E0.06706
G1 X143.862 Y137.357 E0.09667
G1 X144.426 Y137.174 E0.12625
G1 X145.009 Y137.069 E0.15581
G1 X145.348 Y137.045 E0.17276
G1 X145.591 Y137.037 E0.18489
G1 X146 Y137.032 E0.2053
G1 X153.864 Y137.032 E0.59763
G1 X154.566 Y137.042 E0.63266
G1 X155.157 Y137.091 E0.66225
G1 X155.736 Y137.218 E0.69182
G1 X156.292 Y137.422 E0.72137
G1 X156.817 Y137.699 E0.75098
G1 X157.299 Y138.045 E0.78058
G1 X157.614 Y138.331 E0.80181
G1 X157.726 Y138.443 E0.80971
G1 X158.116 Y138.889 E0.83927
G1 X158.443 Y139.384 E0.86887
G1 X158.7 Y139.919 E0.89848
G1 X158.883 Y140.483 E0.92806
G1 X158.988 Y141.066 E0.95761
G1 X159.012 Y141.394 E0.97402
G1 X159.02 Y141.636 E0.9861
G1 X159.027 Y142.264 E1.01744
G1 X159.025 Y143.244 E1.06633
G1 X159.025 Y149.523 E1.37959
G1 X159.015 Y150.244 E1.41556
G1 X158.92 Y151.092 E1.45813
G1 X158.876 Y151.301 E1.46879
G1 X158.331 Y154.012 E1.60675
G1 X157.733 Y157.634 E1.7899
G1 X157.706 Y157.782 E1.7974
G1 X157.474 Y158.596 E1.83963
G1 X157.247 Y159.176 E1.8707
G1 X157.193 Y159.309 E1.87787
G1 X157.074 Y159.586 E1.89291
G1 X156.803 Y160.114 E1.92252
G1 X156.571 Y160.462 E1.94338
G1 X156.224 Y160.932 E1.97253
G1 X156.145 Y161.036 E1.97904
G1 X155.948 Y161.287 E1.99496
G1 X155.552 Y161.727 E2.0245
G1 X155.229 Y162.011 E2.04595
G1 X154.727 Y162.411 E2.07798
G1 X154.605 Y162.505 E2.08566
G1 X154.381 Y162.671 E2.09957
G1 X153.882 Y162.991 E2.12914
G1 X153.527 Y163.166 E2.14889
G1 X152.977 Y163.407 E2.17885
G1 X152.565 Y163.574 E2.20103
G1 X152.001 Y163.757 E2.23061
G1 X151.586 Y163.84 E2.25172
G1 X150.975 Y163.932 E2.28255
G1 X150.551 Y163.984 E2.30386
G1 X149.958 Y164.014 E2.33349
G1 X149.535 Y163.987 E2.35463
G1 X148.885 Y163.913 E2.38727
G1 X148.502 Y163.86 E2.40656
G1 X147.922 Y163.737 E2.43614
G1 X147.503 Y163.594 E2.45823
G1 X146.789 Y163.31 E2.49656
G1 X146.54 Y163.203 E2.51009
G1 X146.012 Y162.932 E2.53969
G1 X145.654 Y162.692 E2.5612
G1 X145.075 Y162.26 E2.59724
G1 X144.827 Y162.064 E2.61301
G1 X144.387 Y161.666 E2.64261
G1 X144.109 Y161.348 E2.66368
G1 X143.72 Y160.858 E2.69489
G1 X143.63 Y160.741 E2.70226
G1 X143.453 Y160.502 E2.7171
G1 X143.133 Y160.002 E2.74671
G1 X142.953 Y159.635 E2.76711
G1 X142.722 Y159.103 E2.79604
G1 X142.667 Y158.971 E2.80318
G1 X142.549 Y158.673 E2.81917
G1 X142.368 Y158.108 E2.84877
G1 X142.292 Y157.726 E2.8682
G1 X141.82 Y154.841 E3.01404
G1 X141.313 Y152.215 E3.14748
G1 X141.21 Y151.741 E3.17168
G1 X141.07 Y151.042 E3.20724
G1 X140.986 Y150.302 E3.2444
G1 X140.975 Y149.859 E3.2665
G1 X140.973 Y142.883 E3.61454
G1 X140.975 Y142.17 E3.65011
G1 X140.985 Y141.489 E3.68409
G1 X141.034 Y140.898 E3.71368
G1 X141.162 Y140.319 E3.74326
G1 X141.366 Y139.763 E3.77281
G1 X141.643 Y139.239 E3.80238
G1 X141.989 Y138.757 E3.83198
G1 X142.274 Y138.443 E3.85313
G0 F7500 X142.557 Y138.726
G1 F1500 X142.669 Y138.614 E3.86104
G1 X143.096 Y138.243 E3.88926
G1 X143.571 Y137.936 E3.91747
G1 X144.084 Y137.7 E3.94565
G1 X144.626 Y137.538 E3.97387
G1 X145.362 Y137.444 E4.01089
G1 X145.596 Y137.437 E4.02257
G1 X146.005 Y137.432 E4.04297
G1 X153.858 Y137.432 E4.43476
G1 X154.56 Y137.442 E4.46979
G1 X155.123 Y137.49 E4.49798
G1 X155.674 Y137.617 E4.52619
G1 X156.202 Y137.821 E4.55443
G1 X156.695 Y138.096 E4.58259
G1 X157.331 Y138.614 E4.62351
G1 X157.443 Y138.726 E4.63142
G1 X157.814 Y139.153 E4.65964
G1 X158.121 Y139.628 E4.68785
G1 X158.357 Y140.141 E4.71603
G1 X158.519 Y140.683 E4.74425
G1 X158.612 Y141.408 E4.78071
G1 X158.62 Y141.641 E4.79235
G1 X158.627 Y142.263 E4.82338
G1 X158.625 Y143.243 E4.87227
G1 X158.625 Y149.517 E5.18528
G1 X158.615 Y150.238 E5.22126
G1 X158.529 Y151.009 E5.25996
G1 X158.476 Y151.26 E5.27276
G1 X157.936 Y153.952 E5.40974
G1 X157.339 Y157.562 E5.59229
G1 X157.312 Y157.71 E5.5998
G1 X157.102 Y158.45 E5.63817
G1 X156.875 Y159.03 E5.66925
G1 X156.706 Y159.428 E5.69082
G1 X156.447 Y159.93 E5.719
G1 X156.249 Y160.225 E5.73672
G1 X155.831 Y160.789 E5.77175
G1 X155.634 Y161.04 E5.78767
G1 X155.254 Y161.459 E5.81589
G1 X154.98 Y161.698 E5.83403
G1 X154.478 Y162.098 E5.86605
G1 X154.367 Y162.184 E5.87306
G1 X154.143 Y162.35 E5.88697
G1 X153.666 Y162.653 E5.91516
G1 X153.366 Y162.8 E5.93183
G1 X152.816 Y163.041 E5.96178
G1 X152.697 Y163.091 E5.96822
G1 X152.417 Y163.203 E5.98327
G1 X151.878 Y163.375 E6.0115
G1 X151.527 Y163.444 E6.02934
G1 X150.916 Y163.536 E6.06017
G1 X150.791 Y163.553 E6.06646
G1 X150.504 Y163.587 E6.08088
G1 X149.939 Y163.614 E6.1091
G1 X149.581 Y163.589 E6.12701
G1 X148.817 Y163.501 E6.16537
G1 X148.558 Y163.464 E6.17843
G1 X148.006 Y163.344 E6.20661
G1 X147.65 Y163.223 E6.22537
G1 X147.052 Y162.986 E6.25746
G1 X146.698 Y162.835 E6.27666
G1 X146.195 Y162.576 E6.30489
G1 X145.892 Y162.371 E6.32314
G1 X145.418 Y162.019 E6.35259
G1 X145.075 Y161.75 E6.37434
G1 X144.657 Y161.369 E6.40256
G1 X144.422 Y161.099 E6.42042
G1 X144.033 Y160.609 E6.45163
G1 X143.775 Y160.264 E6.47312
G1 X143.471 Y159.787 E6.50134
G1 X143.32 Y159.476 E6.51859
G1 X143.089 Y158.944 E6.54752
G1 X143.039 Y158.824 E6.55401
G1 X142.921 Y158.526 E6.57
G1 X142.75 Y157.987 E6.59821
G1 X142.687 Y157.665 E6.61458
G1 X142.659 Y157.484 E6.62372
G1 X142.22 Y154.806 E6.75911
G1 X141.697 Y152.095 E6.89685
G1 X141.602 Y151.663 E6.91892
G1 X141.462 Y150.964 E6.95449
G1 X141.386 Y150.29 E6.98833
G1 X141.375 Y149.859 E7.00984
G1 X141.373 Y142.884 E7.35782
G1 X141.375 Y142.176 E7.39314
G1 X141.385 Y141.495 E7.42712
G1 X141.434 Y140.932 E7.45532
G1 X141.561 Y140.381 E7.48353
G1 X141.764 Y139.854 E7.5117
G1 X142.04 Y139.36 E7.53993
G1 X142.557 Y138.726 E7.58075
G0 F7500 X142.839 Y139.008
G1 F1500 X142.951 Y138.896 E7.58865
G1 X143.358 Y138.547 E7.6154
G1 X143.812 Y138.261 E7.64217
G1 X144.303 Y138.046 E7.66891
G1 X144.821 Y137.906 E7.69568
G1 X145.375 Y137.844 E7.72349
G1 X145.601 Y137.837 E7.73477
G1 X146.01 Y137.832 E7.75518
G1 X153.852 Y137.832 E8.14642
G1 X154.554 Y137.842 E8.18144
G1 X155.088 Y137.89 E8.20819
G1 X155.61 Y138.016 E8.23498
G1 X156.106 Y138.219 E8.26172
G1 X156.567 Y138.493 E8.28848
G1 X157.049 Y138.896 E8.31982
G1 X157.161 Y139.008 E8.32772
G1 X157.51 Y139.415 E8.35447
G1 X157.796 Y139.869 E8.38124
G1 X158.011 Y140.36 E8.40798
G1 X158.151 Y140.878 E8.43475
G1 X158.213 Y141.423 E8.46212
G1 X158.22 Y141.646 E8.47325
G1 X158.227 Y142.262 E8.50399
G1 X158.225 Y143.242 E8.55288
G1 X158.225 Y149.512 E8.86569
G1 X158.215 Y150.233 E8.90166
G1 X158.137 Y150.927 E8.93651
G1 X158.092 Y151.143 E8.94751
G1 X157.545 Y153.864 E9.08598
G1 X156.946 Y157.49 E9.26933
G1 X156.919 Y157.638 E9.27684
G1 X156.729 Y158.304 E9.31139
G1 X156.458 Y158.993 E9.34833
G1 X156.339 Y159.27 E9.36337
G1 X156.091 Y159.746 E9.39015
G1 X155.927 Y159.987 E9.40469
G1 X155.516 Y160.542 E9.43915
G1 X155.319 Y160.793 E9.45506
G1 X154.957 Y161.189 E9.48183
G1 X154.73 Y161.385 E9.49679
G1 X154.228 Y161.785 E9.52882
G1 X154.128 Y161.862 E9.53511
G1 X153.904 Y162.028 E9.54902
G1 X153.451 Y162.315 E9.57578
G1 X153.206 Y162.433 E9.58935
G1 X152.548 Y162.72 E9.62516
G1 X152.268 Y162.832 E9.64021
G1 X151.757 Y162.993 E9.66693
G1 X151.467 Y163.049 E9.68167
G1 X150.856 Y163.141 E9.7125
G1 X150.457 Y163.19 E9.73255
G1 X149.921 Y163.213 E9.75932
G1 X149.626 Y163.192 E9.77407
G1 X148.874 Y163.105 E9.81184
G1 X148.615 Y163.068 E9.82489
G1 X148.091 Y162.953 E9.85166
G1 X147.798 Y162.851 E9.86714
G1 X147.105 Y162.575 E9.90435
G1 X146.856 Y162.468 E9.91787
G1 X146.38 Y162.22 E9.94465
G1 X146.131 Y162.05 E9.95969
G1 X145.657 Y161.698 E9.98915
G1 X145.323 Y161.436 E10.01033
G1 X144.928 Y161.073 E10.03709
G1 X144.735 Y160.85 E10.0518
G1 X144.346 Y160.36 E10.08302
G1 X144.273 Y160.265 E10.08899
G1 X144.096 Y160.026 E10.10383
G1 X143.81 Y159.572 E10.1306
G1 X143.687 Y159.317 E10.14473
G1 X143.456 Y158.785 E10.17366
G1 X143.293 Y158.378 E10.19554
G1 X143.082 Y157.603 E10.23561
G1 X143.055 Y157.422 E10.24474
G1 X142.614 Y154.737 E10.38049
G1 X142.088 Y152.012 E10.51895
G1 X141.994 Y151.584 E10.54081
G1 X141.854 Y150.885 E10.57638
G1 X141.785 Y150.279 E10.6068
G1 X141.775 Y149.859 E10.62776
G1 X141.773 Y142.885 E10.9757
G1 X141.775 Y142.182 E11.01077
G1 X141.785 Y141.501 E11.04475
G1 X141.833 Y140.967 E11.0715
G1 X141.96 Y140.446 E11.09825
G1 X142.162 Y139.949 E11.12502
G1 X142.437 Y139.488 E11.1518
G1 X142.839 Y139.008 E11.18304
G0 F7500 X143.122 Y139.291
G1 F1500 X143.234 Y139.179 E11.19094
G1 X143.619 Y138.851 E11.21617
G1 X144.05 Y138.588 E11.24136
G1 X144.518 Y138.395 E11.26662
G1 X145.01 Y138.279 E11.29184
G1 X145.389 Y138.244 E11.31082
G1 X145.606 Y138.237 E11.32166
G1 X146.015 Y138.232 E11.34206
G1 X153.847 Y138.232 E11.7328
G1 X154.549 Y138.242 E11.76783
G1 X155.052 Y138.289 E11.79303
G1 X155.542 Y138.415 E11.81828
G1 X156.005 Y138.617 E11.84348
G1 X156.432 Y138.888 E11.86871
G1 X156.766 Y139.179 E11.89081
G1 X156.878 Y139.291 E11.89871
G1 X157.206 Y139.676 E11.92394
G1 X157.469 Y140.107 E11.94913
G1 X157.662 Y140.575 E11.97439
G1 X157.778 Y141.067 E11.99961
G1 X157.813 Y141.437 E12.01815
G1 X157.82 Y141.651 E12.02883
G1 X157.827 Y142.262 E12.05932
G1 X157.825 Y143.242 E12.10821
G1 X157.825 Y149.506 E12.42072
G1 X157.815 Y150.227 E12.4567
G1 X157.746 Y150.844 E12.48767
G1 X157.693 Y151.095 E12.50047
G1 X157.154 Y153.777 E12.63695
G1 X156.552 Y157.418 E12.82107
G1 X156.525 Y157.566 E12.82857
G1 X156.357 Y158.158 E12.85927
G1 X156.13 Y158.738 E12.89035
G1 X155.971 Y159.112 E12.91062
G1 X155.605 Y159.75 E12.94732
G1 X155.201 Y160.295 E12.98116
G1 X155.004 Y160.546 E12.99708
G1 X154.481 Y161.073 E13.03413
G1 X153.979 Y161.473 E13.06615
G1 X153.666 Y161.707 E13.08565
G1 X153.045 Y162.067 E13.12146
G1 X152.495 Y162.308 E13.15142
G1 X152.119 Y162.46 E13.17165
G1 X151.407 Y162.653 E13.20845
G1 X150.696 Y162.759 E13.24432
G1 X150.409 Y162.793 E13.25874
G1 X149.671 Y162.794 E13.29555
G1 X148.93 Y162.709 E13.33277
G1 X148.671 Y162.672 E13.34582
G1 X147.945 Y162.479 E13.3833
G1 X147.263 Y162.207 E13.41993
G1 X147.014 Y162.1 E13.43345
G1 X146.369 Y161.729 E13.47057
G1 X145.819 Y161.319 E13.5048
G1 X145.571 Y161.123 E13.52057
G1 X145.049 Y160.602 E13.55736
G1 X144.66 Y160.112 E13.58857
G1 X144.417 Y159.787 E13.60882
G1 X144.054 Y159.158 E13.64505
G1 X143.823 Y158.626 E13.67399
G1 X143.665 Y158.231 E13.69521
G1 X143.478 Y157.542 E13.73083
G1 X143.002 Y154.633 E13.87789
G1 X142.487 Y151.964 E14.0135
G1 X142.386 Y151.505 E14.03695
G1 X142.246 Y150.806 E14.07252
G1 X142.185 Y150.268 E14.09953
G1 X142.175 Y149.859 E14.11994
G1 X142.173 Y142.886 E14.46783
G1 X142.175 Y142.188 E14.50265
G1 X142.185 Y141.507 E14.53663
G1 X142.233 Y141.004 E14.56184
G1 X142.359 Y140.514 E14.58708
G1 X142.56 Y140.05 E14.61231
G1 X142.832 Y139.624 E14.63752
G1 X143.122 Y139.291 E14.65955
G1 F1500 E8.15955
G0 F7500 X144.963 Y141.021
G0 X145.575 Y141.632
;TYPE:SUPPORT
G1 F1500 E14.65955
G1 X154.425 Y141.632 E15.10108
G1 X154.425 Y141.996 E15.11924
G1 X145.575 Y141.996 E15.56077
G1 X145.575 Y141.632 E15.57893
G1 F1500 E9.07893
;MESH:Raspberry_Camera_mount_connector.stl
G0 F7500 X144.71 Y141.632
G0 X149.771 Y155.267
G0 X149.383 Y153.853
G0 X148.274 Y155.122
G0 X148.075 Y155.604
G0 X148.007 Y156.126
G0 X148.075 Y156.637
G0 X148.274 Y157.12
G0 X148.597 Y157.536
G0 X148.925 Y157.788
G0 X150 Y158.278
;TYPE:WALL-INNER
G1 F1500 E15.57893
G1 X150.558 Y158.205 E15.607
G1 X151.079 Y157.988 E15.63516
G1 X151.529 Y157.64 E15.66354
G1 X151.866 Y157.201 E15.69115
G1 X152.082 Y156.678 E15.71938
G1 X152.154 Y156.113 E15.7478
G1 X152.082 Y155.562 E15.77552
G1 X151.866 Y155.04 E15.80371
G1 X151.518 Y154.588 E15.83217
G1 X151.078 Y154.251 E15.85982
G1 X150.557 Y154.035 E15.88796
G1 X149.992 Y153.961 E15.91638
G1 X149.434 Y154.038 E15.94449
G1 X148.922 Y154.251 E15.97215
G1 X148.475 Y154.593 E16.00023
G1 X148.133 Y155.041 E16.02835
G1 X147.918 Y155.562 E16.05647
G1 X147.846 Y156.127 E16.08489
G1 X147.918 Y156.679 E16.11266
G1 X148.134 Y157.202 E16.14089
G1 X148.482 Y157.651 E16.16923
G1 X148.922 Y157.989 E16.19691
G1 X149.443 Y158.205 E16.22505
G1 X150 Y158.278 E16.25308
G0 F7500 X150 Y157.875
;TYPE:WALL-OUTER
G1 F1500 X150.453 Y157.815 E16.27587
G1 X150.876 Y157.639 E16.29873
G1 X151.243 Y157.355 E16.32188
G1 X151.517 Y156.999 E16.3443
G1 X151.692 Y156.575 E16.36718
G1 X151.751 Y156.114 E16.39037
G1 X151.692 Y155.666 E16.41291
G1 X151.517 Y155.242 E16.43579
G1 X151.233 Y154.874 E16.45899
G1 X150.876 Y154.6 E16.48144
G1 X150.453 Y154.425 E16.50428
G1 X149.993 Y154.365 E16.52742
G1 X149.54 Y154.427 E16.55023
G1 X149.124 Y154.6 E16.57271
G1 X148.761 Y154.878 E16.59552
G1 X148.483 Y155.242 E16.61837
G1 X148.308 Y155.666 E16.64125
G1 X148.249 Y156.126 E16.66439
G1 X148.308 Y156.575 E16.68699
G1 X148.483 Y156.999 E16.70987
G1 X148.767 Y157.365 E16.73298
G1 X149.124 Y157.64 E16.75546
G1 X149.547 Y157.815 E16.7783
G1 X150 Y157.875 E16.8011
G0 F7500 X150.198 Y157.849
G0 X150.254 Y158.286
G0 X150 Y159.024
;TYPE:WALL-INNER
G1 F1500 X149.251 Y158.925 E16.83879
G1 X148.554 Y158.634 E16.87648
G1 X147.952 Y158.172 E16.91433
G1 X147.494 Y157.573 E16.95195
G1 X147.203 Y156.871 E16.98987
G1 X147.1 Y156.08 E17.02966
G1 X147.1 Y149.588 E17.35355
G1 X145.975 Y149.588 E17.40968
G1 X145.975 Y143.496 E17.71361
G1 X154.025 Y143.496 E18.11522
G1 X154.025 Y149.588 E18.41915
G1 X152.9 Y149.588 E18.47528
G1 X152.9 Y156.08 E18.79917
G1 X152.797 Y156.871 E18.83896
G1 X152.506 Y157.573 E18.87688
G1 X152.048 Y158.172 E18.9145
G1 X151.446 Y158.634 E18.95235
G1 X150.749 Y158.925 E18.99004
G1 X150 Y159.024 E19.02773
G0 F7500 X150 Y159.428
;TYPE:WALL-OUTER
G1 F1500 X149.149 Y159.315 E19.07056
G1 X148.351 Y158.983 E19.11368
G1 X147.666 Y158.457 E19.15677
G1 X147.144 Y157.774 E19.19966
G1 X146.813 Y156.975 E19.2428
G1 X146.7 Y156.109 E19.28637
G1 X146.7 Y149.988 E19.59175
G1 X145.575 Y149.988 E19.64788
G1 X145.575 Y143.096 E19.99172
G1 X154.425 Y143.096 E20.43325
G1 X154.425 Y149.988 E20.77709
G1 X153.3 Y149.988 E20.83322
G1 X153.3 Y156.109 E21.1386
G1 X153.187 Y156.975 E21.18217
G1 X152.856 Y157.774 E21.22532
G1 X152.334 Y158.457 E21.2682
G1 X151.649 Y158.983 E21.31129
G1 X150.851 Y159.315 E21.35441
G1 X150 Y159.428 E21.39724
G0 F7500 X149.802 Y159.402
G0 X149.86 Y158.966
G1 F1500 E14.89724
G0 F7500 X148.641 Y158.485
G0 X148.074 Y158.05
G0 X147.643 Y157.484
G0 X147.369 Y156.826
G0 X147.282 Y156.038
G0 X147.655 Y156.113
G0 X147.767 Y155.868
G1 F1500 E21.39724
G0 F7500 X147.49 Y155.833
;TYPE:SKIN
G1 F1500 X147.49 Y149.198 E21.72826
G1 X146.365 Y149.198 E21.78439
G1 X146.365 Y143.886 E22.04941
G1 X153.635 Y143.886 E22.41211
G1 X153.635 Y149.198 E22.67712
G1 X152.51 Y149.198 E22.73325
G1 X152.51 Y155.825 E23.06387
G1 X152.462 Y155.461 E23.08219
G1 X152.207 Y154.843 E23.11554
G1 X151.795 Y154.309 E23.14919
G1 X151.275 Y153.91 E23.18189
G1 X150.659 Y153.655 E23.21515
G1 X149.99 Y153.567 E23.24882
G1 X149.331 Y153.658 E23.28201
G1 X148.725 Y153.91 E23.31475
G1 X148.196 Y154.315 E23.34799
G1 X147.792 Y154.845 E23.38124
G1 X147.538 Y155.461 E23.41448
G1 X147.49 Y155.833 E23.43319
G0 F7500 X147.767 Y155.868
G0 X148.141 Y154.847
G0 X147.792 Y154.58
G1 F1500 X147.65 Y154.438 E23.44321
G0 F7500 X148.037 Y154.259
G1 F1500 X147.65 Y153.872 E23.47052
G0 F7500 X147.65 Y153.307
G1 F1500 X148.342 Y153.999 E23.51934
G0 F7500 X148.667 Y153.758
G1 F1500 X147.65 Y152.741 E23.5911
G0 F7500 X147.65 Y152.175
G1 F1500 X149.067 Y153.592 E23.69107
G0 F7500 X149.51 Y153.47
G1 F1500 X147.65 Y151.61 E23.82231
G0 F7500 X147.65 Y151.044
G1 F1500 X150.014 Y153.408 E23.9891
G0 F7500 X150.664 Y153.493
G1 F1500 X147.65 Y150.478 E24.20179
G0 F7500 X147.65 Y149.913
G1 F1500 X152.349 Y154.612 E24.53333
G0 F7500 X152.349 Y154.046
G1 F1500 X147.65 Y149.347 E24.86487
G0 F7500 X147.339 Y149.036
G1 F1500 X146.524 Y148.221 E24.92237
G0 F7500 X146.524 Y147.655
