;FLAVOR:Marlin
;TIME:2508
;Filament used: 1.40468m
;Layer height: 0.2
;MINX:132.9
;MINY:110.16
;MINZ:0.3
;MAXX:167.1
;MAXY:189.694
;MAXZ:7.1
;Generated with Cura_SteamEngine 4.13.1
M140 S60
M105
M190 S60
M104 S200
M105
M109 S200
M82 ;absolute extrusion mode
G28 ;Home
G1 Z15.0 F2000 ;Move the platform
G92 E0
G92 E0
G1 F1500 E-6.5
;LAYER_COUNT:35
;LAYER:0
M107
M204 S1000
G0 F7500 X142.626 Y111.562 Z0.3
;TYPE:SKIRT
G1 F1500 E0
G1 X142.829 Y111.341 E0.01497
G1 X142.945 Y111.225 E0.02316
G1 X143.352 Y110.876 E0.0499
G1 X143.806 Y110.59 E0.07667
G1 X144.297 Y110.375 E0.10342
G1 X144.815 Y110.235 E0.13019
G1 X145.369 Y110.173 E0.158
G1 X145.595 Y110.166 E0.16928
G1 X146.052 Y110.161 E0.19208
G1 X153.837 Y110.16 E0.58047
G1 X154.546 Y110.17 E0.61585
G1 X155.08 Y110.218 E0.6426
G1 X155.601 Y110.344 E0.66934
G1 X156.098 Y110.546 E0.69611
G1 X156.559 Y110.82 E0.72286
G1 X157.092 Y111.277 E0.75789
G1 X157.211 Y111.401 E0.76646
G1 X157.691 Y112.026 E0.80578
G1 X158.313 Y113.051 E0.8656
G1 X158.562 Y113.476 E0.89017
G1 X159.996 Y115.763 E1.02484
G1 X161.528 Y118.065 E1.1628
G1 X163.083 Y120.261 E1.29704
G1 X164.735 Y122.46 E1.43426
G1 X166.207 Y124.307 E1.55209
G1 X166.35 Y124.494 E1.56384
G1 X166.643 Y124.943 E1.59059
G1 X166.866 Y125.431 E1.61735
G1 X167.014 Y125.946 E1.64409
G1 X167.088 Y126.559 E1.67489
G1 X167.095 Y126.785 E1.68617
G1 X167.1 Y127.194 E1.70658
G1 X167.1 Y172.267 E3.95528
G1 X167.089 Y172.985 E3.99111
G1 X167.04 Y173.519 E4.01786
G1 X166.867 Y174.174 E4.05166
G1 X166.566 Y174.992 E4.09514
G1 X166.139 Y176.105 E4.15462
G1 X165.237 Y178.666 E4.29008
G1 X164.397 Y181.285 E4.4273
G1 X163.646 Y183.873 E4.56174
G1 X162.956 Y186.526 E4.6985
G1 X162.915 Y186.673 E4.70612
G1 X162.732 Y187.178 E4.73291
G1 X162.477 Y187.649 E4.75964
G1 X162.155 Y188.078 E4.7864
G1 X161.773 Y188.454 E4.81314
G1 X161.339 Y188.769 E4.83989
G1 X160.833 Y189.028 E4.86825
G1 X160.491 Y189.17 E4.88673
G1 X159.835 Y189.429 E4.92191
G1 X159.323 Y189.589 E4.94867
G1 X158.674 Y189.677 E4.98135
G1 X158.4 Y189.688 E4.99503
G1 X157.94 Y189.693 E5.01798
G1 X156.001 Y189.694 E5.11472
G1 X155.234 Y189.682 E5.15299
G1 X154.07 Y189.633 E5.21111
G1 X151.293 Y189.555 E5.34971
G1 X148.598 Y189.555 E5.48417
G1 X145.844 Y189.634 E5.62162
G1 X145.366 Y189.659 E5.6455
G1 X144.51 Y189.688 E5.68823
G1 X144.101 Y189.693 E5.70864
G1 X142.149 Y189.693 E5.80602
G1 X141.451 Y189.683 E5.84085
G1 X140.917 Y189.635 E5.8676
G1 X140.528 Y189.549 E5.88748
G1 X140.496 Y189.54 E5.88913
G1 X140.128 Y189.414 E5.90854
G1 X139.205 Y189.043 E5.95817
G1 X138.724 Y188.807 E5.9849
G1 X138.283 Y188.501 E6.01168
G1 X137.893 Y188.134 E6.0384
G1 X137.561 Y187.712 E6.06518
G1 X137.296 Y187.246 E6.09193
G1 X137.065 Y186.614 E6.1255
G1 X136.782 Y185.528 E6.18149
G1 X136.678 Y185.103 E6.20332
G1 X135.955 Y182.473 E6.3394
G1 X135.151 Y179.843 E6.4766
G1 X134.295 Y177.303 E6.61033
G1 X133.288 Y174.604 E6.75405
G1 X133.123 Y174.146 E6.77834
G1 X132.979 Y173.629 E6.80511
G1 X132.912 Y173.047 E6.83434
G1 X132.905 Y172.821 E6.84562
G1 X132.9 Y172.412 E6.86603
G1 X132.9 Y127.232 E9.12006
G1 X132.91 Y126.529 E9.15514
G1 X132.958 Y125.995 E9.18189
G1 X133.084 Y125.473 E9.20868
G1 X133.287 Y124.977 E9.23542
G1 X133.676 Y124.36 E9.27181
G1 X134.096 Y123.825 E9.30574
G1 X135.081 Y122.605 E9.38397
G1 X136.724 Y120.445 E9.51936
G1 X138.307 Y118.237 E9.65491
G1 X139.852 Y115.949 E9.79264
G1 X141.285 Y113.691 E9.92607
G1 X141.858 Y112.73 E9.98189
G1 X142.311 Y111.996 E10.02492
G1 X142.626 Y111.562 E10.05167
G0 F7500 X143.112 Y111.624
G1 F1500 X143.228 Y111.508 E10.05986
G1 X143.613 Y111.18 E10.08509
G1 X144.044 Y110.917 E10.11028
G1 X144.512 Y110.724 E10.13554
G1 X145.004 Y110.608 E10.16076
G1 X145.383 Y110.573 E10.17974
G1 X145.6 Y110.566 E10.19058
G1 X146.052 Y110.561 E10.21313
G1 X153.831 Y110.56 E10.60122
G1 X154.54 Y110.57 E10.6366
G1 X155.044 Y110.617 E10.66185
G1 X155.533 Y110.743 E10.68705
G1 X155.997 Y110.944 E10.71227
G1 X156.423 Y111.216 E10.73749
G1 X156.804 Y111.554 E10.7629
G1 X156.923 Y111.678 E10.77147
G1 X157.35 Y112.234 E10.80645
G1 X157.968 Y113.253 E10.86591
G1 X158.221 Y113.685 E10.89088
G1 X159.667 Y115.992 E11.02672
G1 X161.185 Y118.272 E11.16338
G1 X162.782 Y120.527 E11.30123
G1 X164.418 Y122.705 E11.43713
G1 X165.889 Y124.55 E11.55486
G1 X166.032 Y124.737 E11.5666
G1 X166.306 Y125.162 E11.59183
G1 X166.51 Y125.624 E11.61703
G1 X166.639 Y126.113 E11.64226
G1 X166.688 Y126.573 E11.66534
G1 X166.695 Y126.79 E11.67617
G1 X166.7 Y127.199 E11.69657
G1 X166.7 Y172.261 E13.94473
G1 X166.689 Y172.979 E13.98055
G1 X166.641 Y173.482 E14.00576
G1 X166.492 Y174.036 E14.03438
G1 X166.192 Y174.848 E14.07757
G1 X165.775 Y175.934 E14.13561
G1 X164.855 Y178.548 E14.27386
G1 X164.018 Y181.157 E14.41056
G1 X163.258 Y183.775 E14.54656
G1 X162.57 Y186.419 E14.68287
G1 X162.529 Y186.566 E14.69048
G1 X162.355 Y187.04 E14.71567
G1 X162.109 Y187.482 E14.74091
G1 X161.796 Y187.879 E14.76613
G1 X161.425 Y188.222 E14.79134
G1 X161.004 Y188.502 E14.81656
G1 X160.679 Y188.659 E14.83457
G1 X160.344 Y188.798 E14.85266
G1 X159.688 Y189.057 E14.88785
G1 X159.205 Y189.205 E14.91305
G1 X158.656 Y189.278 E14.94068
G1 X158.395 Y189.288 E14.95372
G1 X157.94 Y189.293 E14.97642
G1 X156.007 Y189.294 E15.07285
G1 X155.344 Y189.285 E15.10593
G1 X154.096 Y189.233 E15.16825
G1 X151.305 Y189.155 E15.30755
G1 X148.587 Y189.155 E15.44315
G1 X145.809 Y189.235 E15.5818
G1 X145.352 Y189.259 E15.60463
G1 X144.505 Y189.288 E15.64692
G1 X144.096 Y189.293 E15.66732
G1 X142.155 Y189.293 E15.76416
G1 X141.457 Y189.283 E15.79899
G1 X140.954 Y189.236 E15.82419
G1 X140.637 Y189.163 E15.84042
G1 X140.605 Y189.154 E15.84208
G1 X140.278 Y189.043 E15.85931
G1 X139.355 Y188.672 E15.90894
G1 X138.902 Y188.447 E15.93417
G1 X138.49 Y188.154 E15.95939
G1 X138.13 Y187.799 E15.98462
G1 X137.83 Y187.392 E16.00984
G1 X137.598 Y186.943 E16.03506
G1 X137.452 Y186.512 E16.05776
G1 X137.17 Y185.433 E16.1134
G1 X137.058 Y184.974 E16.13697
G1 X136.338 Y182.355 E16.27248
G1 X135.537 Y179.735 E16.40917
G1 X134.67 Y177.162 E16.54463
G1 X133.664 Y174.469 E16.68805
G1 X133.499 Y174.011 E16.71234
G1 X133.366 Y173.523 E16.73757
G1 X133.312 Y173.033 E16.76216
G1 X133.305 Y172.816 E16.773
G1 X133.3 Y172.407 E16.7934
G1 X133.3 Y127.237 E19.04694
G1 X133.31 Y126.534 E19.08202
G1 X133.357 Y126.031 E19.10722
G1 X133.483 Y125.541 E19.13246
G1 X133.685 Y125.078 E19.15767
G1 X133.991 Y124.607 E19.18569
G1 X134.407 Y124.076 E19.21934
G1 X135.394 Y122.853 E19.29775
G1 X137.051 Y120.674 E19.43432
G1 X138.648 Y118.449 E19.57096
G1 X140.161 Y116.207 E19.7059
G1 X141.649 Y113.863 E19.84442
G1 X142.199 Y112.94 E19.89802
G1 X142.652 Y112.206 E19.94105
G1 X143.112 Y111.624 E19.97806
G1 F1500 E13.47806
G0 F7500 X144.955 Y113.352
G0 X145.566 Y113.963
;TYPE:SUPPORT
G1 F1500 E19.97806
G1 X154.415 Y113.96 E20.41954
G1 X154.415 Y114.322 E20.4376
G1 X145.566 Y114.322 E20.87908
G1 X145.566 Y113.963 E20.89699
G1 F1500 E14.39699
G0 F7500 X144.701 Y113.963
G0 X135.967 Y126.17
G0 X135.836 Y126.488
G0 X135.836 Y173.018
G0 X139.887 Y186.364
G0 X141.22 Y186.754
G0 X144.893 Y186.754
G0 X146.226 Y186.363
G0 X146.238 Y184.606
G0 X145.373 Y184.606
G1 F1500 E20.89699
G1 X145.373 Y185.51 E20.94209
G1 X144.919 Y185.51 E20.96474
G1 X144.537 Y185.893 E20.99173
G1 X141.576 Y185.893 E21.13946
G1 X141.195 Y185.511 E21.16637
G1 X140.74 Y185.511 E21.18907
G1 X140.74 Y184.606 E21.23422
G1 X141.121 Y184.987 E21.2611
G1 X141.177 Y184.987 E21.2639
G1 X141.177 Y185.078 E21.26844
G1 X141.411 Y185.312 E21.28495
G1 X144.702 Y185.311 E21.44914
G1 X144.936 Y185.077 E21.46565
G1 X144.936 Y184.987 E21.47014
G1 X144.992 Y184.987 E21.47293
G1 X145.373 Y184.606 E21.49981
G0 F7500 X144.018 Y185.391
G1 F1500 X144.018 Y185.813 E21.52087
G1 F1500 E15.02087
G0 F7500 X144.018 Y186.758
G0 X144.726 Y186.756
G0 X153.761 Y185.511
G0 X154.626 Y185.511
G1 F1500 E21.52087
G1 X154.626 Y184.607 E21.56597
G1 X155.007 Y184.988 E21.59285
G1 X155.063 Y184.988 E21.59564
G1 X155.063 Y185.077 E21.60008
G1 X155.297 Y185.311 E21.61659
G1 X158.59 Y185.311 E21.78088
G1 X158.824 Y185.077 E21.79739
G1 X158.824 Y184.987 E21.80188
G1 X158.88 Y184.987 E21.80468
G1 X159.261 Y184.606 E21.83156
G1 X159.261 Y185.511 E21.87671
G1 X158.809 Y185.511 E21.89926
G1 X158.428 Y185.893 E21.92617
G1 X155.462 Y185.894 E22.07415
G1 X155.08 Y185.511 E22.10114
G1 X154.626 Y185.511 E22.12379
G0 F7500 X157.353 Y185.391
G1 F1500 X157.353 Y185.814 E22.14489
G1 F1500 E15.64489
;MESH:Raspberry_Camera_extender.stl
G0 F7500 X157.353 Y183.687
G0 X155.863 Y183.488
;TYPE:WALL-INNER
G1 F1500 E22.14489
G1 X155.863 Y178.632 E22.38716
G1 X158.024 Y178.632 E22.49497
G1 X158.024 Y183.487 E22.73719
G1 X155.863 Y183.488 E22.845
G0 F7500 X155.463 Y183.888
;TYPE:WALL-OUTER
G1 F1500 X155.463 Y178.232 E23.12718
G1 X158.424 Y178.232 E23.2749
G1 X158.424 Y183.887 E23.55703
G1 X155.463 Y183.888 E23.70476
G0 F7500 X155.463 Y183.688
G0 X155.904 Y183.447
G0 X156.253 Y183.098
;TYPE:SKIN
G1 F1500 X156.253 Y179.022 E23.90811
G1 X157.634 Y179.022 E23.97701
G1 X157.634 Y183.097 E24.18031
G1 X156.253 Y183.098 E24.24921
G0 F7500 X156.915 Y182.937
G1 F1500 X156.412 Y182.434 E24.2847
G0 F7500 X156.412 Y181.868
G1 F1500 X157.474 Y182.929 E24.35959
G0 F7500 X157.474 Y182.364
G1 F1500 X156.412 Y181.302 E24.43452
G0 F7500 X156.412 Y180.737
G1 F1500 X157.474 Y181.798 E24.50942
G0 F7500 X157.474 Y181.232
G1 F1500 X156.412 Y180.171 E24.58431
G0 F7500 X156.412 Y179.605
G1 F1500 X157.474 Y180.667 E24.65924
G0 F7500 X157.474 Y180.101
G1 F1500 X156.554 Y179.181 E24.72415
G0 F7500 X157.119 Y179.181
G1 F1500 X157.474 Y179.535 E24.74916
G0 F7500 X157.824 Y179.535
G1 F1500 E18.24916
G0 F7500 X157.914 Y179.535
G0 X157.842 Y178.814
G0 X155.677 Y178.446
G0 X154.61 Y178.356
G0 X154.824 Y172.121
G0 X157.85 Y172.053
G0 X157.85 Y151.856
G0 X155.529 Y151.787
G0 X155.677 Y147.538
G0 X155.677 Y148.993
G0 X140.898 Y148.803
;TYPE:WALL-INNER
G1 F1500 E24.74916
G1 X159.103 Y148.803 E25.65742
G1 X159.103 Y126.101 E26.79002
G1 X140.898 Y126.101 E27.69827
G1 X140.898 Y148.803 E28.83088
G0 F7500 X141.298 Y148.403
;TYPE:WALL-OUTER
G1 F1500 X158.703 Y148.403 E29.69922
G1 X158.703 Y126.501 E30.79192
G1 X141.298 Y126.501 E31.66025
G1 X141.298 Y148.403 E32.75295
G0 F7500 X141.498 Y148.403
G0 X141.498 Y148.843
G1 F1500 E26.25295
G0 F7500 X140.898 Y148.993
G0 X141.098 Y150.803
G0 X140.898 Y173.306
;TYPE:WALL-INNER
G1 F1500 E32.75295
G1 X159.103 Y173.306 E33.6612
G1 X159.103 Y150.603 E34.79386
G1 X140.898 Y150.603 E35.70211
G1 X140.898 Y173.306 E36.83477
G0 F7500 X141.298 Y172.906
;TYPE:WALL-OUTER
G1 F1500 X158.703 Y172.906 E37.70311
G1 X158.703 Y151.003 E38.79585
G1 X141.298 Y151.003 E39.66419
G1 X141.298 Y172.906 E40.75693
G0 F7500 X141.498 Y172.906
G0 X141.498 Y173.346
G1 F1500 E34.25693
G0 F7500 X158.479 Y173.496
G0 X160.134 Y175.152
G0 X158.479 Y177.103
;TYPE:WALL-INNER
G1 F1500 E40.75693
G1 X141.521 Y177.103 E41.60297
G1 X137.1 Y172.682 E41.9149
G1 X137.1 Y126.824 E44.20276
G1 X141.621 Y122.303 E44.52174
G1 X158.279 Y122.303 E45.35282
G1 X162.9 Y126.924 E45.67885
G1 X162.9 Y172.682 E47.96173
G1 X158.479 Y177.103 E48.27365
G0 F7500 X158.645 Y177.503
;TYPE:WALL-OUTER
G1 F1500 X141.355 Y177.503 E49.13625
G1 X136.7 Y172.848 E49.46469
G1 X136.7 Y126.658 E51.76912
G1 X141.455 Y121.903 E52.10461
G1 X158.445 Y121.903 E52.95224
G1 X163.3 Y126.758 E53.29479
G1 X163.3 Y172.848 E55.59423
G1 X158.645 Y177.503 E55.92267
G0 F7500 X158.445 Y177.503
G0 X158.445 Y177.063
G0 X158.319 Y176.713
;TYPE:SKIN
G1 F1500 X141.681 Y176.713 E56.75274
G1 X137.49 Y172.522 E57.04844
G1 X137.49 Y126.984 E59.32034
G1 X141.781 Y122.693 E59.62309
G1 X158.119 Y122.693 E60.4382
G1 X162.51 Y127.084 E60.748
G1 X162.51 Y172.522 E63.01492
G1 X158.319 Y176.713 E63.31061
G1 F1500 E56.81061
G0 F7500 X158.516 Y176.91
G0 X160.526 Y174.76
G0 X159.299 Y173.502
G1 F1500 E63.31061
G0 F7500 X159.493 Y173.696
G1 F1500 X159.493 Y150.213 E64.48218
G1 X140.508 Y150.213 E65.42935
G1 X140.508 Y173.696 E66.60092
G1 X159.493 Y173.696 E67.54809
G1 F1500 E61.04809
G0 F7500 X159.213 Y173.446
G0 X159.213 Y150.413
G0 X159.213 Y148.993
G1 F1500 E67.54809
G0 F7500 X159.493 Y149.193
G1 F1500 X159.493 Y125.711 E68.71961
G1 X140.508 Y125.711 E69.66677
G1 X140.508 Y149.193 E70.8383
G1 X159.493 Y149.193 E71.78546
G1 F1500 E65.28546
G0 F7500 X159.213 Y148.943
G0 X159.293 Y127.277
G0 X157.85 Y127.354
G0 X164.165 Y127.277
G0 X162.69 Y127.277
G1 F1500 E71.78546
G0 F7500 X162.349 Y127.277
G1 F1500 X157.925 Y122.853 E72.0976
G0 F7500 X157.36 Y122.853
G1 F1500 X162.349 Y127.842 E72.4496
G0 F7500 X162.349 Y128.408
G1 F1500 X159.651 Y125.71 E72.63996
G0 F7500 X159.491 Y125.55
G1 F1500 X156.794 Y122.853 E72.83025
G0 F7500 X156.228 Y122.853
G1 F1500 X158.925 Y125.55 E73.02053
G0 F7500 X158.36 Y125.55
G1 F1500 X155.663 Y122.853 E73.21082
G0 F7500 X155.097 Y122.853
G1 F1500 X157.794 Y125.55 E73.40111
G0 F7500 X157.228 Y125.55
G1 F1500 X154.531 Y122.853 E73.5914
G0 F7500 X153.966 Y122.853
G1 F1500 X156.663 Y125.55 E73.78169
G0 F7500 X156.097 Y125.55
G1 F1500 X153.4 Y122.853 E73.97197
G0 F7500 X152.834 Y122.853
G1 F1500 X155.531 Y125.55 E74.16226
G0 F7500 X154.965 Y125.55
G1 F1500 X152.269 Y122.853 E74.35251
G0 F7500 X151.703 Y122.853
G1 F1500 X154.4 Y125.55 E74.5428
G0 F7500 X153.834 Y125.55
G1 F1500 X151.137 Y122.853 E74.73309
G0 F7500 X150.572 Y122.853
G1 F1500 X153.268 Y125.55 E74.92334
G0 F7500 X152.703 Y125.55
G1 F1500 X150.006 Y122.853 E75.11363
G0 F7500 X149.44 Y122.853
G1 F1500 X152.137 Y125.55 E75.30392
G0 F7500 X151.571 Y125.55
G1 F1500 X148.874 Y122.853 E75.49421
G0 F7500 X148.309 Y122.853
G1 F1500 X151.006 Y125.55 E75.68449
G0 F7500 X150.44 Y125.55
G1 F1500 X147.743 Y122.853 E75.87478
G0 F7500 X147.177 Y122.853
G1 F1500 X149.874 Y125.55 E76.06507
G0 F7500 X149.309 Y125.55
G1 F1500 X146.612 Y122.853 E76.25536
G0 F7500 X146.046 Y122.853
G1 F1500 X148.743 Y125.55 E76.44565
G0 F7500 X148.177 Y125.55
G1 F1500 X145.48 Y122.853 E76.63593
G0 F7500 X144.915 Y122.853
G1 F1500 X147.612 Y125.55 E76.82622
G0 F7500 X147.046 Y125.55
G1 F1500 X144.349 Y122.853 E77.01651
G0 F7500 X143.783 Y122.853
G1 F1500 X146.48 Y125.55 E77.2068
G0 F7500 X145.915 Y125.55
G1 F1500 X143.218 Y122.853 E77.39709
G0 F7500 X142.652 Y122.853
G1 F1500 X145.349 Y125.55 E77.58737
G0 F7500 X144.783 Y125.55
G1 F1500 X142.086 Y122.853 E77.77766
G0 F7500 X141.682 Y123.015
G1 F1500 X144.217 Y125.55 E77.95652
G0 F7500 X143.652 Y125.55
G1 F1500 X141.4 Y123.298 E78.11541
G0 F7500 X141.117 Y123.581
G1 F1500 X143.086 Y125.55 E78.25433
G0 F7500 X142.52 Y125.55
G1 F1500 X140.834 Y123.863 E78.37333
G0 F7500 X140.551 Y124.146
G1 F1500 X141.955 Y125.55 E78.47239
G0 F7500 X141.389 Y125.55
G1 F1500 X140.268 Y124.429 E78.55148
G0 F7500 X139.985 Y124.712
G1 F1500 X140.823 Y125.55 E78.6106
G0 F7500 X140.347 Y125.64
G1 F1500 X139.703 Y124.995 E78.65608
G0 F7500 X139.42 Y125.278
G1 F1500 X140.347 Y126.205 E78.72148
G0 F7500 X140.347 Y126.771
G1 F1500 X139.137 Y125.56 E78.80689
G0 F7500 X138.854 Y125.843
G1 F1500 X140.347 Y127.337 E78.91226
G0 F7500 X140.347 Y127.902
G1 F1500 X138.571 Y126.126 E79.03757
G0 F7500 X138.288 Y126.409
G1 F1500 X140.347 Y128.468 E79.18284
G0 F7500 X140.347 Y129.034
G1 F1500 X138.006 Y126.692 E79.34805
G0 F7500 X137.723 Y126.975
G1 F1500 X140.347 Y129.599 E79.53319
G0 F7500 X140.347 Y130.165
G1 F1500 X137.649 Y127.467 E79.72354
G0 F7500 X137.649 Y128.032
G1 F1500 X140.347 Y130.731 E79.91394
G0 F7500 X140.347 Y131.297
G1 F1500 X137.649 Y128.598 E80.10433
G0 F7500 X137.649 Y129.164
G1 F1500 X140.347 Y131.862 E80.29469
G0 F7500 X140.347 Y132.428
G1 F1500 X137.649 Y129.73 E80.48505
G0 F7500 X137.649 Y130.295
G1 F1500 X140.347 Y132.994 E80.67544
G0 F7500 X140.347 Y133.559
G1 F1500 X137.649 Y130.861 E80.8658
G0 F7500 X137.649 Y131.427
G1 F1500 X140.347 Y134.125 E81.05616
G0 F7500 X140.347 Y134.691
G1 F1500 X137.649 Y131.992 E81.24655
G0 F7500 X137.649 Y132.558
G1 F1500 X140.347 Y135.256 E81.43691
G0 F7500 X140.347 Y135.822
G1 F1500 X137.649 Y133.124 E81.62727
G0 F7500 X137.649 Y133.689
G1 F1500 X140.347 Y136.388 E81.81766
G0 F7500 X140.347 Y136.953
G1 F1500 X137.649 Y134.255 E82.00802
G0 F7500 X137.649 Y134.821
