;FLAVOR:Marlin
;TIME:2287
;Filament used: 1.46145m
;Layer height: 0.2
;MINX:129.452
;MINY:123.45
;MINZ:0.3
;MAXX:170.548
;MAXY:175.301
;MAXZ:10.3
;Generated with Cura_SteamEngine 4.13.1
M140 S60
M105
M190 S60
M104 S200
M105
M109 S200
M82 ;absolute extrusion mode
G28 ;Home
G1 Z15.0 F2000 ;Move the platform
G92 E0
G92 E0
G1 F1500 E-6.5
;LAYER_COUNT:51
;LAYER:0
M107
M204 S1000
G0 F7500 X131.625 Y136.463 Z0.3
;TYPE:SKIRT
G1 F1500 E0
G1 X132.035 Y136.081 E0.02796
G1 X132.486 Y135.709 E0.05712
G1 X134.57 Y134.047 E0.19011
G1 X136.636 Y132.304 E0.32497
G1 X138.604 Y130.543 E0.45672
G1 X140.586 Y128.67 E0.59277
G1 X143.1 Y126.131 E0.77103
G1 X143.626 Y125.579 E0.80907
G1 X143.796 Y125.41 E0.82103
G1 X144.012 Y125.205 E0.83589
G1 X144.273 Y124.975 E0.85324
G1 X144.586 Y124.722 E0.87332
G1 X144.868 Y124.508 E0.89098
G1 X145.399 Y124.158 E0.92271
G1 X145.524 Y124.087 E0.92988
G1 X146.081 Y123.817 E0.96076
G1 X146.669 Y123.62 E0.9917
G1 X147.277 Y123.501 E1.02261
G1 X147.824 Y123.462 E1.04997
G1 X148.638 Y123.45 E1.09059
G1 X151.465 Y123.45 E1.23162
G1 X152.168 Y123.46 E1.2667
G1 X152.786 Y123.509 E1.29763
G1 X153.392 Y123.637 E1.32853
G1 X154.164 Y123.926 E1.36966
G1 X154.206 Y123.946 E1.37198
G1 X154.897 Y124.349 E1.41189
G1 X155.218 Y124.574 E1.43144
G1 X155.573 Y124.849 E1.45385
G1 X155.834 Y125.071 E1.47094
G1 X156.037 Y125.254 E1.48458
G1 X156.297 Y125.502 E1.5025
G1 X156.464 Y125.669 E1.51429
G1 X156.668 Y125.884 E1.52907
G1 X158.606 Y127.872 E1.66758
G1 X160.535 Y129.74 E1.80155
G1 X162.507 Y131.546 E1.93496
G1 X164.53 Y133.296 E2.06841
G1 X167.37 Y135.593 E2.25064
G1 X167.579 Y135.756 E2.26386
G1 X167.802 Y135.941 E2.27832
G1 X168.15 Y136.248 E2.30147
G1 X168.509 Y136.6 E2.32655
G1 X168.577 Y136.674 E2.33157
G1 X168.744 Y136.866 E2.34426
G1 X168.905 Y137.061 E2.35688
G1 X169.118 Y137.338 E2.37431
G1 X169.167 Y137.407 E2.37853
G1 X169.333 Y137.658 E2.39355
G1 X169.478 Y137.892 E2.40728
G1 X169.716 Y138.324 E2.43189
G1 X169.815 Y138.528 E2.4432
G1 X170.018 Y139.013 E2.46943
G1 X170.178 Y139.462 E2.49321
G1 X170.364 Y140.132 E2.5279
G1 X170.444 Y140.563 E2.54977
G1 X170.482 Y140.819 E2.56269
G1 X170.532 Y141.389 E2.59123
G1 X170.544 Y141.835 E2.61349
G1 X170.546 Y142.095 E2.62646
G1 X170.544 Y161.339 E3.58655
G1 X170.548 Y166.409 E3.83949
G1 X170.547 Y167.305 E3.88419
G1 X170.541 Y167.758 E3.9068
G1 X170.532 Y168.021 E3.91993
G1 X170.514 Y168.31 E3.93437
G1 X170.48 Y168.669 E3.95236
G1 X170.397 Y169.209 E3.97962
G1 X170.349 Y169.436 E3.9912
G1 X170.228 Y169.895 E4.01488
G1 X170.155 Y170.125 E4.02692
G1 X169.948 Y170.664 E4.05572
G1 X169.747 Y171.105 E4.0799
G1 X169.463 Y171.635 E4.1099
G1 X169.32 Y171.862 E4.12328
G1 X169.193 Y172.052 E4.13469
G1 X168.876 Y172.474 E4.16102
G1 X168.691 Y172.694 E4.17536
G1 X168.333 Y173.076 E4.20148
G1 X168.073 Y173.323 E4.21937
G1 X168.007 Y173.384 E4.22385
G1 X167.567 Y173.745 E4.25225
G1 X167.243 Y173.98 E4.27222
G1 X166.666 Y174.339 E4.30612
G1 X166.363 Y174.499 E4.32322
G1 X165.79 Y174.755 E4.35453
G1 X165.469 Y174.874 E4.37161
G1 X164.894 Y175.047 E4.40156
G1 X164.569 Y175.123 E4.41821
G1 X164.034 Y175.217 E4.44531
G1 X163.615 Y175.266 E4.46636
G1 X163.076 Y175.298 E4.4933
G1 X162.233 Y175.301 E4.53536
G1 X161.766 Y175.296 E4.55866
G1 X143.493 Y175.294 E5.4703
G1 X138.341 Y175.298 E5.72734
G1 X137.405 Y175.296 E5.77403
G1 X137.149 Y175.29 E5.78681
G1 X136.89 Y175.289 E5.79973
G1 X136.457 Y175.268 E5.82136
G1 X136.137 Y175.238 E5.83739
G1 X135.597 Y175.156 E5.86464
G1 X135.288 Y175.091 E5.8804
G1 X134.844 Y174.976 E5.90328
G1 X134.62 Y174.906 E5.91499
G1 X134.191 Y174.749 E5.93778
G1 X133.996 Y174.667 E5.94833
G1 X133.447 Y174.393 E5.97894
G1 X132.987 Y174.126 E6.00548
G1 X132.389 Y173.715 E6.04168
G1 X132.2 Y173.563 E6.05378
G1 X131.82 Y173.223 E6.07922
G1 X131.519 Y172.923 E6.10042
G1 X131.142 Y172.5 E6.12869
G1 X130.941 Y172.238 E6.14516
G1 X130.803 Y172.046 E6.15696
G1 X130.597 Y171.734 E6.17561
G1 X130.429 Y171.448 E6.19216
G1 X130.314 Y171.237 E6.20415
G1 X130.1 Y170.79 E6.22887
G1 X129.991 Y170.529 E6.24299
G1 X129.802 Y169.987 E6.27162
G1 X129.689 Y169.588 E6.29231
G1 X129.564 Y169.016 E6.32152
G1 X129.506 Y168.602 E6.34238
G1 X129.482 Y168.371 E6.35397
G1 X129.457 Y167.952 E6.37491
G1 X129.454 Y167.75 E6.38499
G1 X129.456 Y148.161 E7.36229
G1 X129.452 Y143.136 E7.61298
G1 X129.454 Y141.738 E7.68273
G1 X129.457 Y141.602 E7.68952
G1 X129.481 Y141.215 E7.70886
G1 X129.531 Y140.731 E7.73314
G1 X129.633 Y140.127 E7.7637
G1 X129.717 Y139.793 E7.78088
G1 X129.778 Y139.579 E7.79198
G1 X129.926 Y139.14 E7.81509
G1 X130.012 Y138.921 E7.82683
G1 X130.248 Y138.411 E7.85487
G1 X130.491 Y137.957 E7.88056
G1 X130.821 Y137.427 E7.91171
G1 X131.108 Y137.044 E7.93558
G1 X131.448 Y136.648 E7.96162
G1 X131.625 Y136.463 E7.9744
G0 F7500 X131.914 Y136.739
G1 F1500 X132.29 Y136.389 E8.00003
G1 X132.736 Y136.022 E8.02884
G1 X134.814 Y134.365 E8.16144
G1 X136.877 Y132.624 E8.29611
G1 X138.9 Y130.815 E8.43151
G1 X140.846 Y128.974 E8.56516
G1 X143.417 Y126.378 E8.74744
G1 X143.916 Y125.855 E8.7835
G1 X144.071 Y125.701 E8.7944
G1 X144.287 Y125.496 E8.80926
G1 X144.527 Y125.284 E8.82524
G1 X144.828 Y125.041 E8.84454
G1 X145.11 Y124.827 E8.8622
G1 X145.597 Y124.506 E8.8913
G1 X145.722 Y124.435 E8.89847
G1 X146.256 Y124.178 E8.92804
G1 X146.82 Y123.994 E8.95763
G1 X147.403 Y123.889 E8.98719
G1 X147.83 Y123.861 E9.00854
G1 X148.573 Y123.85 E9.04561
G1 X151.46 Y123.85 E9.18964
G1 X152.163 Y123.86 E9.22472
G1 X152.754 Y123.909 E9.2543
G1 X153.333 Y124.036 E9.28388
G1 X153.992 Y124.287 E9.31906
G1 X154.034 Y124.307 E9.32138
G1 X154.667 Y124.677 E9.35796
G1 X154.988 Y124.902 E9.37752
G1 X155.314 Y125.153 E9.39804
G1 X155.575 Y125.375 E9.41514
G1 X155.761 Y125.543 E9.42764
G1 X156.021 Y125.791 E9.44557
G1 X156.174 Y125.945 E9.4564
G1 X156.382 Y126.164 E9.47147
G1 X158.307 Y128.138 E9.60903
G1 X160.27 Y130.04 E9.74539
G1 X162.222 Y131.828 E9.87746
G1 X164.3 Y133.625 E10.01452
G1 X167.129 Y135.913 E10.19604
G1 X167.333 Y136.072 E10.20894
G1 X167.538 Y136.241 E10.2222
G1 X167.886 Y136.548 E10.24535
G1 X168.215 Y136.871 E10.26835
G1 X168.436 Y137.121 E10.285
G1 X168.597 Y137.316 E10.29762
G1 X168.791 Y137.569 E10.31352
G1 X168.84 Y137.638 E10.31774
G1 X168.993 Y137.868 E10.33153
G1 X169.138 Y138.102 E10.34526
G1 X169.356 Y138.499 E10.36786
G1 X169.455 Y138.703 E10.37917
G1 X169.642 Y139.147 E10.4032
G1 X169.802 Y139.596 E10.42698
G1 X169.972 Y140.21 E10.45877
G1 X170.048 Y140.622 E10.47967
G1 X170.086 Y140.878 E10.49258
G1 X170.132 Y141.4 E10.51873
G1 X170.144 Y141.839 E10.54064
G1 X170.146 Y142.095 E10.55341
G1 X170.144 Y161.339 E11.5135
G1 X170.148 Y166.408 E11.76639
G1 X170.147 Y167.302 E11.81099
G1 X170.144 Y167.634 E11.82756
G1 X170.132 Y168.007 E11.84617
G1 X170.115 Y168.272 E11.85942
G1 X170.081 Y168.631 E11.87741
G1 X170.006 Y169.126 E11.90239
G1 X169.958 Y169.353 E11.91397
G1 X169.847 Y169.774 E11.93569
G1 X169.774 Y170.004 E11.94773
G1 X169.584 Y170.498 E11.97413
G1 X169.383 Y170.939 E11.99831
G1 X169.123 Y171.425 E12.02581
G1 X168.987 Y171.64 E12.0385
G1 X168.86 Y171.83 E12.0499
G1 X168.57 Y172.217 E12.07403
G1 X168.385 Y172.437 E12.08837
G1 X168.057 Y172.786 E12.11227
G1 X167.801 Y173.029 E12.12987
G1 X167.735 Y173.09 E12.13436
G1 X167.332 Y173.421 E12.16038
G1 X167.008 Y173.656 E12.18035
G1 X166.48 Y173.985 E12.21138
G1 X166.177 Y174.145 E12.22848
G1 X165.651 Y174.38 E12.25722
G1 X165.33 Y174.499 E12.2743
G1 X164.803 Y174.657 E12.30175
G1 X164.478 Y174.733 E12.3184
G1 X163.987 Y174.819 E12.34327
G1 X163.568 Y174.868 E12.36432
G1 X163.074 Y174.898 E12.38901
G1 X162.237 Y174.901 E12.43076
G1 X161.77 Y174.896 E12.45406
G1 X143.493 Y174.894 E13.36591
G1 X138.342 Y174.898 E13.62289
G1 X137.414 Y174.896 E13.66919
G1 X137.159 Y174.89 E13.68192
G1 X136.892 Y174.889 E13.69524
G1 X136.494 Y174.87 E13.71512
G1 X136.174 Y174.84 E13.73115
G1 X135.679 Y174.765 E13.75613
G1 X135.37 Y174.7 E13.77188
G1 X134.964 Y174.594 E13.79282
G1 X134.74 Y174.524 E13.80452
G1 X134.346 Y174.38 E13.82545
G1 X134.151 Y174.298 E13.83601
G1 X133.648 Y174.047 E13.86405
G1 X133.188 Y173.78 E13.89059
G1 X132.64 Y173.404 E13.92374
G1 X132.451 Y173.252 E13.93584
G1 X132.102 Y172.939 E13.95923
G1 X131.801 Y172.639 E13.98043
G1 X131.456 Y172.252 E14.0063
G1 X131.266 Y172.005 E14.02185
G1 X131.128 Y171.813 E14.03364
G1 X130.939 Y171.526 E14.05079
G1 X130.781 Y171.257 E14.06635
G1 X130.666 Y171.046 E14.07834
G1 X130.469 Y170.636 E14.10103
G1 X130.36 Y170.375 E14.11515
G1 X130.187 Y169.878 E14.1414
G1 X130.074 Y169.479 E14.16209
G1 X129.959 Y168.955 E14.18885
G1 X129.904 Y168.561 E14.2087
G1 X129.88 Y168.33 E14.22029
G1 X129.857 Y167.945 E14.23953
G1 X129.854 Y167.75 E14.24926
G1 X129.856 Y148.161 E15.22656
G1 X129.852 Y143.137 E15.47721
G1 X129.854 Y141.747 E15.54656
G1 X129.857 Y141.611 E15.55334
G1 X129.879 Y141.256 E15.57109
G1 X129.929 Y140.772 E15.59536
G1 X130.022 Y140.218 E15.62339
G1 X130.102 Y139.903 E15.6396
G1 X130.163 Y139.689 E15.6507
G1 X130.298 Y139.287 E15.67186
G1 X130.384 Y139.068 E15.6836
G1 X130.601 Y138.6 E15.70934
G1 X130.844 Y138.146 E15.73503
G1 X131.146 Y137.66 E15.76357
G1 X131.425 Y137.288 E15.78677
G1 X131.737 Y136.924 E15.81069
G1 X131.914 Y136.739 E15.82346
G0 F7500 X132.203 Y137.016
G1 F1500 X132.545 Y136.698 E15.84676
G1 X132.985 Y136.335 E15.87522
G1 X135.076 Y134.668 E16.00864
G1 X137.136 Y132.929 E16.14313
G1 X139.178 Y131.103 E16.2798
G1 X141.138 Y129.249 E16.4144
G1 X143.669 Y126.693 E16.59386
G1 X144.205 Y126.131 E16.63261
G1 X144.346 Y125.991 E16.64252
G1 X144.562 Y125.786 E16.65738
G1 X144.78 Y125.594 E16.67187
G1 X145.07 Y125.36 E16.69046
G1 X145.352 Y125.146 E16.70812
G1 X145.794 Y124.854 E16.73455
G1 X145.919 Y124.783 E16.74172
G1 X146.43 Y124.539 E16.76997
G1 X146.969 Y124.37 E16.79816
G1 X147.527 Y124.278 E16.82637
G1 X147.836 Y124.261 E16.84181
G1 X148.579 Y124.25 E16.87888
G1 X151.454 Y124.25 E17.02232
G1 X152.157 Y124.26 E17.05739
G1 X152.72 Y124.308 E17.08558
G1 X153.271 Y124.435 E17.11379
G1 X153.82 Y124.649 E17.14319
G1 X153.862 Y124.669 E17.14551
G1 X154.438 Y125.005 E17.17878
G1 X154.759 Y125.23 E17.19834
G1 X155.055 Y125.458 E17.21698
G1 X155.316 Y125.68 E17.23407
G1 X155.485 Y125.833 E17.24544
G1 X155.745 Y126.081 E17.26337
G1 X155.884 Y126.22 E17.27318
G1 X156.128 Y126.477 E17.29086
G1 X158.025 Y128.422 E17.42641
G1 X159.986 Y130.322 E17.56263
G1 X161.973 Y132.142 E17.69706
G1 X164.022 Y133.914 E17.83221
G1 X166.882 Y136.227 E18.01572
G1 X167.087 Y136.387 E18.02869
G1 X167.273 Y136.541 E18.04074
G1 X167.621 Y136.848 E18.06389
G1 X167.92 Y137.141 E18.08478
G1 X168.128 Y137.375 E18.1004
G1 X168.289 Y137.57 E18.11301
G1 X168.465 Y137.801 E18.1275
G1 X168.514 Y137.87 E18.13173
G1 X168.653 Y138.079 E18.14425
G1 X168.798 Y138.313 E18.15798
G1 X168.997 Y138.674 E18.17855
G1 X169.096 Y138.878 E18.18986
G1 X169.265 Y139.281 E18.21166
G1 X169.425 Y139.73 E18.23544
G1 X169.579 Y140.289 E18.26437
G1 X169.653 Y140.681 E18.28427
G1 X169.691 Y140.937 E18.29718
G1 X169.732 Y141.412 E18.32097
G1 X169.744 Y141.843 E18.34248
G1 X169.746 Y142.095 E18.35505
G1 X169.744 Y161.339 E19.31514
G1 X169.748 Y166.408 E19.56803
G1 X169.747 Y167.298 E19.61244
G1 X169.742 Y167.731 E19.63404
G1 X169.733 Y167.994 E19.64717
G1 X169.717 Y168.234 E19.65917
G1 X169.683 Y168.593 E19.67716
G1 X169.614 Y169.044 E19.69992
G1 X169.566 Y169.271 E19.7115
G1 X169.466 Y169.653 E19.7312
G1 X169.393 Y169.883 E19.74324
G1 X169.22 Y170.332 E19.76724
G1 X169.019 Y170.773 E19.79142
G1 X168.783 Y171.215 E19.81642
G1 X168.528 Y171.608 E19.83979
G1 X168.263 Y171.959 E19.86173
G1 X168.078 Y172.179 E19.87608
G1 X167.78 Y172.497 E19.89782
G1 X167.464 Y172.797 E19.91956
G1 X167.098 Y173.097 E19.94317
G1 X166.774 Y173.332 E19.96313
G1 X166.293 Y173.631 E19.99139
G1 X165.99 Y173.791 E20.00849
G1 X165.512 Y174.005 E20.03461
G1 X165.191 Y174.124 E20.05169
G1 X164.712 Y174.268 E20.07665
G1 X164.387 Y174.344 E20.0933
G1 X163.941 Y174.422 E20.11589
G1 X163.522 Y174.471 E20.13693
G1 X163.073 Y174.498 E20.15938
G1 X162.241 Y174.501 E20.20088
G1 X161.774 Y174.496 E20.22418
G1 X143.493 Y174.494 E21.13623
G1 X138.342 Y174.498 E21.39321
G1 X137.424 Y174.496 E21.43901
G1 X137.17 Y174.49 E21.45169
G1 X136.893 Y174.489 E21.46551
G1 X136.532 Y174.472 E21.48354
G1 X136.212 Y174.442 E21.49957
G1 X135.762 Y174.373 E21.52228
G1 X135.453 Y174.308 E21.53804
G1 X135.083 Y174.212 E21.55711
G1 X134.859 Y174.142 E21.56882
G1 X134.501 Y174.011 E21.58784
G1 X134.306 Y173.929 E21.59839
G1 X133.849 Y173.701 E21.62387
G1 X133.389 Y173.434 E21.65041
G1 X132.89 Y173.092 E21.68059
G1 X132.701 Y172.94 E21.69269
G1 X132.384 Y172.656 E21.71392
G1 X132.083 Y172.356 E21.73512
G1 X131.769 Y172.004 E21.75866
G1 X131.591 Y171.772 E21.77324
G1 X131.453 Y171.58 E21.78504
G1 X131.281 Y171.319 E21.80064
G1 X131.132 Y171.065 E21.81533
G1 X131.017 Y170.854 E21.82732
G1 X130.838 Y170.481 E21.84796
G1 X130.729 Y170.22 E21.86207
G1 X130.571 Y169.769 E21.88591
G1 X130.458 Y169.37 E21.9066
G1 X130.354 Y168.893 E21.93095
G1 X130.301 Y168.519 E21.9498
G1 X130.277 Y168.288 E21.96139
G1 X130.257 Y167.939 E21.97883
G1 X130.254 Y167.75 E21.98826
G1 X130.256 Y148.161 E22.96556
G1 X130.252 Y143.137 E23.21621
G1 X130.254 Y141.756 E23.2851
G1 X130.257 Y141.62 E23.29189
G1 X130.277 Y141.297 E23.30804
G1 X130.327 Y140.813 E23.33231
G1 X130.412 Y140.31 E23.35776
G1 X130.486 Y140.012 E23.37308
G1 X130.547 Y139.798 E23.38418
G1 X130.671 Y139.433 E23.40341
G1 X130.757 Y139.214 E23.41515
G1 X130.953 Y138.788 E23.43855
G1 X131.196 Y138.334 E23.46424
G1 X131.471 Y137.892 E23.49021
G1 X131.742 Y137.531 E23.51273
G1 X132.026 Y137.201 E23.53445
G1 X132.203 Y137.016 E23.54722
G0 F7500 X132.492 Y137.292
G1 F1500 X132.8 Y137.006 E23.56819
G1 X133.234 Y136.647 E23.59629
G1 X135.338 Y134.969 E23.73056
G1 X137.415 Y133.217 E23.86612
G1 X139.436 Y131.409 E24.00141
G1 X141.415 Y129.538 E24.13728
G1 X143.973 Y126.954 E24.31868
G1 X144.495 Y126.407 E24.3564
G1 X144.622 Y126.281 E24.36533
G1 X144.838 Y126.076 E24.38019
G1 X145.034 Y125.903 E24.39323
G1 X145.312 Y125.678 E24.41107
G1 X145.594 Y125.464 E24.42873
G1 X145.992 Y125.202 E24.45251
G1 X146.117 Y125.131 E24.45968
G1 X146.602 Y124.901 E24.48646
G1 X147.115 Y124.746 E24.51319
G1 X147.842 Y124.661 E24.54971
G1 X148.585 Y124.65 E24.58678
G1 X151.448 Y124.65 E24.72962
G1 X152.151 Y124.66 E24.7647
G1 X152.685 Y124.708 E24.79144
G1 X153.207 Y124.834 E24.81824
G1 X153.648 Y125.01 E24.84192
G1 X153.69 Y125.03 E24.84424
G1 X154.208 Y125.332 E24.87416
G1 X154.529 Y125.557 E24.89372
G1 X154.795 Y125.763 E24.9105
G1 X155.056 Y125.985 E24.9276
G1 X155.209 Y126.122 E24.93784
G1 X155.469 Y126.37 E24.95577
G1 X155.594 Y126.496 E24.96462
G1 X155.809 Y126.722 E24.98019
G1 X157.743 Y128.706 E25.11841
G1 X159.701 Y130.603 E25.25443
G1 X161.743 Y132.473 E25.39257
G1 X163.758 Y134.215 E25.52545
G1 X166.606 Y136.519 E25.70822
G1 X166.841 Y136.702 E25.72308
G1 X167.009 Y136.841 E25.73395
G1 X167.357 Y137.148 E25.75711
G1 X167.626 Y137.412 E25.77591
G1 X167.819 Y137.63 E25.79044
G1 X167.98 Y137.825 E25.80305
G1 X168.139 Y138.033 E25.81611
G1 X168.313 Y138.29 E25.8316
G1 X168.458 Y138.524 E25.84533
G1 X168.637 Y138.848 E25.8638
G1 X168.736 Y139.052 E25.87511
G1 X168.888 Y139.416 E25.89479
G1 X169.048 Y139.865 E25.91857
G1 X169.187 Y140.367 E25.94456
G1 X169.257 Y140.739 E25.96344
G1 X169.295 Y140.995 E25.97636
G1 X169.333 Y141.423 E25.99779
G1 X169.344 Y141.847 E26.01895
G1 X169.346 Y142.095 E26.03133
G1 X169.344 Y161.339 E26.99141
G1 X169.348 Y166.407 E27.24426
G1 X169.347 Y167.295 E27.28856
G1 X169.342 Y167.717 E27.30961
G1 X169.333 Y167.98 E27.32274
G1 X169.319 Y168.196 E27.33354
G1 X169.285 Y168.555 E27.35153
G1 X169.223 Y168.961 E27.37202
G1 X169.175 Y169.188 E27.3836
G1 X169.084 Y169.532 E27.40135
G1 X169.011 Y169.762 E27.41339
G1 X168.856 Y170.166 E27.43498
G1 X168.655 Y170.607 E27.45916
G1 X168.442 Y171.005 E27.48168
G1 X168.195 Y171.386 E27.50433
G1 X167.957 Y171.702 E27.52407
G1 X167.772 Y171.922 E27.53841
G1 X167.504 Y172.208 E27.55796
G1 X167.258 Y172.442 E27.5749
G1 X167.192 Y172.503 E27.57939
G1 X166.863 Y172.773 E27.60062
G1 X166.539 Y173.008 E27.62059
