;FLAVOR:Marlin
;TIME:1114
;Filament used: 0.905553m
;Layer height: 0.2
;MINX:105.794
;MINY:85.793
;MINZ:0.2
;MAXX:144.207
;MAXY:124.208
;MAXZ:6.6
;Generated with Cura_SteamEngine 4.13.1
M82 ;absolute extrusion mode
G21 ; set units to millimeters
G90 ; use absolute positioning
M82 ; absolute extrusion mode
M104 S200 ; set extruder temp
M140 S60 ; set bed temp
M190 S60 ; wait for bed temp
M109 S200 ; wait for extruder temp
G28 W ; home all without mesh bed level
G80 ; mesh bed leveling
G92 E0.0 ; reset extruder distance position
G1 Y-3.0 F1000.0 ; go outside print area
G1 X60.0 E9.0 F1000.0 ; intro line
G1 X100.0 E21.5 F1000.0 ; intro line
G92 E0.0 ; reset extruder distance position
G92 E0
G92 E0
G1 F2100 E-0.8
;LAYER_COUNT:33
;LAYER:0
M107
G0 F3600 X107.163 Y88.165 Z0.2
;TYPE:SKIRT
G1 F2100 E0
G1 F1800 X107.563 Y87.703 E0.02033
G1 X108.086 Y87.221 E0.04398
G1 X108.376 Y86.996 E0.05619
G1 X108.803 Y86.711 E0.07326
G1 X109.247 Y86.474 E0.09
G1 X109.762 Y86.257 E0.10859
G1 X110.482 Y86.019 E0.13381
G1 X111.208 Y85.865 E0.1585
G1 X111.79 Y85.817 E0.17792
G1 X112.972 Y85.794 E0.21724
G1 X137.342 Y85.793 E1.02779
G1 X138.048 Y85.803 E1.05127
G1 X138.662 Y85.858 E1.07178
G1 X139.527 Y86.015 E1.10102
G1 X140.197 Y86.232 E1.12444
G1 X140.711 Y86.457 E1.1431
G1 X141.078 Y86.642 E1.15677
G1 X141.622 Y86.994 E1.17832
G1 X142.146 Y87.438 E1.20117
G1 X142.54 Y87.831 E1.21968
G1 X142.939 Y88.287 E1.23983
G1 X143.292 Y88.797 E1.26046
G1 X143.439 Y89.054 E1.27031
G1 X143.686 Y89.581 E1.28966
G1 X143.892 Y90.145 E1.30964
G1 X143.959 Y90.359 E1.31709
G1 X144.075 Y90.851 E1.33391
G1 X144.163 Y91.423 E1.35316
G1 X144.202 Y91.928 E1.37
G1 X144.207 Y92.734 E1.39681
G1 X144.206 Y117.346 E2.21541
G1 X144.196 Y118.045 E2.23866
G1 X144.167 Y118.453 E2.25226
G1 X144.093 Y119.029 E2.27158
G1 X143.961 Y119.633 E2.29214
G1 X143.803 Y120.111 E2.30889
G1 X143.563 Y120.67 E2.32912
G1 X143.227 Y121.297 E2.35278
G1 X142.84 Y121.842 E2.37501
G1 X142.428 Y122.307 E2.39568
G1 X141.853 Y122.82 E2.4213
G1 X141.183 Y123.272 E2.44819
G1 X140.464 Y123.652 E2.47523
G1 X139.825 Y123.906 E2.49811
G1 X139.157 Y124.071 E2.52099
G1 X138.621 Y124.156 E2.53904
G1 X138.106 Y124.2 E2.55623
G1 X137.544 Y124.207 E2.57493
G1 X113.121 Y124.206 E3.38724
G1 X112.869 Y124.208 E3.39562
G1 X112.044 Y124.204 E3.42306
G1 X111.618 Y124.177 E3.43726
G1 X111.094 Y124.112 E3.45482
G1 X110.525 Y123.994 E3.47415
G1 X109.863 Y123.786 E3.49723
G1 X109.502 Y123.646 E3.5101
G1 X108.988 Y123.399 E3.52907
G1 X108.541 Y123.125 E3.54651
G1 X107.95 Y122.667 E3.57138
G1 X107.506 Y122.246 E3.59173
G1 X107.14 Y121.808 E3.61071
G1 X106.881 Y121.462 E3.62509
G1 X106.573 Y120.954 E3.64485
G1 X106.292 Y120.369 E3.66643
G1 X106.053 Y119.633 E3.69217
G1 X105.958 Y119.171 E3.70786
G1 X105.861 Y118.63 E3.72614
G1 X105.801 Y117.997 E3.74729
G1 X105.794 Y117.497 E3.76392
G1 X105.794 Y92.651 E4.5903
G1 X105.805 Y91.94 E4.61395
G1 X105.849 Y91.435 E4.63081
G1 X105.893 Y91.161 E4.64004
G1 X106.001 Y90.568 E4.66009
G1 X106.134 Y90.056 E4.67768
G1 X106.384 Y89.412 E4.70066
G1 X106.862 Y88.571 E4.73283
G1 X107.163 Y88.165 E4.74964
G0 F3600 X107.626 Y88.231
G1 F1800 X108.03 Y87.802 E4.76924
G1 X108.621 Y87.312 E4.79478
G1 X109.11 Y86.996 E4.81414
G1 X109.721 Y86.699 E4.83674
G1 X110.233 Y86.52 E4.85478
G1 X110.605 Y86.4 E4.86778
G1 X111.25 Y86.263 E4.88971
G1 X111.798 Y86.217 E4.908
G1 X112.972 Y86.194 E4.94706
G1 X137.336 Y86.193 E5.75741
G1 X138.042 Y86.203 E5.78089
G1 X138.612 Y86.255 E5.79993
G1 X139.42 Y86.4 E5.82723
G1 X140.041 Y86.601 E5.84894
G1 X140.534 Y86.816 E5.86683
G1 X140.892 Y86.996 E5.88016
G1 X141.375 Y87.309 E5.8993
G1 X141.864 Y87.721 E5.92057
G1 X142.258 Y88.114 E5.93907
G1 X142.631 Y88.543 E5.95798
G1 X142.945 Y88.995 E5.97629
G1 X143.092 Y89.252 E5.98614
G1 X143.312 Y89.721 E6.00337
G1 X143.51 Y90.265 E6.02262
G1 X143.681 Y90.916 E6.04501
G1 X143.767 Y91.481 E6.06402
G1 X143.802 Y91.931 E6.07903
G1 X143.807 Y92.734 E6.10574
G1 X143.806 Y117.341 E6.92417
G1 X143.796 Y118.04 E6.94742
G1 X143.77 Y118.402 E6.95949
G1 X143.696 Y118.978 E6.97881
G1 X143.579 Y119.515 E6.99709
G1 X143.375 Y120.106 E7.01788
G1 X143.144 Y120.62 E7.03662
G1 X142.882 Y121.094 E7.05464
G1 X142.533 Y121.586 E7.0747
G1 X142.149 Y122.02 E7.09397
G1 X141.616 Y122.498 E7.11779
G1 X140.992 Y122.921 E7.14286
G1 X140.281 Y123.296 E7.16959
G1 X139.713 Y123.522 E7.18993
G1 X139.094 Y123.676 E7.21114
G1 X138.558 Y123.761 E7.22919
G1 X138.101 Y123.8 E7.24445
G1 X137.544 Y123.807 E7.26298
G1 X113.117 Y123.806 E8.07542
G1 X112.87 Y123.808 E8.08364
G1 X112.045 Y123.804 E8.11108
G1 X111.667 Y123.78 E8.12367
G1 X111.143 Y123.715 E8.14124
G1 X110.637 Y123.61 E8.15842
G1 X110.008 Y123.413 E8.18035
G1 X109.647 Y123.273 E8.19322
G1 X109.19 Y123.053 E8.21009
G1 X108.568 Y122.648 E8.23478
G1 X108.2 Y122.354 E8.25045
G1 X107.805 Y121.98 E8.26854
G1 X107.449 Y121.555 E8.28698
G1 X107.205 Y121.227 E8.30058
G1 X106.931 Y120.775 E8.31816
G1 X106.657 Y120.205 E8.33919
G1 X106.444 Y119.551 E8.36207
G1 X106.351 Y119.101 E8.37735
G1 X106.254 Y118.56 E8.39563
G1 X106.201 Y117.98 E8.415
G1 X106.194 Y117.493 E8.4312
G1 X106.194 Y92.657 E9.25725
G1 X106.205 Y91.946 E9.2809
G1 X106.274 Y91.307 E9.30228
G1 X106.395 Y90.64 E9.32482
G1 X106.587 Y89.966 E9.34813
G1 X106.837 Y89.396 E9.36884
G1 X107.185 Y88.806 E9.39162
G1 X107.626 Y88.231 E9.41572
G1 F2100 E8.61572
;MESH:Raspberry_Camera_case_back.stl
G0 F3600 X109.284 Y90.21
G0 X110.309 Y90.983
G0 X138.916 Y119.583
G1 F2100 E9.41572
G0 F3600 X138.96 Y119.672
;TYPE:WALL-INNER
G1 F1800 X138.588 Y119.898 E9.4302
G1 X138.028 Y120.008 E9.44918
G1 X111.996 Y120.006 E10.31501
G1 X111.566 Y119.943 E10.32946
G1 X111.073 Y119.761 E10.34694
G1 X110.774 Y119.56 E10.35892
G1 X110.293 Y119.028 E10.38278
G1 X110.141 Y118.712 E10.39444
G1 X109.994 Y117.945 E10.42042
G1 X109.994 Y92.053 E11.28159
G1 X110.119 Y91.345 E11.3055
G1 X110.293 Y90.973 E11.31916
G1 X110.62 Y90.563 E11.3366
G1 X110.906 Y90.336 E11.34875
G1 X111.121 Y90.223 E11.35682
G1 X111.714 Y90.025 E11.37762
G1 X112.06 Y89.994 E11.38917
G1 X137.936 Y89.993 E12.24981
G1 X138.638 Y90.117 E12.27352
G1 X139.081 Y90.329 E12.28986
G1 X139.564 Y90.784 E12.31193
G1 X139.797 Y91.134 E12.32591
G1 X139.945 Y91.565 E12.34107
G1 X140.007 Y92.014 E12.35614
G1 X140.006 Y117.943 E13.21854
G1 X139.942 Y118.441 E13.23524
G1 X139.752 Y118.927 E13.2526
G1 X139.399 Y119.417 E13.27269
G1 X139.171 Y119.591 E13.28223
G1 X138.96 Y119.672 E13.28974
G0 F3600 X139.137 Y120.033
;TYPE:WALL-OUTER
G1 F1800 X138.733 Y120.278 E13.30546
G1 X138.061 Y120.409 E13.32823
G1 X138.004 Y120.407 E13.33013
G1 X111.965 Y120.406 E14.19619
G1 X111.468 Y120.333 E14.21289
G1 X110.889 Y120.119 E14.23343
G1 X110.518 Y119.871 E14.24827
G1 X110.146 Y119.497 E14.26581
G1 X109.948 Y119.235 E14.27674
G1 X109.758 Y118.839 E14.29134
G1 X109.626 Y118.145 E14.31484
G1 X109.594 Y117.983 E14.32033
G1 X109.594 Y92.017 E15.18397
G1 X109.734 Y91.226 E15.21068
G1 X109.952 Y90.759 E15.22782
G1 X110.334 Y90.28 E15.2482
G1 X110.691 Y89.997 E15.26335
G1 X110.96 Y89.855 E15.27347
G1 X111.631 Y89.631 E15.297
G1 X112.047 Y89.594 E15.31089
G1 X137.977 Y89.593 E16.17333
G1 X138.399 Y89.682 E16.18767
G1 X138.753 Y89.728 E16.19954
G1 X139.308 Y89.994 E16.22001
G1 X139.873 Y90.526 E16.24582
G1 X140.158 Y90.953 E16.2629
G1 X140.336 Y91.472 E16.28115
G1 X140.407 Y91.989 E16.29851
G1 X140.406 Y117.971 E17.16267
G1 X140.333 Y118.538 E17.18168
G1 X140.108 Y119.113 E17.20222
G1 X139.819 Y119.548 E17.21959
G1 X139.671 Y119.713 E17.22696
G1 X139.367 Y119.945 E17.23968
G1 X139.137 Y120.033 E17.24787
G0 F3600 X138.966 Y120.136
G0 X138.445 Y119.529
;TYPE:SKIN
G1 F1800 X137.992 Y119.618 E17.26323
G1 X112.025 Y119.616 E18.12689
G1 X111.662 Y119.563 E18.1391
G1 X111.254 Y119.411 E18.15358
G1 X111.028 Y119.26 E18.16262
G1 X110.62 Y118.809 E18.18284
G1 X110.515 Y118.591 E18.19089
G1 X110.384 Y117.908 E18.21402
G1 X110.384 Y92.087 E19.07283
G1 X110.495 Y91.462 E19.09395
G1 X110.626 Y91.181 E19.10426
G1 X110.897 Y90.842 E19.11869
G1 X111.275 Y90.582 E19.13395
G1 X111.796 Y90.409 E19.15221
G1 X112.073 Y90.384 E19.16146
G1 X137.902 Y90.383 E20.02054
G1 X138.517 Y90.492 E20.04131
G1 X138.859 Y90.655 E20.05391
G1 X139.266 Y91.039 E20.07252
G1 X139.443 Y91.306 E20.08318
G1 X139.565 Y91.659 E20.0956
G1 X139.617 Y92.038 E20.10832
G1 X139.616 Y117.925 E20.96933
G1 X139.562 Y118.341 E20.98328
G1 X139.407 Y118.74 E20.99752
G1 X139.118 Y119.141 E21.01396
G1 X138.978 Y119.248 E21.01982
G1 X138.445 Y119.529 E21.03986
G0 F3600 X111.315 Y119.235
G1 F1800 X110.755 Y118.675 E21.0662
G0 F3600 X110.569 Y117.923
G1 F1800 X112.081 Y119.435 E21.13732
G0 F3600 X112.647 Y119.435
G1 F1800 X110.563 Y117.351 E21.23534
G0 F3600 X110.563 Y116.785
G1 F1800 X113.212 Y119.435 E21.35997
G0 F3600 X113.778 Y119.435
G1 F1800 X110.563 Y116.22 E21.51119
G0 F3600 X110.563 Y115.654
G1 F1800 X114.344 Y119.435 E21.68904
G0 F3600 X114.909 Y119.435
G1 F1800 X110.563 Y115.088 E21.89349
G0 F3600 X110.563 Y114.523
G1 F1800 X115.475 Y119.435 E22.12453
G0 F3600 X116.041 Y119.435
G1 F1800 X110.563 Y113.957 E22.3822
G0 F3600 X110.563 Y113.391
G1 F1800 X116.606 Y119.435 E22.66647
G0 F3600 X117.172 Y119.435
G1 F1800 X110.563 Y112.825 E22.97736
G0 F3600 X110.563 Y112.26
G1 F1800 X117.738 Y119.435 E23.31485
G0 F3600 X118.303 Y119.435
G1 F1800 X110.563 Y111.694 E23.67894
G0 F3600 X110.563 Y111.128
G1 F1800 X118.87 Y119.435 E24.06967
G0 F3600 X119.435 Y119.435
G1 F1800 X110.563 Y110.563 E24.48698
G0 F3600 X110.563 Y109.997
G1 F1800 X120.001 Y119.435 E24.93092
G0 F3600 X120.567 Y119.435
G1 F1800 X110.563 Y109.431 E25.40148
G0 F3600 X110.563 Y108.866
G1 F1800 X121.133 Y119.435 E25.89863
G0 F3600 X121.698 Y119.435
G1 F1800 X110.563 Y108.3 E26.42239
G0 F3600 X110.563 Y107.734
G1 F1800 X122.264 Y119.435 E26.97277
G0 F3600 X122.83 Y119.435
G1 F1800 X110.563 Y107.169 E27.54975
G0 F3600 X110.563 Y106.603
G1 F1800 X123.395 Y119.435 E28.15333
G0 F3600 X123.961 Y119.435
G1 F1800 X110.563 Y106.037 E28.78353
G0 F3600 X110.563 Y105.472
G1 F1800 X124.527 Y119.435 E29.44033
G0 F3600 X125.093 Y119.436
G1 F1800 X110.563 Y104.906 E30.12377
G0 F3600 X110.563 Y104.34
G1 F1800 X125.659 Y119.436 E30.83384
G0 F3600 X126.224 Y119.436
G1 F1800 X110.563 Y103.774 E31.57051
G0 F3600 X110.563 Y103.209
G1 F1800 X126.79 Y119.436 E32.33378
G0 F3600 X127.356 Y119.436
G1 F1800 X110.563 Y102.643 E33.12367
G0 F3600 X110.563 Y102.077
G1 F1800 X127.921 Y119.436 E33.94016
G0 F3600 X128.487 Y119.436
G1 F1800 X110.563 Y101.512 E34.78325
G0 F3600 X110.563 Y100.946
G1 F1800 X129.053 Y119.436 E35.65296
G0 F3600 X129.619 Y119.436
G1 F1800 X110.563 Y100.38 E36.5493
G0 F3600 X110.563 Y99.815
G1 F1800 X130.184 Y119.436 E37.47221
G0 F3600 X130.75 Y119.436
G1 F1800 X110.563 Y99.249 E38.42175
G0 F3600 X110.563 Y98.683
G1 F1800 X131.316 Y119.436 E39.3979
G0 F3600 X131.882 Y119.437
G1 F1800 X110.563 Y98.118 E40.40068
G0 F3600 X110.563 Y97.552
G1 F1800 X132.448 Y119.437 E41.43009
G0 F3600 X133.013 Y119.437
G1 F1800 X110.563 Y96.986 E42.48609
G0 F3600 X110.563 Y96.421
G1 F1800 X133.579 Y119.437 E43.56869
G0 F3600 X134.145 Y119.437
G1 F1800 X110.563 Y95.855 E44.67792
G0 F3600 X110.563 Y95.289
G1 F1800 X134.71 Y119.437 E45.81374
G0 F3600 X135.276 Y119.437
G1 F1800 X110.563 Y94.724 E46.97617
G0 F3600 X110.563 Y94.158
G1 F1800 X135.842 Y119.437 E48.16521
G0 F3600 X136.407 Y119.437
G1 F1800 X110.563 Y93.592 E49.38086
G0 F3600 X110.563 Y93.026
G1 F1800 X136.973 Y119.437 E50.62313
G0 F3600 X137.539 Y119.437
G1 F1800 X110.563 Y92.461 E51.892
G0 F3600 X110.594 Y91.926
G1 F1800 X138.083 Y119.416 E53.18502
G0 F3600 X138.519 Y119.286
G1 F1800 X110.694 Y91.46 E54.49384
G0 F3600 X110.91 Y91.111
G1 F1800 X138.888 Y119.089 E55.80984
G0 F3600 X139.151 Y118.786
G1 F1800 X111.209 Y90.844 E57.12415
G0 F3600 X111.596 Y90.665
G1 F1800 X139.342 Y118.412 E58.42926
G0 F3600 X139.432 Y117.936
G1 F1800 X112.062 Y90.566 E59.71666
G0 F3600 X112.625 Y90.564
G1 F1800 X139.435 Y117.374 E60.97772
G0 F3600 X139.435 Y116.808
G1 F1800 X113.191 Y90.564 E62.21216
G0 F3600 X113.757 Y90.564
G1 F1800 X139.435 Y116.242 E63.41997
G0 F3600 X139.435 Y115.677
G1 F1800 X114.322 Y90.564 E64.60121
G0 F3600 X114.888 Y90.564
G1 F1800 X139.435 Y115.111 E65.75583
G0 F3600 X139.435 Y114.545
G1 F1800 X115.454 Y90.564 E66.88382
G0 F3600 X116.019 Y90.564
G1 F1800 X139.435 Y113.979 E67.98521
G0 F3600 X139.435 Y113.414
G1 F1800 X116.585 Y90.564 E69.06001
G0 F3600 X117.151 Y90.564
G1 F1800 X139.435 Y112.848 E70.10818
G0 F3600 X139.435 Y112.282
G1 F1800 X117.717 Y90.564 E71.12973
G0 F3600 X118.282 Y90.564
G1 F1800 X139.435 Y111.717 E72.1247
G0 F3600 X139.435 Y111.151
G1 F1800 X118.848 Y90.564 E73.09305
G0 F3600 X119.414 Y90.564
G1 F1800 X139.435 Y110.585 E74.03477
G0 F3600 X139.435 Y110.02
G1 F1800 X119.979 Y90.564 E74.94992
G0 F3600 X120.545 Y90.564
G1 F1800 X139.435 Y109.454 E75.83845
G0 F3600 X139.435 Y108.888
G1 F1800 X121.111 Y90.564 E76.70036
G0 F3600 X121.676 Y90.564
G1 F1800 X139.435 Y108.323 E77.53569
G0 F3600 X139.435 Y107.757
G1 F1800 X122.242 Y90.564 E78.34439
G0 F3600 X122.808 Y90.564
G1 F1800 X139.435 Y107.191 E79.12647
G0 F3600 X139.435 Y106.626
G1 F1800 X123.373 Y90.564 E79.88198
G0 F3600 X123.939 Y90.564
G1 F1800 X139.435 Y106.06 E80.61087
G0 F3600 X139.435 Y105.494
G1 F1800 X124.505 Y90.564 E81.31313
G0 F3600 X125.07 Y90.563
G1 F1800 X139.436 Y104.929 E81.98886
G0 F3600 X139.436 Y104.364
G1 F1800 X125.635 Y90.563 E82.63802
G0 F3600 X126.201 Y90.563
G1 F1800 X139.436 Y103.798 E83.26055
G0 F3600 X139.436 Y103.232
G1 F1800 X126.767 Y90.563 E83.85646
G0 F3600 X127.332 Y90.563
G1 F1800 X139.436 Y102.666 E84.42577
G0 F3600 X139.436 Y102.101
G1 F1800 X127.898 Y90.563 E84.96849
G0 F3600 X128.464 Y90.563
G1 F1800 X139.436 Y101.535 E85.48457
G0 F3600 X139.436 Y100.969
G1 F1800 X129.03 Y90.563 E85.97404
G0 F3600 X129.595 Y90.563
G1 F1800 X139.436 Y100.404 E86.43693
G0 F3600 X139.436 Y99.838
G1 F1800 X130.161 Y90.563 E86.8732
G0 F3600 X130.727 Y90.563
G1 F1800 X139.436 Y99.272 E87.28284
G0 F3600 X139.436 Y98.707
G1 F1800 X131.292 Y90.563 E87.66591
G0 F3600 X131.858 Y90.563
G1 F1800 X139.436 Y98.141 E88.02236
G0 F3600 X139.436 Y97.575
G1 F1800 X132.424 Y90.563 E88.35218
G0 F3600 X132.989 Y90.563
G1 F1800 X139.436 Y97.01 E88.65543
G0 F3600 X139.436 Y96.444
G1 F1800 X133.555 Y90.563 E88.93205
G0 F3600 X134.121 Y90.563
G1 F1800 X139.436 Y95.878 E89.18205
G0 F3600 X139.436 Y95.313
G1 F1800 X134.686 Y90.563 E89.40548
G0 F3600 X135.252 Y90.563
G1 F1800 X139.436 Y94.747 E89.60228
G0 F3600 X139.436 Y94.181
G1 F1800 X135.818 Y90.563 E89.77246
G0 F3600 X136.383 Y90.563
G1 F1800 X139.436 Y93.615 E89.91604
G0 F3600 X139.436 Y93.05
G1 F1800 X136.949 Y90.563 E90.03302
G0 F3600 X137.515 Y90.563
G1 F1800 X139.436 Y92.484 E90.12338
G0 F3600 X139.416 Y91.899
G1 F1800 X138.122 Y90.605 E90.18425
M104 S200
G1 X138.052 Y90.535
;MESH:NONMESH
G0 F600 X138.052 Y90.535 Z0.4
G0 F3600 X138.019 Y119.909
G0 X138.111 Y120.445
;TIME_ELAPSED:101.820064
;LAYER:1
M106 S255
;TYPE:WALL-INNER
;MESH:Raspberry_Camera_case_back.stl
G1 F2700 X112.008 Y120.448 E91.05244
G1 X111.367 Y120.353 E91.07399
G1 X110.854 Y120.124 E91.09267
G1 X110.468 Y119.898 E91.10755
G1 X110.082 Y119.5 E91.12599
G1 X109.89 Y119.225 E91.13715
G1 X109.648 Y118.644 E91.15808
G1 X109.554 Y117.961 E91.18101
G1 X109.553 Y92.04 E92.04315
G1 X109.63 Y91.42 E92.06393
G1 X109.766 Y91.033 E92.07757
G1 X110.035 Y90.554 E92.09584
G1 X110.07 Y90.513 E92.09763
G1 X110.462 Y90.108 E92.11638
G1 X110.971 Y89.79 E92.13634
G1 X111.358 Y89.645 E92.15009
G1 X112.034 Y89.554 E92.17278
G1 X138.104 Y89.555 E93.03987
G1 X138.561 Y89.625 E93.05524
G1 X139.151 Y89.85 E93.07625
G1 X139.663 Y90.215 E93.09716
G1 X140.051 Y90.676 E93.1172
G1 X140.302 Y91.193 E93.13632
G1 X140.388 Y91.498 E93.14686
G1 X140.446 Y92.023 E93.16442
G1 X140.446 Y117.966 E94.02729
G1 X140.398 Y118.459 E94.04377
G1 X140.214 Y119.023 E94.0635
G1 X139.875 Y119.558 E94.08456
G1 X139.435 Y119.971 E94.10463
G1 X139.071 Y120.193 E94.11882
G1 X138.813 Y120.301 E94.12812
G1 X138.26 Y120.426 E94.14697
G1 X138.111 Y120.445 E94.15197
G0 F5400 X138.137 Y120.845
;TYPE:WALL-OUTER
G1 F1800 X111.976 Y120.848 E95.02209
